%
(Header)
(Generated by gcodetools from Inkscape.)
(Using default header. To add your own header create file "header" in the output dir.)
M3
(Header end.)
G21 (All units in mm)

(Start cutting path id: path7995)
(Change tool to Cylindrical cutter)

G00 Z0.100000
G00 X67.405723 Y30.640440

G01 Z-0.100000 F10000.0(Penetrate)
G01 X66.434206 Y30.640440 Z-0.100000 F400.000000
G01 X66.434206 Y31.245060 Z-0.100000
G02 X65.994871 Y30.916066 Z-0.100000 I-2.568322 J2.971874
G02 X65.560874 Y30.681780 Z-0.100000 I-1.719035 J2.665261
G02 X65.094976 Y30.532901 Z-0.100000 I-0.920319 J2.076594
G02 X64.573854 Y30.480240 Z-0.100000 I-0.521122 J2.552136
G02 X63.645445 Y30.693214 Z-0.100000 I-0.000000 J2.130072
G02 X62.930544 Y31.276060 Z-0.100000 I0.870585 J1.797694
G02 X62.507485 Y32.133025 Z-0.100000 I2.002919 J1.521692
G02 X62.325930 Y33.482650 Z-0.100000 I4.925572 J1.349625
G02 X62.382799 Y34.206516 Z-0.100000 I4.635325 J0.000000
G02 X62.532635 Y34.790060 Z-0.100000 I3.152145 J-0.498363
G02 X62.790137 Y35.336379 Z-0.100000 I3.273960 J-1.209301
G02 X63.101076 Y35.766740 Z-0.100000 I2.331108 J-1.356736
G02 X63.484813 Y36.115089 Z-0.100000 I1.863856 J-1.667666
G02 X63.917564 Y36.366190 Z-0.100000 I1.379415 J-1.878849
G02 X64.398659 Y36.521304 Z-0.100000 I0.996395 J-2.266750
G02 X64.889081 Y36.572900 Z-0.100000 I0.490422 J-2.304938
G02 X65.340081 Y36.545532 Z-0.100000 I0.000000 J-3.729755
G02 X65.695233 Y36.474700 Z-0.100000 I-0.289732 J-2.378493
G02 X66.038721 Y36.361249 Z-0.100000 I-0.768072 J-2.902155
G02 X66.434206 Y36.180150 Z-0.100000 I-1.607217 J-4.032219
G01 X66.434206 Y38.681280 Z-0.100000
G01 X67.405723 Y38.681280 Z-0.100000
G01 X67.405723 Y30.640440 Z-0.100000
G00 Z0.100000

(End cutting path id: path7995)


(Start cutting path id: path7995)
(Change tool to Cylindrical cutter)

G00 Z0.100000
G00 X66.434206 Y32.061540

G01 Z-0.100000 F10000.0(Penetrate)
G01 X66.434206 Y35.374000 Z-0.100000 F400.000000
G03 X66.035560 Y35.531702 Z-0.100000 I-1.991788 J-4.452229
G03 X65.731406 Y35.616880 Z-0.100000 I-0.864798 J-2.502389
G03 X65.419412 Y35.666010 Z-0.100000 I-0.584648 J-2.697542
G03 X65.054445 Y35.684080 Z-0.100000 I-0.364967 J-3.676616
G03 X64.313910 Y35.526053 Z-0.100000 I-0.000000 J-1.814135
G03 X63.783205 Y35.115640 Z-0.100000 I0.581313 J-1.300029
G03 X63.466165 Y34.498893 Z-0.100000 I1.363394 J-1.090717
G03 X63.328452 Y33.503340 Z-0.100000 I3.529674 J-0.995553
G03 X63.438785 Y32.507849 Z-0.100000 I4.546132 J-0.000000
G03 X63.679852 Y31.937540 Z-0.100000 I1.695149 J0.380429
G03 X64.114747 Y31.560441 Z-0.100000 I0.890990 J0.588223
G03 X64.806398 Y31.405270 Z-0.100000 I0.691651 J1.463876
G03 X65.210975 Y31.448476 Z-0.100000 I0.000000 J1.915792
G03 X65.643556 Y31.586140 Z-0.100000 I-0.503623 J2.331023
G03 X66.052074 Y31.797542 Z-0.100000 I-1.449231 J3.300943
G03 X66.434206 Y32.061560 Z-0.100000 I-1.894210 J3.150177
G01 X66.434206 Y32.061540 Z-0.100000
G00 Z0.100000

(End cutting path id: path7995)


(Start cutting path id: path7993)
(Change tool to Cylindrical cutter)

G00 Z0.100000
G00 X60.791140 Y30.640440

G01 Z-0.100000 F10000.0(Penetrate)
G01 X59.819623 Y30.640440 Z-0.100000 F400.000000
G01 X59.819623 Y38.681290 Z-0.100000
G01 X60.791140 Y38.681290 Z-0.100000
G01 X60.791140 Y30.640440 Z-0.100000
G00 Z0.100000

(End cutting path id: path7993)


(Start cutting path id: path7991)
(Change tool to Cylindrical cutter)

G00 Z0.100000
G00 X58.884279 Y35.353330

G01 Z-0.100000 F10000.0(Penetrate)
G01 X58.832599 Y35.353330 Z-0.100000 F400.000000
G03 X58.614358 Y35.397892 Z-0.100000 I-0.796012 J-3.341726
G03 X58.408852 Y35.425630 Z-0.100000 I-0.500762 J-2.934943
G03 X58.206838 Y35.443958 Z-0.100000 I-0.349608 J-2.730980
G03 X57.928261 Y35.451430 Z-0.100000 I-0.278577 J-5.189203
G03 X57.490129 Y35.401242 Z-0.100000 I-0.000000 J-1.937507
G03 X57.060097 Y35.249890 Z-0.100000 I0.468223 J-2.016940
G03 X56.657128 Y35.028663 Z-0.100000 I1.540389 J-3.283468
G03 X56.253945 Y34.738290 Z-0.100000 I2.270250 J-3.577340
G01 X56.253945 Y30.640350 Z-0.100000
G01 X55.282428 Y30.640350 Z-0.100000
G01 X55.282428 Y36.412610 Z-0.100000
G01 X56.253945 Y36.412610 Z-0.100000
G01 X56.253945 Y35.559950 Z-0.100000
G02 X56.852809 Y35.991810 Z-0.100000 I4.436311 J-5.520717
G02 X57.271970 Y36.216240 Z-0.100000 I1.591351 J-2.468474
G02 X57.726576 Y36.364344 Z-0.100000 I0.957125 J-2.166133
G02 X58.176308 Y36.412610 Z-0.100000 I0.449732 J-2.071139
G02 X58.429161 Y36.407271 Z-0.100000 I0.000000 J-5.990657
G02 X58.543211 Y36.397110 Z-0.100000 I-0.051828 J-1.226831
G02 X58.656580 Y36.384253 Z-0.100000 I-0.228030 J-2.516919
G02 X58.884275 Y36.350610 Z-0.100000 I-1.389344 J-10.190434
G01 X58.884279 Y35.353330 Z-0.100000
G00 Z0.100000

(End cutting path id: path7991)


(Start cutting path id: path7989)
(Change tool to Cylindrical cutter)

G00 Z0.100000
G00 X53.773481 Y33.523990

G01 Z-0.100000 F10000.0(Penetrate)
G02 X53.562755 Y32.193148 Z-0.100000 I-4.307829 J0.000000 F400.000000
G02 X53.050011 Y31.296730 Z-0.100000 I-2.406683 J0.781751
G02 X52.225318 Y30.705174 Z-0.100000 I-1.713728 J1.518489
G02 X51.112145 Y30.480240 Z-0.100000 I-1.113173 J2.642016
G02 X49.989041 Y30.706071 Z-0.100000 I0.000000 J2.905634
G02 X49.163944 Y31.296730 Z-0.100000 I0.881173 J2.102540
G02 X48.655079 Y32.192234 Z-0.100000 I1.901543 J1.672873
G02 X48.445641 Y33.523990 Z-0.100000 I4.129410 J1.331756
G02 X48.655078 Y34.855736 Z-0.100000 I4.338798 J-0.000000
G02 X49.163944 Y35.751240 Z-0.100000 I2.410415 J-0.777375
G02 X49.989976 Y36.345941 Z-0.100000 I1.712963 J-1.508260
G02 X51.112145 Y36.572900 Z-0.100000 I1.122169 J-2.660724
G02 X52.224387 Y36.346844 Z-0.100000 I0.000000 J-2.849253
G02 X53.050011 Y35.751240 Z-0.100000 I-0.894847 J-2.110475
G02 X53.562755 Y34.854822 Z-0.100000 I-1.893946 J-1.678175
G02 X53.773481 Y33.523990 Z-0.100000 I-4.097054 J-1.330832
G01 X53.773481 Y33.523990 Z-0.100000
G00 Z0.100000

(End cutting path id: path7989)


(Start cutting path id: path7989)
(Change tool to Cylindrical cutter)

G00 Z0.100000
G00 X52.770958 Y33.523990

G01 Z-0.100000 F10000.0(Penetrate)
G03 X52.631834 Y34.596116 Z-0.100000 I-4.200592 J0.000000 F400.000000
G03 X52.331709 Y35.187970 Z-0.100000 I-1.530219 J-0.403939
G03 X51.819701 Y35.584135 Z-0.100000 I-1.078327 J-0.864697
G03 X51.112145 Y35.735740 Z-0.100000 I-0.707556 J-1.575314
G03 X50.394704 Y35.583197 Z-0.100000 I0.000000 J-1.763401
G03 X49.882246 Y35.187970 Z-0.100000 I0.558517 J-1.254028
G03 X49.585829 Y34.597080 Z-0.100000 I1.239426 J-0.991545
G03 X49.448164 Y33.523990 Z-0.100000 I4.113508 J-1.073090
G03 X49.584144 Y32.485533 Z-0.100000 I4.033251 J-0.000000
G03 X49.887414 Y31.875510 Z-0.100000 I1.648965 J0.439379
G03 X50.401568 Y31.471673 Z-0.100000 I1.088612 J0.856770
G03 X51.112145 Y31.317400 Z-0.100000 I0.710577 J1.559309
G03 X51.813807 Y31.469623 Z-0.100000 I-0.000000 J1.693251
G03 X52.326541 Y31.870340 Z-0.100000 I-0.576396 J1.265911
G03 X52.632692 Y32.476775 Z-0.100000 I-1.305518 J1.039570
G03 X52.770958 Y33.523990 Z-0.100000 I-3.896626 J1.047215
G01 X52.770958 Y33.523990 Z-0.100000
G00 Z0.100000

(End cutting path id: path7989)


(Start cutting path id: path7987)
(Change tool to Cylindrical cutter)

G00 Z0.100000
G00 X47.453453 Y36.412700

G01 Z-0.100000 F10000.0(Penetrate)
G01 X45.949669 Y30.640440 Z-0.100000 F400.000000
G01 X45.050499 Y30.640440 Z-0.100000
G01 X43.567385 Y35.089780 Z-0.100000
G01 X42.094607 Y30.640440 Z-0.100000
G01 X41.200605 Y30.640440 Z-0.100000
G01 X39.681318 Y36.412700 Z-0.100000
G01 X40.694176 Y36.412700 Z-0.100000
G01 X41.753543 Y31.942690 Z-0.100000
G01 X43.195315 Y36.412700 Z-0.100000
G01 X43.996300 Y36.412700 Z-0.100000
G01 X45.474246 Y31.942690 Z-0.100000
G01 X46.476768 Y36.412700 Z-0.100000
G01 X47.453453 Y36.412700 Z-0.100000
G00 Z0.100000

(End cutting path id: path7987)


(Start cutting path id: path7985)
(Change tool to Cylindrical cutter)

G00 Z0.100000
G00 X34.963259 Y33.523990

G01 Z-0.100000 F10000.0(Penetrate)
G02 X34.752533 Y32.193148 Z-0.100000 I-4.307829 J0.000000 F400.000000
G02 X34.239789 Y31.296730 Z-0.100000 I-2.406683 J0.781751
G02 X33.415096 Y30.705174 Z-0.100000 I-1.713727 J1.518488
G02 X32.301922 Y30.480240 Z-0.100000 I-1.113174 J2.642020
G02 X31.178818 Y30.706071 Z-0.100000 I0.000000 J2.905634
G02 X30.353721 Y31.296730 Z-0.100000 I0.881173 J2.102540
G02 X29.844857 Y32.192234 Z-0.100000 I1.901544 J1.672872
G02 X29.635419 Y33.523990 Z-0.100000 I4.129416 J1.331756
G02 X29.844856 Y34.855737 Z-0.100000 I4.338804 J0.000000
G02 X30.353721 Y35.751240 Z-0.100000 I2.410416 J-0.777374
G02 X31.179753 Y36.345941 Z-0.100000 I1.712963 J-1.508260
G02 X32.301922 Y36.572900 Z-0.100000 I1.122169 J-2.660724
G02 X33.414165 Y36.346844 Z-0.100000 I0.000000 J-2.849256
G02 X34.239789 Y35.751240 Z-0.100000 I-0.894846 J-2.110474
G02 X34.752533 Y34.854822 Z-0.100000 I-1.893946 J-1.678175
G02 X34.963259 Y33.523990 Z-0.100000 I-4.097054 J-1.330832
G01 X34.963259 Y33.523990 Z-0.100000
G00 Z0.100000

(End cutting path id: path7985)


(Start cutting path id: path7985)
(Change tool to Cylindrical cutter)

G00 Z0.100000
G00 X33.960736 Y33.523990

G01 Z-0.100000 F10000.0(Penetrate)
G03 X33.821611 Y34.596115 Z-0.100000 I-4.200582 J0.000000 F400.000000
G03 X33.521486 Y35.187970 Z-0.100000 I-1.530218 J-0.403940
G03 X33.009478 Y35.584135 Z-0.100000 I-1.078327 J-0.864697
G03 X32.301922 Y35.735740 Z-0.100000 I-0.707556 J-1.575314
G03 X31.584481 Y35.583197 Z-0.100000 I0.000000 J-1.763401
G03 X31.072023 Y35.187970 Z-0.100000 I0.558517 J-1.254028
G03 X30.775606 Y34.597080 Z-0.100000 I1.239426 J-0.991545
G03 X30.637941 Y33.523990 Z-0.100000 I4.113508 J-1.073090
G03 X30.773921 Y32.485533 Z-0.100000 I4.033251 J-0.000000
G03 X31.077191 Y31.875510 Z-0.100000 I1.648965 J0.439379
G03 X31.591346 Y31.471673 Z-0.100000 I1.088615 J0.856774
G03 X32.301922 Y31.317400 Z-0.100000 I0.710576 J1.559307
G03 X33.003585 Y31.469623 Z-0.100000 I0.000000 J1.693254
G03 X33.516319 Y31.870340 Z-0.100000 I-0.576395 J1.265910
G03 X33.822470 Y32.476775 Z-0.100000 I-1.305518 J1.039570
G03 X33.960736 Y33.523990 Z-0.100000 I-3.896626 J1.047215
G01 X33.960736 Y33.523990 Z-0.100000
G00 Z0.100000

(End cutting path id: path7985)


(Start cutting path id: path7983)
(Change tool to Cylindrical cutter)

G00 Z0.100000
G00 X28.110965 Y30.640440

G01 Z-0.100000 F10000.0(Penetrate)
G01 X27.139448 Y30.640440 Z-0.100000 F400.000000
G01 X27.139448 Y38.681290 Z-0.100000
G01 X28.110965 Y38.681290 Z-0.100000
G01 X28.110965 Y30.640440 Z-0.100000
G00 Z0.100000

(End cutting path id: path7983)


(Start cutting path id: path7981)
(Change tool to Cylindrical cutter)

G00 Z0.100000
G00 X25.196414 Y30.640440

G01 Z-0.100000 F10000.0(Penetrate)
G01 X24.224897 Y30.640440 Z-0.100000 F400.000000
G01 X24.224897 Y38.681290 Z-0.100000
G01 X25.196414 Y38.681290 Z-0.100000
G01 X25.196414 Y30.640440 Z-0.100000
G00 Z0.100000

(End cutting path id: path7981)


(Start cutting path id: path7979)
(Change tool to Cylindrical cutter)

G00 Z0.100000
G00 X22.741784 Y33.425800

G01 Z-0.100000 F10000.0(Penetrate)
G01 X18.488813 Y33.425800 Z-0.100000 F400.000000
G03 X18.533571 Y32.902202 Z-0.100000 I3.084986 J-0.000000
G03 X18.649010 Y32.495630 Z-0.100000 I1.966501 J0.338677
G03 X18.845867 Y32.128535 Z-0.100000 I1.841007 J0.750920
G03 X19.088260 Y31.849670 Z-0.100000 I1.293630 J0.879663
G03 X19.377188 Y31.635668 Z-0.100000 I1.132109 J1.226434
G03 X19.723880 Y31.477600 Z-0.100000 I0.946920 J1.617656
G03 X20.101330 Y31.386734 Z-0.100000 I0.718811 J2.156491
G03 X20.540368 Y31.353580 Z-0.100000 I0.439038 J2.890415
G03 X21.118856 Y31.409879 Z-0.100000 I-0.000000 J3.000211
G03 X21.723758 Y31.586120 Z-0.100000 I-0.679776 J3.459362
G03 X22.302393 Y31.857427 Z-0.100000 I-1.935021 J4.879655
G03 X22.576419 Y32.051210 Z-0.100000 I-0.693257 J1.270965
G01 X22.628099 Y32.051210 Z-0.100000
G01 X22.628099 Y30.991840 Z-0.100000
G02 X22.131437 Y30.801757 Z-0.100000 I-3.128287 J7.429885
G02 X21.625577 Y30.645610 Z-0.100000 I-2.608095 J7.551838
G02 X21.109146 Y30.542174 Z-0.100000 I-1.011105 J3.707292
G02 X20.550707 Y30.506080 Z-0.100000 I-0.558439 J4.301939
G02 X19.205120 Y30.732055 Z-0.100000 I0.000000 J4.119190
G02 X18.307950 Y31.281230 Z-0.100000 I0.799766 J2.313979
G02 X17.736941 Y32.161191 Z-0.100000 I1.627332 J1.681225
G02 X17.501798 Y33.492980 Z-0.100000 I3.653883 J1.331789
G02 X17.723136 Y34.822216 Z-0.100000 I4.102007 J0.000000
G02 X18.271776 Y35.740910 Z-0.100000 I2.446987 J-0.838160
G02 X19.146199 Y36.344720 Z-0.100000 I1.810394 J-1.686705
G02 X20.307828 Y36.572900 Z-0.100000 I1.161629 J-2.842746
G02 X21.389026 Y36.374733 Z-0.100000 I-0.000000 J-3.048593
G02 X22.106168 Y35.890770 Z-0.100000 I-0.669800 J-1.765833
G02 X22.552986 Y35.134310 Z-0.100000 I-1.495513 J-1.393543
G02 X22.741788 Y33.952900 Z-0.100000 I-3.601866 J-1.181410
G01 X22.741784 Y33.425800 Z-0.100000
G00 Z0.100000

(End cutting path id: path7979)


(Start cutting path id: path7979)
(Change tool to Cylindrical cutter)

G00 Z0.100000
G00 X21.796105 Y34.169940

G01 Z-0.100000 F10000.0(Penetrate)
G03 X21.678565 Y34.890723 Z-0.100000 I-2.367480 J-0.016097 F400.000000
G03 X21.408532 Y35.353330 Z-0.100000 I-1.210401 J-0.396419
G03 X20.975002 Y35.645399 Z-0.100000 I-0.802231 J-0.722997
G03 X20.256147 Y35.771910 Z-0.100000 I-0.718855 J-1.979068
G03 X19.529229 Y35.641975 Z-0.100000 I0.000000 J-2.098332
G03 X19.010745 Y35.311990 Z-0.100000 I0.503525 J-1.363478
G03 X18.656839 Y34.802416 Z-0.100000 I1.236336 J-1.236336
G03 X18.488813 Y34.169940 Z-0.100000 I1.769309 J-0.808598
G01 X21.796105 Y34.169940 Z-0.100000
G00 Z0.100000

(End cutting path id: path7979)


(Start cutting path id: path7977)
(Change tool to Cylindrical cutter)

G00 Z0.100000
G00 X16.039350 Y30.640440

G01 Z-0.100000 F10000.0(Penetrate)
G01 X15.067833 Y30.640440 Z-0.100000 F400.000000
G01 X15.067833 Y33.927060 Z-0.100000
G03 X15.055436 Y34.324141 Z-0.100000 I-6.365523 J-0.000000
G03 X15.021323 Y34.671200 Z-0.100000 I-4.895400 J-0.305971
G03 X14.946238 Y35.012252 Z-0.100000 I-2.036294 J-0.269516
G03 X14.850790 Y35.218970 Z-0.100000 I-0.833712 J-0.259553
G03 X14.694558 Y35.405061 Z-0.100000 I-0.649295 J-0.386487
G03 X14.478720 Y35.539370 Z-0.100000 I-0.539718 J-0.626757
G03 X14.228906 Y35.615369 Z-0.100000 I-0.427644 J-0.957111
G03 X13.848268 Y35.647890 Z-0.100000 I-0.380638 J-2.211335
G03 X13.460104 Y35.602703 Z-0.100000 I0.000000 J-1.689779
G03 X13.016277 Y35.451520 Z-0.100000 I0.558784 J-2.367487
G03 X12.596573 Y35.231127 Z-0.100000 I1.665082 J-3.680715
G03 X12.184287 Y34.950260 Z-0.100000 I2.308747 J-3.832051
G01 X12.184287 Y30.640440 Z-0.100000
G01 X11.212770 Y30.640440 Z-0.100000
G01 X11.212770 Y38.681290 Z-0.100000
G01 X12.184287 Y38.681290 Z-0.100000
G01 X12.184287 Y35.771910 Z-0.100000
G02 X12.659668 Y36.115645 Z-0.100000 I2.819982 J-3.399408
G02 X13.124798 Y36.361020 Z-0.100000 I1.884137 J-3.008015
G02 X13.621526 Y36.520310 Z-0.100000 I1.034339 J-2.371336
G02 X14.122153 Y36.572900 Z-0.100000 I0.500627 J-2.356534
G02 X14.982964 Y36.409075 Z-0.100000 I0.000000 J-2.343466
G02 X15.548422 Y36.009620 Z-0.100000 I-0.537346 J-1.360603
G02 X15.890834 Y35.390713 Z-0.100000 I-1.269739 J-1.106660
G02 X16.039348 Y34.386980 Z-0.100000 I-3.317603 J-1.003733
G01 X16.039350 Y30.640440 Z-0.100000
G00 Z0.100000

(End cutting path id: path7977)


(Footer)
M5
G00 X0.0000 Y0.0000
M2
(Using default footer. To add your own footer create file "footer" in the output dir.)
(end)
%
