%
(Header)
(Generated by gcodetools from Inkscape.)
(Using default header. To add your own header create file "header" in the output dir.)
M3
(Header end.)
G21 (All units in mm)

(Start cutting path id: use14)
(Change tool to Cylindrical cutter)

G00 Z0.100000
G00 X36.880859 Y33.062500

G01 Z-0.100000 F10000.0(Penetrate)
G03 X36.375696 Y32.980236 Z-0.100000 I-0.000000 J-1.592175 F400.000000
G03 X36.007812 Y32.750000 Z-0.100000 I0.294034 J-0.878855
G03 X35.784528 Y32.378917 Z-0.100000 I0.668063 J-0.654697
G03 X35.705078 Y31.867190 Z-0.100000 I1.608262 J-0.511727
G02 X35.694991 Y30.368981 Z-0.100000 I-111.269946 J-0.000000
G02 X35.658208 Y28.431640 Z-0.100000 I-175.529822 J2.363660
G03 X35.621445 Y26.499656 Z-0.100000 I172.466198 J-4.248160
G03 X35.611338 Y24.994140 Z-0.100000 I112.127029 J-1.505516
G02 X35.593763 Y23.854433 Z-0.100000 I-36.962529 J-0.000000
G02 X35.505869 Y21.544920 Z-0.100000 I-160.425068 J4.948921
G03 X35.419505 Y19.242380 Z-0.100000 I145.102111 J-6.595422
G03 X35.402354 Y18.082030 Z-0.100000 I39.243904 J-1.160350
G03 X35.481250 Y17.561538 Z-0.100000 I1.756338 J-0.000000
G03 X35.703135 Y17.185550 Z-0.100000 I0.905722 J0.281036
G03 X36.071138 Y16.952047 Z-0.100000 I0.661089 J0.635142
G03 X36.576182 Y16.869140 Z-0.100000 I0.505044 J1.496841
G03 X37.043823 Y16.950197 Z-0.100000 I0.000000 J1.389502
G03 X37.402354 Y17.179690 Z-0.100000 I-0.319504 J0.893962
G03 X37.631334 Y17.536989 Z-0.100000 I-0.743142 J0.728273
G03 X37.750010 Y18.039060 Z-0.100000 I-1.825002 J0.696444
G01 X37.750010 Y18.045060 Z-0.100000
G01 X37.752010 Y18.051060 Z-0.100000
G03 X37.814921 Y19.500925 Z-0.100000 I-81.629994 J4.268279
G03 X37.828180 Y20.262000 Z-0.100000 I-22.288807 J0.768966
G01 X37.828180 Y20.270000 Z-0.100000
G01 X37.970758 Y24.990700 Z-0.100000
G01 X37.970758 Y24.994700 Z-0.100000
G02 X37.980874 Y26.492802 Z-0.100000 I110.937458 J-0.000000
G02 X38.017628 Y28.420480 Z-0.100000 I173.372206 J-2.341435
G03 X38.054420 Y30.362106 Z-0.100000 I-174.589221 J4.279458
G03 X38.064498 Y31.867750 Z-0.100000 I-112.465133 J1.505644
G03 X37.984911 Y32.380511 Z-0.100000 I-1.691597 J-0.000000
G03 X37.759811 Y32.752510 Z-0.100000 I-0.885315 J-0.281608
G03 X37.389838 Y32.981472 Z-0.100000 I-0.660509 J-0.653904
G03 X36.880904 Y33.063060 Z-0.100000 I-0.508934 J-1.546523
G01 X36.880859 Y33.062500 Z-0.100000
G00 Z0.100000

(End cutting path id: use14)


(Start cutting path id: use14)
(Change tool to Cylindrical cutter)

G00 Z0.100000
G00 X36.880859 Y32.574200

G01 Z-0.100000 F10000.0(Penetrate)
G02 X37.250946 Y32.512485 Z-0.100000 I-0.000000 J-1.140511 F400.000000
G02 X37.414062 Y32.410140 Z-0.100000 I-0.137117 J-0.399694
G02 X37.515935 Y32.245182 Z-0.100000 I-0.305943 J-0.302877
G02 X37.578125 Y31.867170 Z-0.100000 I-1.117752 J-0.378012
G02 X37.568038 Y30.368961 Z-0.100000 I-111.269946 J-0.000000
G02 X37.531255 Y28.431620 Z-0.100000 I-175.529822 J2.363660
G03 X37.494551 Y26.504576 Z-0.100000 I172.530615 J-4.250038
G03 X37.484385 Y25.001930 Z-0.100000 I112.208620 J-1.510483
G01 X37.339854 Y20.273420 Z-0.100000
G01 X37.339854 Y20.269420 Z-0.100000
G02 X37.327509 Y19.532586 Z-0.100000 I-21.996044 J-0.000000
G02 X37.265634 Y18.087780 Z-0.100000 I-77.748198 J2.605909
G02 X37.169515 Y17.697010 Z-0.100000 I-1.419386 J0.141923
G02 X37.054697 Y17.521370 Z-0.100000 I-0.499090 J0.200913
G02 X36.886714 Y17.411860 Z-0.100000 I-0.331439 J0.324815
G02 X36.576181 Y17.355360 Z-0.100000 I-0.310533 J0.825129
G02 X36.214887 Y17.418245 Z-0.100000 I0.000000 J1.069317
G02 X36.052743 Y17.523330 Z-0.100000 I0.142948 J0.398201
G02 X35.951386 Y17.691647 Z-0.100000 I0.319738 J0.307217
G02 X35.888681 Y18.081920 Z-0.100000 I1.183175 J0.390273
G02 X35.905660 Y19.221551 Z-0.100000 I38.254248 J-0.000000
G02 X35.992197 Y21.521370 Z-0.100000 I147.189592 J-4.386867
G03 X36.079910 Y23.833584 Z-0.100000 I-157.901661 J7.147744
G03 X36.097665 Y24.994030 Z-0.100000 I-37.914801 J1.160446
G02 X36.107781 Y26.492132 Z-0.100000 I110.937458 J-0.000000
G02 X36.144535 Y28.419810 Z-0.100000 I173.372206 J-2.341435
G03 X36.181327 Y30.361436 Z-0.100000 I-174.589221 J4.279458
G03 X36.191405 Y31.867080 Z-0.100000 I-112.465133 J1.505644
G02 X36.254328 Y32.245916 Z-0.100000 I1.171880 J-0.000000
G02 X36.355468 Y32.410050 Z-0.100000 I0.412354 J-0.140866
G02 X36.516553 Y32.512332 Z-0.100000 I0.299188 J-0.293205
G02 X36.880858 Y32.574110 Z-0.100000 I0.364305 J-1.043267
G01 X36.880859 Y32.574200 Z-0.100000
G00 Z0.100000

(End cutting path id: use14)


(Start cutting path id: use14)
(Change tool to Cylindrical cutter)

G00 Z0.100000
G00 X42.205078 Y32.574200

G01 Z-0.100000 F10000.0(Penetrate)
G02 X42.575165 Y32.512485 Z-0.100000 I-0.000000 J-1.140511 F400.000000
G02 X42.738281 Y32.410140 Z-0.100000 I-0.137117 J-0.399694
G02 X42.840154 Y32.245182 Z-0.100000 I-0.305943 J-0.302877
G02 X42.902344 Y31.867170 Z-0.100000 I-1.117752 J-0.378012
G02 X42.892257 Y30.368961 Z-0.100000 I-111.269946 J-0.000000
G02 X42.855474 Y28.431620 Z-0.100000 I-175.529822 J2.363660
G03 X42.817668 Y26.504576 Z-0.100000 I192.197810 J-4.734511
G03 X42.806644 Y25.001930 Z-0.100000 I103.385075 J-1.509867
G01 X42.664065 Y20.273420 Z-0.100000
G01 X42.664065 Y20.269420 Z-0.100000
G02 X42.651720 Y19.532586 Z-0.100000 I-21.996044 J-0.000000
G02 X42.589845 Y18.087780 Z-0.100000 I-77.748198 J2.605909
G02 X42.492498 Y17.696986 Z-0.100000 I-1.391719 J0.139157
G02 X42.376954 Y17.521370 Z-0.100000 I-0.506297 J0.207292
G02 X42.209666 Y17.412021 Z-0.100000 I-0.332166 J0.325528
G02 X41.900392 Y17.355360 Z-0.100000 I-0.309274 J0.815730
G02 X41.539097 Y17.418245 Z-0.100000 I0.000000 J1.069322
G02 X41.376954 Y17.523330 Z-0.100000 I0.142945 J0.398194
G02 X41.275597 Y17.691647 Z-0.100000 I0.319738 J0.307217
G02 X41.212892 Y18.081920 Z-0.100000 I1.183175 J0.390273
G02 X41.229871 Y19.221551 Z-0.100000 I38.254434 J0.000000
G02 X41.316407 Y21.521370 Z-0.100000 I147.194359 J-4.386987
G03 X41.404121 Y23.833584 Z-0.100000 I-157.907869 J7.148025
G03 X41.421876 Y24.994030 Z-0.100000 I-37.914087 J1.160446
G02 X41.431992 Y26.492132 Z-0.100000 I110.937458 J-0.000000
G02 X41.468746 Y28.419810 Z-0.100000 I173.372206 J-2.341435
G03 X41.505538 Y30.361436 Z-0.100000 I-174.589221 J4.279458
G03 X41.515616 Y31.867080 Z-0.100000 I-112.465133 J1.505644
G02 X41.578539 Y32.245916 Z-0.100000 I1.171880 J-0.000000
G02 X41.679679 Y32.410050 Z-0.100000 I0.412354 J-0.140866
G02 X41.840764 Y32.512332 Z-0.100000 I0.299188 J-0.293205
G02 X42.205069 Y32.574110 Z-0.100000 I0.364305 J-1.043267
G01 X42.205078 Y32.574200 Z-0.100000
G00 Z0.100000

(End cutting path id: use14)


(Start cutting path id: use14)
(Change tool to Cylindrical cutter)

G00 Z0.100000
G00 X42.205078 Y33.062500

G01 Z-0.100000 F10000.0(Penetrate)
G03 X41.699915 Y32.980236 Z-0.100000 I-0.000000 J-1.592175 F400.000000
G03 X41.332031 Y32.750000 Z-0.100000 I0.294034 J-0.878855
G03 X41.108746 Y32.378917 Z-0.100000 I0.668057 J-0.654695
G03 X41.029297 Y31.867190 Z-0.100000 I1.608268 J-0.511727
G02 X41.019210 Y30.368981 Z-0.100000 I-111.269946 J-0.000000
G02 X40.982427 Y28.431640 Z-0.100000 I-175.529822 J2.363660
G03 X40.944562 Y26.499656 Z-0.100000 I192.012371 J-4.729618
G03 X40.933597 Y24.994140 Z-0.100000 I103.349700 J-1.505516
G02 X40.916666 Y23.854433 Z-0.100000 I-38.367931 J0.000000
G02 X40.830081 Y21.544920 Z-0.100000 I-148.773233 J4.421214
G03 X40.742417 Y19.242380 Z-0.100000 I156.206299 J-7.100148
G03 X40.724612 Y18.082030 Z-0.100000 I37.801275 J-1.160350
G03 X40.803508 Y17.561538 Z-0.100000 I1.756334 J-0.000000
G03 X41.025394 Y17.185550 Z-0.100000 I0.905720 J0.281036
G03 X41.394228 Y16.951874 Z-0.100000 I0.660443 J0.634521
G03 X41.900394 Y16.869140 Z-0.100000 I0.506166 J1.506992
G03 X42.366940 Y16.950368 Z-0.100000 I0.000000 J1.380455
G03 X42.724612 Y17.179690 Z-0.100000 I-0.321276 J0.894683
G03 X42.954533 Y17.536964 Z-0.100000 I-0.750838 J0.735815
G03 X43.074222 Y18.039060 Z-0.100000 I-1.797654 J0.693835
G01 X43.074222 Y18.045060 Z-0.100000
G01 X43.074222 Y18.051060 Z-0.100000
G03 X43.138596 Y19.507624 Z-0.100000 I-90.158738 J4.714340
G03 X43.152352 Y20.269810 Z-0.100000 I-21.108510 J0.762186
G01 X43.150352 Y20.261810 Z-0.100000
G01 X43.294883 Y24.990320 Z-0.100000
G01 X43.294883 Y24.994320 Z-0.100000
G02 X43.304999 Y26.492422 Z-0.100000 I110.937458 J-0.000000
G02 X43.341753 Y28.420100 Z-0.100000 I173.372206 J-2.341435
G03 X43.378545 Y30.361726 Z-0.100000 I-174.589221 J4.279458
G03 X43.388623 Y31.867370 Z-0.100000 I-112.465133 J1.505644
G03 X43.309036 Y32.380131 Z-0.100000 I-1.691593 J0.000000
G03 X43.083935 Y32.752130 Z-0.100000 I-0.885313 J-0.281608
G03 X42.713963 Y32.981091 Z-0.100000 I-0.660506 J-0.653898
G03 X42.205029 Y33.062680 Z-0.100000 I-0.508934 J-1.546523
G01 X42.205078 Y33.062500 Z-0.100000
G00 Z0.100000

(End cutting path id: use14)


(Start cutting path id: use14)
(Change tool to Cylindrical cutter)

G00 Z0.100000
G00 X50.218750 Y27.623020

G01 Z-0.100000 F10000.0(Penetrate)
G03 X48.000329 Y27.080287 Z-0.100000 I-0.000000 J-4.805263 F400.000000
G03 X46.310547 Y25.587860 Z-0.100000 I2.157701 J-4.145862
G03 X45.452983 Y23.784121 Z-0.100000 I4.989195 J-3.477776
G03 X45.183594 Y21.660130 Z-0.100000 I6.765921 J-1.937211
G03 X45.612199 Y19.516812 Z-0.100000 I6.558591 J0.197026
G03 X46.603516 Y17.968720 Z-0.100000 I4.221202 J1.611597
G03 X47.958793 Y17.038630 Z-0.100000 I3.017524 J2.944508
G03 X49.525391 Y16.716770 Z-0.100000 I1.566598 J3.651647
G03 X51.419637 Y17.183863 Z-0.100000 I-0.000000 J4.074501
G03 X52.945312 Y18.509740 Z-0.100000 I-2.044190 J3.892960
G03 X53.768807 Y20.171420 Z-0.100000 I-4.616645 J3.322808
G03 X54.093750 Y22.251920 Z-0.100000 I-7.144116 J2.181431
G03 X53.892825 Y24.224025 Z-0.100000 I-8.565886 J0.123564
G03 X53.312500 Y25.757780 Z-0.100000 I-5.570289 J-1.230957
G01 X53.312500 Y25.759780 Z-0.100000
G03 X51.980539 Y27.132692 Z-0.100000 I-3.271508 J-1.841355
G03 X50.218750 Y27.623060 Z-0.100000 I-1.761789 J-2.919682
G01 X50.218750 Y27.623020 Z-0.100000
G00 Z0.100000

(End cutting path id: use14)


(Start cutting path id: use14)
(Change tool to Cylindrical cutter)

G00 Z0.100000
G00 X50.218750 Y27.136700

G01 Z-0.100000 F10000.0(Penetrate)
G02 X51.727616 Y26.716517 Z-0.100000 I0.000000 J-2.919239 F400.000000
G02 X52.886719 Y25.521460 Z-0.100000 I-1.689622 J-2.798433
G02 X53.415071 Y24.128659 Z-0.100000 I-4.571439 J-2.530766
G02 X53.607422 Y22.259750 Z-0.100000 I-7.855343 J-1.752838
G02 X53.301655 Y20.308211 Z-0.100000 I-6.983058 J0.094383
G02 X52.550781 Y18.794900 Z-0.100000 I-4.968610 J1.522382
G02 X51.192790 Y17.614466 Z-0.100000 I-3.179437 J2.286333
G02 X49.525391 Y17.203100 Z-0.100000 I-1.667399 J3.173569
G02 X48.151575 Y17.485092 Z-0.100000 I-0.000000 J3.487496
G02 X46.951172 Y18.308570 Z-0.100000 I1.469531 J3.428835
G01 X46.951172 Y18.310570 Z-0.100000
G02 X46.070390 Y19.682705 Z-0.100000 I2.880162 J2.817552
G02 X45.669922 Y21.673850 Z-0.100000 I5.654220 J2.173046
G02 X45.922227 Y23.654780 Z-0.100000 I6.539573 J0.173607
G02 X46.710938 Y25.310570 Z-0.100000 I5.377772 J-1.545882
G01 X46.710938 Y25.312570 Z-0.100000
G02 X48.224607 Y26.649159 Z-0.100000 I3.444625 J-2.375593
G02 X50.218750 Y27.136790 Z-0.100000 I1.994143 J-3.833656
G01 X50.218750 Y27.136700 Z-0.100000
G00 Z0.100000

(End cutting path id: use14)


(Start cutting path id: use14)
(Change tool to Cylindrical cutter)

G00 Z0.100000
G00 X50.095703 Y25.693310

G01 Z-0.100000 F10000.0(Penetrate)
G03 X48.765143 Y25.323348 Z-0.100000 I-0.015009 J-2.523671 F400.000000
G03 X47.707031 Y24.242140 Z-0.100000 I1.607281 J-2.631305
G01 X47.707031 Y24.240140 Z-0.100000
G03 X47.228846 Y23.057198 Z-0.100000 I4.024329 J-2.314888
G03 X47.056641 Y21.665930 Z-0.100000 I5.534010 J-1.391268
G03 X47.286810 Y20.302255 Z-0.100000 I4.154739 J0.000000
G03 X47.876953 Y19.347570 Z-0.100000 I2.437324 J0.846900
G01 X47.878953 Y19.347570 Z-0.100000
G03 X48.649197 Y18.818885 Z-0.100000 I1.749410 J1.723294
G03 X49.525438 Y18.636630 Z-0.100000 I0.876241 J2.015263
G03 X50.531236 Y18.841153 Z-0.100000 I-0.000000 J2.575406
G03 X51.398485 Y19.429600 Z-0.100000 I-1.056454 J2.490290
G01 X51.400485 Y19.431600 Z-0.100000
G03 X52.047107 Y20.412181 Z-0.100000 I-2.005637 J2.026061
G03 X52.326266 Y21.751910 Z-0.100000 I-3.761529 J1.482739
G01 X52.326266 Y21.753910 Z-0.100000
G03 X52.221021 Y23.580427 Z-0.100000 I-9.787853 J0.352310
G03 X51.867282 Y24.638670 Z-0.100000 I-3.231801 J-0.492052
G03 X51.131768 Y25.406123 Z-0.100000 I-1.753968 J-0.944796
G03 X50.097750 Y25.693360 Z-0.100000 I-1.044894 J-1.756700
G01 X50.095703 Y25.693310 Z-0.100000
G00 Z0.100000

(End cutting path id: use14)


(Start cutting path id: use14)
(Change tool to Cylindrical cutter)

G00 Z0.100000
G00 X50.093750 Y25.206950

G01 Z-0.100000 F10000.0(Penetrate)
G02 X50.881469 Y24.988351 Z-0.100000 I-0.007332 J-1.554987 F400.000000
G02 X51.437500 Y24.408120 Z-0.100000 I-0.770194 J-1.294606
G02 X51.730944 Y23.541541 Z-0.100000 I-2.414389 J-1.300543
G02 X51.839844 Y21.769450 Z-0.100000 I-9.001059 J-1.442532
G02 X51.589666 Y20.583178 Z-0.100000 I-3.521517 J0.123150
G02 X51.054688 Y19.777260 Z-0.100000 I-2.202773 J0.881706
G01 X51.054688 Y19.775260 Z-0.100000
G01 X51.052688 Y19.775260 Z-0.100000
G02 X50.340325 Y19.290971 Z-0.100000 I-1.582484 J1.561681
G02 X49.525345 Y19.124870 Z-0.100000 I-0.814980 J1.916313
G02 X48.844866 Y19.265118 Z-0.100000 I0.000000 J1.720953
G02 X48.226516 Y19.687370 Z-0.100000 I0.773292 J1.796302
G01 X48.224516 Y19.689370 Z-0.100000
G02 X47.750639 Y20.452767 Z-0.100000 I1.500013 J1.459906
G02 X47.542876 Y21.665940 Z-0.100000 I3.438102 J1.213173
G02 X47.702071 Y22.942463 Z-0.100000 I5.197576 J-0.000000
G02 X48.128813 Y23.996010 Z-0.100000 I4.042373 J-1.024175
G01 X48.128813 Y23.998010 Z-0.100000
G02 X49.020957 Y24.909231 Z-0.100000 I2.248018 J-1.308610
G02 X50.093657 Y25.206990 Z-0.100000 I1.058889 J-1.733609
G01 X50.093750 Y25.206950 Z-0.100000
G00 Z0.100000

(End cutting path id: use14)


(Start cutting path id: use14)
(Change tool to Cylindrical cutter)

G00 Z0.100000
G00 X62.369141 Y27.175800

G01 Z-0.100000 F10000.0(Penetrate)
G02 X62.635322 Y27.131058 Z-0.100000 I-0.000000 J-0.814164 F400.000000
G02 X62.792969 Y27.039080 Z-0.100000 I-0.153904 J-0.444875
G02 X62.910403 Y26.890716 Z-0.100000 I-0.353393 J-0.400378
G02 X63.025391 Y26.578140 Z-0.100000 I-1.060067 J-0.567408
G01 X63.025391 Y26.576140 Z-0.100000
G02 X63.124402 Y26.032979 Z-0.100000 I-7.375653 J-1.625088
G02 X63.220703 Y25.218720 Z-0.100000 I-15.591387 J-2.256790
G01 X63.220703 Y25.216720 Z-0.100000
G01 X63.363281 Y23.814370 Z-0.100000
G01 X63.923828 Y19.542890 Z-0.100000
G01 X64.394531 Y19.492090 Z-0.100000
G03 X65.404592 Y22.444563 Z-0.100000 I-90.188834 J32.503212
G03 X66.585938 Y26.255760 Z-0.100000 I-148.577192 J48.142753
G02 X66.777976 Y26.714968 Z-0.100000 I2.231220 J-0.663325
G02 X66.951172 Y26.941310 Z-0.100000 I0.835694 J-0.460035
G02 X67.173054 Y27.084485 Z-0.100000 I0.474061 J-0.491148
G02 X67.445312 Y27.136620 Z-0.100000 I0.272258 J-0.684828
G02 X67.682489 Y27.083646 Z-0.100000 I0.000000 J-0.557438
G02 X67.890625 Y26.925680 Z-0.100000 I-0.267006 J-0.567909
G02 X68.048271 Y26.677786 Z-0.100000 I-0.767011 J-0.661850
G02 X68.224609 Y26.148340 Z-0.100000 I-2.565657 J-1.148608
G02 X68.446740 Y25.045102 Z-0.100000 I-27.491826 J-6.109303
G02 X68.839844 Y22.740130 Z-0.100000 I-117.576685 J-21.238271
G03 X69.245955 Y20.346891 Z-0.100000 I112.324625 J17.829386
G03 X69.517578 Y18.990130 Z-0.100000 I36.166121 J6.534878
G01 X69.990234 Y18.978430 Z-0.100000
G01 X70.685547 Y21.568270 Z-0.100000
G01 X71.912109 Y26.751860 Z-0.100000
G01 X71.912109 Y26.753860 Z-0.100000
G02 X71.994925 Y26.945529 Z-0.100000 I0.618884 J-0.153681
G02 X72.091797 Y27.046830 Z-0.100000 I0.310748 J-0.200192
G02 X72.225003 Y27.110026 Z-0.100000 I0.246276 J-0.347122
G02 X72.494141 Y27.146430 Z-0.100000 I0.269138 J-0.976673
G02 X72.775150 Y27.092216 Z-0.100000 I0.000000 J-0.755383
G02 X73.021484 Y26.935500 Z-0.100000 I-0.294542 J-0.734935
G01 X73.023484 Y26.935500 Z-0.100000
G01 X73.025484 Y26.933500 Z-0.100000
G02 X73.185982 Y26.712500 Z-0.100000 I-0.443080 J-0.490561
G02 X73.238374 Y26.466710 Z-0.100000 I-0.550353 J-0.245790
G01 X73.236374 Y26.464710 Z-0.100000
G02 X73.231520 Y26.438839 Z-0.100000 I-1.809339 J0.326102
G02 X73.220744 Y26.386610 Z-0.100000 I-2.417392 J0.471523
G02 X73.197096 Y26.282279 Z-0.100000 I-5.956315 J1.295262
G02 X73.150434 Y26.087780 Z-0.100000 I-25.756610 J6.076317
G01 X73.150434 Y26.085780 Z-0.100000
G02 X72.357124 Y23.011251 Z-0.100000 I-87.385269 J20.908092
G02 X71.214887 Y19.095540 Z-0.100000 I-144.079920 J39.904561
G02 X70.898895 Y18.302215 Z-0.100000 I-5.071761 J1.560558
G02 X70.363324 Y17.382650 Z-0.100000 I-7.039973 J3.484457
G01 X70.361324 Y17.380650 Z-0.100000
G01 X70.361324 Y17.378650 Z-0.100000
G02 X70.044653 Y17.087479 Z-0.100000 I-0.743860 J0.491219
G02 X69.666012 Y16.993880 Z-0.100000 I-0.367080 J0.672301
G02 X69.364561 Y17.092737 Z-0.100000 I0.011041 J0.542714
G02 X68.945308 Y17.534900 Z-0.100000 I0.889135 J1.262911
G02 X68.643842 Y18.150615 Z-0.100000 I2.771861 J1.738817
G02 X68.281246 Y19.380600 Z-0.100000 I9.462810 J3.458046
G01 X68.281246 Y19.382600 Z-0.100000
G02 X68.117550 Y20.187658 Z-0.100000 I14.343114 J3.335620
G02 X67.896480 Y21.585730 Z-0.100000 I43.918281 J7.661088
G01 X67.896480 Y21.587730 Z-0.100000
G01 X67.457027 Y24.556480 Z-0.100000
G01 X66.335934 Y21.947110 Z-0.100000
G01 X64.886715 Y18.011560 Z-0.100000
G01 X64.886715 Y18.009560 Z-0.100000
G02 X64.747001 Y17.725286 Z-0.100000 I-1.181371 J0.404146
G02 X64.603512 Y17.568150 Z-0.100000 I-0.571156 J0.377471
G01 X64.562492 Y17.536950 Z-0.100000
G01 X64.539052 Y17.490050 Z-0.100000
G02 X64.250779 Y17.176802 Z-0.100000 I-0.717752 J0.371258
G02 X63.835928 Y17.050600 Z-0.100000 I-0.439916 J0.701141
G01 X63.833928 Y17.050600 Z-0.100000
G01 X63.831928 Y17.050600 Z-0.100000
G02 X63.783077 Y17.059941 Z-0.100000 I-0.005296 J0.104712
G02 X63.654194 Y17.148300 Z-0.100000 I0.189011 J0.413872
G02 X63.536052 Y17.289313 Z-0.100000 I0.644746 J0.660169
G02 X63.349506 Y17.609240 Z-0.100000 I2.200186 J1.497258
G02 X63.072337 Y18.293515 Z-0.100000 I4.513735 J2.226582
G02 X62.681538 Y19.697130 Z-0.100000 I17.383887 J5.596291
G02 X62.386498 Y21.161184 Z-0.100000 I24.783455 J5.756176
G02 X62.001850 Y23.667830 Z-0.100000 I72.492742 J12.406950
G01 X62.001850 Y23.669830 Z-0.100000
G01 X61.773335 Y25.095610 Z-0.100000
G01 X61.773335 Y25.099610 Z-0.100000
G02 X61.676045 Y25.944142 Z-0.100000 I14.767093 J2.129038
G02 X61.652241 Y26.496090 Z-0.100000 I6.387176 J0.551948
G02 X61.707070 Y26.769992 Z-0.100000 I0.711560 J0.000000
G02 X61.849506 Y26.974610 Z-0.100000 I0.544315 J-0.227017
G02 X62.084452 Y27.122305 Z-0.100000 I0.502018 J-0.537870
G02 X62.369038 Y27.175780 Z-0.100000 I0.284586 J-0.730521
G01 X62.369141 Y27.175800 Z-0.100000
G00 Z0.100000

(End cutting path id: use14)


(Start cutting path id: use14)
(Change tool to Cylindrical cutter)

G00 Z0.100000
G00 X62.369141 Y27.662120

G01 Z-0.100000 F10000.0(Penetrate)
G03 X61.909161 Y27.575949 Z-0.100000 I0.000000 J-1.270776 F400.000000
G03 X61.517578 Y27.330090 Z-0.100000 I0.442454 J-1.139470
G03 X61.257672 Y26.956037 Z-0.100000 I0.731246 J-0.785420
G03 X61.166016 Y26.496100 Z-0.100000 I1.108176 J-0.459937
G03 X61.191584 Y25.893047 Z-0.100000 I7.124631 J-0.000000
G03 X61.291016 Y25.025400 Z-0.100000 I14.823011 J1.259188
G01 X61.291016 Y25.023400 Z-0.100000
G01 X61.519531 Y23.595660 Z-0.100000
G03 X61.905194 Y21.083485 Z-0.100000 I73.098059 J9.936158
G03 X62.207031 Y19.585900 Z-0.100000 I25.674754 J4.395508
G01 X62.209031 Y19.585900 Z-0.100000
G03 X62.602511 Y18.166324 Z-0.100000 I18.506030 J4.365206
G03 X62.914109 Y17.394490 Z-0.100000 I5.322037 J1.699751
G03 X63.119621 Y17.036540 Z-0.100000 I2.943857 J1.452201
G03 X63.314500 Y16.800740 Z-0.100000 I1.199537 J0.792940
G03 X63.565922 Y16.624097 Z-0.100000 I0.669186 J0.685226
G03 X63.851609 Y16.564410 Z-0.100000 I0.262012 J0.540545
G03 X64.494277 Y16.764015 Z-0.100000 I-0.039876 J1.262792
G03 X64.949266 Y17.253870 Z-0.100000 I-0.725487 J1.130080
G03 X65.174648 Y17.510700 Z-0.100000 I-1.047597 J1.146632
G03 X65.347703 Y17.851520 Z-0.100000 I-1.120858 J0.783471
G01 X66.787156 Y21.765580 Z-0.100000
G01 X67.226609 Y22.787070 Z-0.100000
G01 X67.414109 Y21.517540 Z-0.100000
G03 X67.636381 Y20.111259 Z-0.100000 I44.587810 J6.326683
G03 X67.806688 Y19.273400 Z-0.100000 I15.061546 J2.625244
G03 X68.176195 Y18.008978 Z-0.100000 I10.481453 J2.376834
G03 X68.533250 Y17.275350 Z-0.100000 I3.583662 J1.290457
G03 X69.071823 Y16.701892 Z-0.100000 I1.730403 J1.085504
G03 X69.656297 Y16.507770 Z-0.100000 I0.603457 J0.839979
G03 X70.277587 Y16.660881 Z-0.100000 I0.022091 J1.247442
G03 X70.765672 Y17.109340 Z-0.100000 I-0.663770 J1.212257
G01 X70.767672 Y17.111340 Z-0.100000
G03 X71.333076 Y18.079370 Z-0.100000 I-7.012842 J4.745178
G03 X71.681735 Y18.951180 Z-0.100000 I-5.133494 J2.558636
G01 X71.681735 Y18.953180 Z-0.100000
G03 X72.827071 Y22.879732 Z-0.100000 I-143.174799 J43.892980
G03 X73.625094 Y25.972720 Z-0.100000 I-87.186184 J24.144381
G01 X73.623094 Y25.972720 Z-0.100000
G03 X73.670975 Y26.169036 Z-0.100000 I-7190.483765 J1753.856841
G03 X73.697314 Y26.283260 Z-0.100000 I-4.523643 J1.103247
G03 X73.709206 Y26.339329 Z-0.100000 I-5.655391 J1.228789
G03 X73.716844 Y26.378960 Z-0.100000 I-1.447034 J0.299432
G03 X73.722178 Y26.410625 Z-0.100000 I-1.880317 J0.333045
G03 X73.726644 Y26.466860 Z-0.100000 I-0.351847 J0.056235
G03 X73.629168 Y26.913847 Z-0.100000 I-1.073594 J0.000000
G03 X73.353598 Y27.291080 Z-0.100000 I-1.061223 J-0.485958
G03 X72.955111 Y27.544252 Z-0.100000 I-0.871662 J-0.931787
G03 X72.494223 Y27.632870 Z-0.100000 I-0.460888 J-1.154189
G03 X72.115127 Y27.584792 Z-0.100000 I0.000000 J-1.518631
G03 X71.810629 Y27.443420 Z-0.100000 I0.231049 J-0.896262
G03 X71.579309 Y27.198116 Z-0.100000 I0.496411 J-0.699830
G03 X71.439535 Y26.867250 Z-0.100000 I0.964508 J-0.602413
G01 X70.212973 Y21.687560 Z-0.100000
G01 X69.802816 Y20.154360 Z-0.100000
G02 X69.595296 Y21.236086 Z-0.100000 I215.445257 J41.892149
G02 X69.320394 Y22.816470 Z-0.100000 I53.226281 J10.072613
G01 X69.320394 Y22.818470 Z-0.100000
G03 X68.928158 Y25.124496 Z-0.100000 I-123.607243 J-19.838223
G03 X68.701254 Y26.254020 Z-0.100000 I-27.762076 J-4.989411
G01 X68.701254 Y26.256020 Z-0.100000
G03 X68.506608 Y26.851465 Z-0.100000 I-3.260176 J-0.736186
G03 X68.259848 Y27.244300 Z-0.100000 I-1.413673 J-0.614084
G03 X67.890344 Y27.524226 Z-0.100000 I-0.839698 J-0.724571
G03 X67.445394 Y27.623210 Z-0.100000 I-0.444950 J-0.950567
G03 X66.994321 Y27.536911 Z-0.100000 I-0.000000 J-1.221996
G03 X66.613363 Y27.291180 Z-0.100000 I0.432230 J-1.088255
G03 X66.339782 Y26.929811 Z-0.100000 I1.018959 J-1.055665
G03 X66.119223 Y26.394690 Z-0.100000 I2.504328 J-1.345215
G02 X65.130250 Y23.228092 Z-0.100000 I-106.646716 J31.569517
G02 X64.265707 Y20.673990 Z-0.100000 I-146.265316 J48.086289
G01 X63.845785 Y23.871250 Z-0.100000
G01 X63.705160 Y25.263830 Z-0.100000
G01 X63.705160 Y25.265830 Z-0.100000
G03 X63.606649 Y26.097605 Z-0.100000 I-15.995629 J-1.472723
G03 X63.500082 Y26.681850 Z-0.100000 I-8.062574 J-1.168777
G03 X63.350017 Y27.102067 Z-0.100000 I-1.689136 J-0.366311
G03 X63.115316 Y27.404510 Z-0.100000 I-0.914375 J-0.467283
G03 X62.782283 Y27.595791 Z-0.100000 I-0.633601 J-0.717586
G03 X62.369223 Y27.662320 Z-0.100000 I-0.413060 J-1.249022
G01 X62.369141 Y27.662120 Z-0.100000
G00 Z0.100000

(End cutting path id: use14)


(Start cutting path id: use14)
(Change tool to Cylindrical cutter)

G00 Z0.100000
G00 X79.453125 Y25.693310

G01 Z-0.100000 F10000.0(Penetrate)
G03 X78.123611 Y25.323154 Z-0.100000 I-0.014980 J-2.518925 F400.000000
G03 X77.066406 Y24.242140 Z-0.100000 I1.610397 J-2.632395
G01 X77.064406 Y24.240140 Z-0.100000
G03 X76.586220 Y23.057198 Z-0.100000 I4.024316 J-2.314887
G03 X76.414015 Y21.665930 Z-0.100000 I5.534005 J-1.391268
G03 X76.644185 Y20.302255 Z-0.100000 I4.154730 J-0.000000
G03 X77.234328 Y19.347570 Z-0.100000 I2.437328 J0.846903
G01 X77.236328 Y19.347570 Z-0.100000
G03 X78.006572 Y18.818884 Z-0.100000 I1.749411 J1.723295
G03 X78.882812 Y18.636630 Z-0.100000 I0.876240 J2.015259
G03 X79.888611 Y18.841153 Z-0.100000 I-0.000000 J2.575410
G03 X80.755859 Y19.429600 Z-0.100000 I-1.056450 J2.490281
G01 X80.757859 Y19.431600 Z-0.100000
G03 X81.404481 Y20.412181 Z-0.100000 I-2.005633 J2.026061
G03 X81.683641 Y21.751910 Z-0.100000 I-3.761526 J1.482739
G01 X81.683641 Y21.753910 Z-0.100000
G03 X81.578396 Y23.580427 Z-0.100000 I-9.787843 J0.352310
G03 X81.224656 Y24.638670 Z-0.100000 I-3.231793 J-0.492051
G03 X80.489142 Y25.406123 Z-0.100000 I-1.753965 J-0.944791
G03 X79.455125 Y25.693360 Z-0.100000 I-1.044893 J-1.756700
G01 X79.453125 Y25.693310 Z-0.100000
G00 Z0.100000

(End cutting path id: use14)


(Start cutting path id: use14)
(Change tool to Cylindrical cutter)

G00 Z0.100000
G00 X79.451172 Y25.206950

G01 Z-0.100000 F10000.0(Penetrate)
G02 X80.238891 Y24.988351 Z-0.100000 I-0.007332 J-1.554987 F400.000000
G02 X80.794922 Y24.408120 Z-0.100000 I-0.770194 J-1.294606
G02 X81.088366 Y23.541541 Z-0.100000 I-2.414389 J-1.300543
G02 X81.197266 Y21.769450 Z-0.100000 I-9.001059 J-1.442532
G02 X80.948112 Y20.583206 Z-0.100000 I-3.537240 J0.123659
G02 X80.414062 Y19.777260 Z-0.100000 I-2.194487 J0.874237
G01 X80.412062 Y19.775260 Z-0.100000
G01 X80.410062 Y19.775260 Z-0.100000
G02 X79.697699 Y19.290971 Z-0.100000 I-1.582483 J1.561680
G02 X78.882718 Y19.124870 Z-0.100000 I-0.814981 J1.916316
G02 X78.202240 Y19.265118 Z-0.100000 I-0.000000 J1.720949
G02 X77.583890 Y19.687370 Z-0.100000 I0.773293 J1.796303
G01 X77.581890 Y19.689370 Z-0.100000
G02 X77.108013 Y20.452767 Z-0.100000 I1.500013 J1.459906
G02 X76.900250 Y21.665940 Z-0.100000 I3.438102 J1.213173
G02 X77.059445 Y22.942463 Z-0.100000 I5.197576 J-0.000000
G02 X77.486187 Y23.996010 Z-0.100000 I4.042373 J-1.024175
G01 X77.486187 Y23.998010 Z-0.100000
G02 X78.378331 Y24.909231 Z-0.100000 I2.248018 J-1.308610
G02 X79.451031 Y25.206990 Z-0.100000 I1.058889 J-1.733609
G01 X79.451172 Y25.206950 Z-0.100000
G00 Z0.100000

(End cutting path id: use14)


(Start cutting path id: use14)
(Change tool to Cylindrical cutter)

G00 Z0.100000
G00 X79.576172 Y27.136700

G01 Z-0.100000 F10000.0(Penetrate)
G02 X81.085038 Y26.716517 Z-0.100000 I-0.000000 J-2.919239 F400.000000
G02 X82.244141 Y25.521460 Z-0.100000 I-1.689622 J-2.798433
G02 X82.772493 Y24.128659 Z-0.100000 I-4.571439 J-2.530766
G02 X82.964844 Y22.259750 Z-0.100000 I-7.855343 J-1.752838
G02 X82.659077 Y20.308211 Z-0.100000 I-6.983058 J0.094383
G02 X81.908203 Y18.794900 Z-0.100000 I-4.968610 J1.522382
G02 X80.550212 Y17.614466 Z-0.100000 I-3.179436 J2.286333
G02 X78.882812 Y17.203100 Z-0.100000 I-1.667400 J3.173571
G02 X77.508997 Y17.485091 Z-0.100000 I-0.000000 J3.487496
G02 X76.308594 Y18.308570 Z-0.100000 I1.469527 J3.428827
G01 X76.308594 Y18.310570 Z-0.100000
G02 X75.427812 Y19.682705 Z-0.100000 I2.880162 J2.817552
G02 X75.027344 Y21.673850 Z-0.100000 I5.654220 J2.173046
G02 X75.279649 Y23.654781 Z-0.100000 I6.539577 J0.173607
G02 X76.068359 Y25.310570 Z-0.100000 I5.377779 J-1.545883
G01 X76.068359 Y25.312570 Z-0.100000
G02 X77.582029 Y26.649159 Z-0.100000 I3.444628 J-2.375598
G02 X79.576172 Y27.136790 Z-0.100000 I1.994143 J-3.833657
G01 X79.576172 Y27.136700 Z-0.100000
G00 Z0.100000

(End cutting path id: use14)


(Start cutting path id: use14)
(Change tool to Cylindrical cutter)

G00 Z0.100000
G00 X79.576172 Y27.623020

G01 Z-0.100000 F10000.0(Penetrate)
G03 X77.357751 Y27.080287 Z-0.100000 I-0.000000 J-4.805263 F400.000000
G03 X75.667969 Y25.587860 Z-0.100000 I2.157701 J-4.145862
G03 X74.810405 Y23.784121 Z-0.100000 I4.989195 J-3.477776
G03 X74.541016 Y21.660130 Z-0.100000 I6.765921 J-1.937211
G03 X74.969621 Y19.516812 Z-0.100000 I6.558591 J0.197026
G03 X75.960938 Y17.968720 Z-0.100000 I4.221202 J1.611597
G03 X77.316215 Y17.038629 Z-0.100000 I3.017524 J2.944509
G03 X78.882812 Y16.716770 Z-0.100000 I1.566597 J3.651644
G03 X80.777059 Y17.183864 Z-0.100000 I-0.000000 J4.074504
G03 X82.302734 Y18.509740 Z-0.100000 I-2.044189 J3.892959
G03 X83.126229 Y20.171420 Z-0.100000 I-4.616645 J3.322808
G03 X83.451172 Y22.251920 Z-0.100000 I-7.144116 J2.181431
G03 X83.250247 Y24.224025 Z-0.100000 I-8.565886 J0.123564
G03 X82.669922 Y25.757780 Z-0.100000 I-5.570289 J-1.230957
G01 X82.669922 Y25.759780 Z-0.100000
G03 X81.337961 Y27.132692 Z-0.100000 I-3.271508 J-1.841355
G03 X79.576172 Y27.623060 Z-0.100000 I-1.761789 J-2.919682
G01 X79.576172 Y27.623020 Z-0.100000
G00 Z0.100000

(End cutting path id: use14)


(Start cutting path id: use14)
(Change tool to Cylindrical cutter)

G00 Z0.100000
G00 X91.421875 Y27.785120

G01 Z-0.100000 F10000.0(Penetrate)
G03 X89.432093 Y27.375818 Z-0.100000 I0.000000 J-5.041218 F400.000000
G03 X87.531250 Y26.183550 Z-0.100000 I2.878360 J-6.700392
G03 X87.471661 Y26.709020 Z-0.100000 I-74.441661 J-8.175713
G03 X87.341797 Y27.091760 Z-0.100000 I-0.959884 J-0.112287
G03 X86.956310 Y27.467820 Z-0.100000 I-0.899520 J-0.536464
G03 X86.431641 Y27.605430 Z-0.100000 I-0.524669 J-0.931405
G03 X85.964652 Y27.520801 Z-0.100000 I-0.000000 J-1.330752
G03 X85.619141 Y27.281210 Z-0.100000 I0.300835 J-0.802754
G03 X85.420970 Y26.912426 Z-0.100000 I0.711604 J-0.620027
G03 X85.351562 Y26.400350 Z-0.100000 I1.854280 J-0.512076
G02 X85.346648 Y26.097030 Z-0.100000 I-9.362912 J-0.000000
G02 X85.322262 Y25.470660 Z-0.100000 I-48.117564 J1.559631
G01 X85.322262 Y25.468660 Z-0.100000
G01 X85.322262 Y25.466660 Z-0.100000
G03 X85.306119 Y24.839384 Z-0.100000 I68.813958 J-2.084725
G03 X85.302732 Y24.519390 Z-0.100000 I15.112168 J-0.319994
G01 X85.302732 Y17.843610 Z-0.100000
G03 X85.373324 Y17.332655 Z-0.100000 I1.884492 J0.000000
G03 X85.572264 Y16.964700 Z-0.100000 I0.918064 J0.258608
G03 X85.916932 Y16.725289 Z-0.100000 I0.647151 J0.563865
G03 X86.382810 Y16.640480 Z-0.100000 I0.465878 J1.237188
G03 X86.892819 Y16.723207 Z-0.100000 I0.000000 J1.613466
G03 X87.263670 Y16.954940 Z-0.100000 I-0.294498 J0.883903
G03 X87.488293 Y17.328151 Z-0.100000 I-0.671919 J0.658608
G03 X87.568357 Y17.843610 Z-0.100000 I-1.619257 J0.515459
G01 X87.568357 Y17.845610 Z-0.100000
G01 X87.548827 Y22.984290 Z-0.100000
G02 X88.194645 Y24.068900 Z-0.100000 I5.342342 J-2.446456
G02 X88.855468 Y24.720610 Z-0.100000 I2.521153 J-1.895521
G01 X88.857468 Y24.720610 Z-0.100000
G01 X88.857468 Y24.722610 Z-0.100000
G02 X89.672894 Y25.139273 Z-0.100000 I1.677384 J-2.276463
G02 X90.886765 Y25.431590 Z-0.100000 I2.593478 J-8.103136
G01 X90.904345 Y24.953070 Z-0.100000
G01 X90.904345 Y24.951070 Z-0.100000
G02 X90.928426 Y24.463687 Z-0.100000 I-25.946968 J-1.526292
G02 X90.931685 Y24.300680 Z-0.100000 I-4.074919 J-0.163007
G03 X91.000085 Y23.797256 Z-0.100000 I1.886797 J0.000000
G03 X91.195356 Y23.433490 Z-0.100000 I0.901293 J0.249523
G03 X91.534814 Y23.197880 Z-0.100000 I0.633421 J0.550267
G03 X91.992232 Y23.115130 Z-0.100000 I0.457418 J1.222854
G03 X92.488956 Y23.217948 Z-0.100000 I0.000000 J1.251268
G03 X92.863325 Y23.503810 Z-0.100000 I-0.387129 J0.895059
G03 X93.080340 Y23.920981 Z-0.100000 I-0.947235 J0.757788
G03 X93.185591 Y24.533100 Z-0.100000 I-2.612463 J0.764311
G03 X93.192115 Y24.721675 Z-0.100000 I-4.434707 J0.247827
G03 X93.195391 Y25.212790 Z-0.100000 I-36.811638 J0.491115
G03 X93.072989 Y26.381140 Z-0.100000 I-5.637280 J0.000000
G03 X92.775470 Y27.095600 Z-0.100000 I-2.049050 J-0.434100
G03 X92.212242 Y27.597655 Z-0.100000 I-1.216337 J-0.797588
G03 X91.421954 Y27.785060 Z-0.100000 I-0.790288 J-1.572619
G01 X91.421875 Y27.785120 Z-0.100000
G00 Z0.100000

(End cutting path id: use14)


(Start cutting path id: use14)
(Change tool to Cylindrical cutter)

G00 Z0.100000
G00 X91.421875 Y27.298800

G01 Z-0.100000 F10000.0(Penetrate)
G02 X91.995474 Y27.162018 Z-0.100000 I0.000000 J-1.271091 F400.000000
G02 X92.369141 Y26.828090 Z-0.100000 I-0.437998 J-0.866154
G02 X92.587990 Y26.310458 Z-0.100000 I-1.309547 J-0.858742
G02 X92.708984 Y25.212860 Z-0.100000 I-4.917953 J-1.097598
G02 X92.706276 Y24.714327 Z-0.100000 I-45.888775 J-0.000000
G02 X92.701184 Y24.560520 Z-0.100000 I-3.461497 J0.037608
G02 X92.604730 Y24.036972 Z-0.100000 I-2.110669 J0.118191
G02 X92.482434 Y23.808560 Z-0.100000 I-0.677749 J0.215934
G02 X92.298108 Y23.666396 Z-0.100000 I-0.383805 J0.307055
G02 X91.992200 Y23.601530 Z-0.100000 I-0.305908 J0.688892
G02 X91.698650 Y23.657475 Z-0.100000 I-0.000000 J0.798120
G02 X91.562512 Y23.753880 Z-0.100000 I0.129309 J0.326929
G02 X91.476038 Y23.910209 Z-0.100000 I0.323286 J0.280909
G02 X91.417981 Y24.300750 Z-0.100000 I1.284538 J0.390541
G03 X91.413590 Y24.498244 Z-0.100000 I-4.443397 J0.000000
G03 X91.388681 Y24.980440 Z-0.100000 I-33.731960 J-1.500755
G01 X91.390681 Y24.974440 Z-0.100000
G01 X91.351621 Y26.036940 Z-0.100000
G01 X91.089903 Y26.005740 Z-0.100000
G03 X89.604397 Y25.660482 Z-0.100000 I0.839309 J-6.979607
G03 X88.568418 Y25.113160 Z-0.100000 I1.305157 J-3.724538
G03 X87.787480 Y24.343164 Z-0.100000 I2.207123 J-3.019504
G03 X87.084043 Y23.154180 Z-0.100000 I4.978668 J-3.748101
G01 X87.062563 Y23.105380 Z-0.100000
G01 X87.082093 Y17.843660 Z-0.100000
G02 X87.018611 Y17.461245 Z-0.100000 I-1.183574 J-0.000000
G02 X86.916078 Y17.294830 Z-0.100000 I-0.417867 J0.142666
G02 X86.752146 Y17.190272 Z-0.100000 I-0.307648 J0.301559
G02 X86.382874 Y17.126860 Z-0.100000 I-0.369272 J1.043496
G02 X86.080590 Y17.185000 Z-0.100000 I0.000000 J0.814892
G02 X85.939515 Y17.285070 Z-0.100000 I0.136673 J0.342152
G02 X85.850268 Y17.446042 Z-0.100000 I0.331731 J0.289147
G02 X85.791078 Y17.843660 Z-0.100000 I1.305936 J0.397618
G01 X85.791078 Y24.519440 Z-0.100000
G02 X85.793749 Y24.825422 Z-0.100000 I17.529079 J0.000000
G02 X85.808658 Y25.449130 Z-0.100000 I48.408307 J-0.845129
G01 X85.808658 Y25.453130 Z-0.100000
G03 X85.832808 Y26.077916 Z-0.100000 I-46.659233 J2.116354
G03 X85.837958 Y26.400400 Z-0.100000 I-10.093168 J0.322484
G02 X85.897006 Y26.799363 Z-0.100000 I1.377335 J0.000000
G02 X85.986395 Y26.960950 Z-0.100000 I0.421135 J-0.127451
G02 X86.128132 Y27.060405 Z-0.100000 I0.272360 J-0.237424
G02 X86.431708 Y27.117200 Z-0.100000 I0.303576 J-0.782931
G02 X86.717794 Y27.042479 Z-0.100000 I0.000000 J-0.585036
G02 X86.923895 Y26.841810 Z-0.100000 I-0.272460 J-0.486009
G02 X87.049743 Y26.519935 Z-0.100000 I-0.903405 J-0.538757
G02 X87.128973 Y25.781260 Z-0.100000 I-3.610991 J-0.760899
G01 X87.132873 Y25.212900 Z-0.100000
G01 X87.541077 Y25.607430 Z-0.100000
G02 X89.469148 Y26.893300 Z-0.100000 I4.524429 J-4.695624
G02 X91.421936 Y27.298840 Z-0.100000 I1.952788 J-4.498836
G01 X91.421875 Y27.298800 Z-0.100000
G00 Z0.100000

(End cutting path id: use14)


(Start cutting path id: use14)
(Change tool to Cylindrical cutter)

G00 Z0.100000
G00 X96.470703 Y32.574200

G01 Z-0.100000 F10000.0(Penetrate)
G02 X96.840790 Y32.512485 Z-0.100000 I0.000000 J-1.140511 F400.000000
G02 X97.003906 Y32.410140 Z-0.100000 I-0.137117 J-0.399694
G02 X97.105779 Y32.245182 Z-0.100000 I-0.305943 J-0.302877
G02 X97.167969 Y31.867170 Z-0.100000 I-1.117752 J-0.378012
G02 X97.157882 Y30.368961 Z-0.100000 I-111.269946 J-0.000000
G02 X97.121099 Y28.431620 Z-0.100000 I-175.529822 J2.363660
G03 X97.083234 Y26.499636 Z-0.100000 I192.012371 J-4.729618
G03 X97.072269 Y24.994120 Z-0.100000 I103.349700 J-1.505516
G01 X97.074269 Y25.002120 Z-0.100000
G01 X96.929738 Y20.273610 Z-0.100000
G01 X96.929738 Y20.269610 Z-0.100000
G02 X96.917393 Y19.532776 Z-0.100000 I-21.996044 J-0.000000
G02 X96.855518 Y18.087970 Z-0.100000 I-77.748198 J2.605909
G02 X96.759399 Y17.697200 Z-0.100000 I-1.419381 J0.141923
G02 X96.644580 Y17.521560 Z-0.100000 I-0.499087 J0.200913
G02 X96.476598 Y17.412050 Z-0.100000 I-0.331436 J0.324809
G02 X96.166065 Y17.355550 Z-0.100000 I-0.310533 J0.825128
G02 X95.804770 Y17.418435 Z-0.100000 I0.000000 J1.069322
G02 X95.642627 Y17.523520 Z-0.100000 I0.142945 J0.398194
G02 X95.541270 Y17.691837 Z-0.100000 I0.319738 J0.307217
G02 X95.478565 Y18.082110 Z-0.100000 I1.183175 J0.390273
G02 X95.495544 Y19.221741 Z-0.100000 I38.254434 J0.000000
G02 X95.582080 Y21.521560 Z-0.100000 I147.194359 J-4.386987
G03 X95.669794 Y23.833774 Z-0.100000 I-157.907869 J7.148025
G03 X95.687549 Y24.994220 Z-0.100000 I-37.914087 J1.160446
G02 X95.697665 Y26.492322 Z-0.100000 I110.937458 J-0.000000
G02 X95.734419 Y28.420000 Z-0.100000 I173.372206 J-2.341435
G03 X95.771211 Y30.361626 Z-0.100000 I-174.589221 J4.279458
G03 X95.781289 Y31.867270 Z-0.100000 I-112.465133 J1.505644
G02 X95.844212 Y32.246106 Z-0.100000 I1.171884 J0.000000
G02 X95.945351 Y32.410240 Z-0.100000 I0.412356 J-0.140867
G02 X96.106436 Y32.512522 Z-0.100000 I0.299188 J-0.293205
G02 X96.470742 Y32.574300 Z-0.100000 I0.364306 J-1.043272
G01 X96.470703 Y32.574200 Z-0.100000
G00 Z0.100000

(End cutting path id: use14)


(Start cutting path id: use14)
(Change tool to Cylindrical cutter)

G00 Z0.100000
G00 X96.470703 Y33.062500

G01 Z-0.100000 F10000.0(Penetrate)
G03 X95.965540 Y32.980236 Z-0.100000 I-0.000000 J-1.592175 F400.000000
G03 X95.597656 Y32.750000 Z-0.100000 I0.294034 J-0.878855
G03 X95.374371 Y32.378917 Z-0.100000 I0.668057 J-0.654695
G03 X95.294922 Y31.867190 Z-0.100000 I1.608268 J-0.511727
G02 X95.284835 Y30.368981 Z-0.100000 I-111.269946 J-0.000000
G02 X95.248052 Y28.431640 Z-0.100000 I-175.529822 J2.363660
G03 X95.211289 Y26.499656 Z-0.100000 I172.466198 J-4.248160
G03 X95.201182 Y24.994140 Z-0.100000 I112.127029 J-1.505516
G02 X95.183607 Y23.854433 Z-0.100000 I-36.962529 J0.000000
G02 X95.095713 Y21.544920 Z-0.100000 I-160.425068 J4.948921
G03 X95.008049 Y19.242380 Z-0.100000 I156.206299 J-7.100148
G03 X94.990244 Y18.082030 Z-0.100000 I37.801275 J-1.160350
G03 X95.069140 Y17.561538 Z-0.100000 I1.756334 J-0.000000
G03 X95.291026 Y17.185550 Z-0.100000 I0.905720 J0.281036
G03 X95.659860 Y16.951874 Z-0.100000 I0.660443 J0.634521
G03 X96.166026 Y16.869140 Z-0.100000 I0.506166 J1.506992
G03 X96.633667 Y16.950197 Z-0.100000 I0.000000 J1.389502
G03 X96.992198 Y17.179690 Z-0.100000 I-0.319504 J0.893962
G03 X97.221177 Y17.536989 Z-0.100000 I-0.743150 J0.728277
G03 X97.339854 Y18.039060 Z-0.100000 I-1.824993 J0.696443
G01 X97.339854 Y18.045060 Z-0.100000
G01 X97.341854 Y18.051060 Z-0.100000
G03 X97.404765 Y19.500925 Z-0.100000 I-81.629994 J4.268279
G03 X97.418024 Y20.262000 Z-0.100000 I-22.288807 J0.768966
G01 X97.418024 Y20.270000 Z-0.100000
G01 X97.560602 Y24.990700 Z-0.100000
G01 X97.560602 Y24.994700 Z-0.100000
G02 X97.570718 Y26.492802 Z-0.100000 I110.937458 J-0.000000
G02 X97.607472 Y28.420480 Z-0.100000 I173.372206 J-2.341435
G03 X97.644264 Y30.362106 Z-0.100000 I-174.589221 J4.279458
G03 X97.654342 Y31.867750 Z-0.100000 I-112.465133 J1.505644
G03 X97.574755 Y32.380511 Z-0.100000 I-1.691593 J-0.000000
G03 X97.349654 Y32.752510 Z-0.100000 I-0.885313 J-0.281608
G03 X96.979682 Y32.981471 Z-0.100000 I-0.660506 J-0.653898
G03 X96.470748 Y33.063060 Z-0.100000 I-0.508934 J-1.546523
G01 X96.470703 Y33.062500 Z-0.100000
G00 Z0.100000

(End cutting path id: use14)


(Start cutting path id: use14)
(Change tool to Cylindrical cutter)

G00 Z0.100000
G00 X104.759770 Y25.912060

G01 Z-0.100000 F10000.0(Penetrate)
G03 X103.209991 Y25.616790 Z-0.100000 I-0.000000 J-4.214786 F400.000000
G03 X102.179690 Y24.874950 Z-0.100000 I0.952772 J-2.409637
G03 X101.576766 Y23.737945 Z-0.100000 I2.288917 J-1.942113
G03 X101.322270 Y21.874950 Z-0.100000 I6.691629 J-1.862995
G03 X101.564743 Y20.648027 Z-0.100000 I3.225369 J-0.000000
G03 X102.257810 Y19.595650 Z-0.100000 I3.051150 J1.254997
G01 X102.257810 Y19.593650 Z-0.100000
G03 X103.300391 Y18.880322 Z-0.100000 I2.368235 J2.342779
G03 X104.474610 Y18.636620 Z-0.100000 I1.174219 J2.706996
G03 X105.298183 Y18.725035 Z-0.100000 I-0.000000 J3.879935
G03 X105.939450 Y18.960840 Z-0.100000 I-0.525330 J2.418483
G03 X106.296536 Y19.188007 Z-0.100000 I-1.243348 J2.348669
G03 X107.037110 Y19.779200 Z-0.100000 I-10.417411 J13.809097
G01 X107.039110 Y19.779200 Z-0.100000
G01 X107.039110 Y19.781200 Z-0.100000
G03 X107.194083 Y19.929934 Z-0.100000 I-1.391074 J1.604530
G03 X107.347710 Y20.109330 Z-0.100000 I-1.823417 J1.716974
G01 X107.400410 Y20.177730 Z-0.100000
G01 X107.371110 Y21.904300 Z-0.100000
G01 X107.381110 Y23.003910 Z-0.100000
G01 X107.400610 Y24.181640 Z-0.100000
G01 X107.377210 Y24.232440 Z-0.100000
G03 X106.903201 Y24.977039 Z-0.100000 I-3.124055 J-1.465584
G03 X106.328380 Y25.482440 Z-0.100000 I-1.910686 J-1.593545
G03 X105.624663 Y25.797213 Z-0.100000 I-1.350350 J-2.074877
G03 X104.760030 Y25.912130 Z-0.100000 I-0.864633 J-3.195273
G01 X104.759770 Y25.912060 Z-0.100000
G00 Z0.100000

(End cutting path id: use14)


(Start cutting path id: use14)
(Change tool to Cylindrical cutter)

G00 Z0.100000
G00 X104.759770 Y25.425700

G01 Z-0.100000 F10000.0(Penetrate)
G02 X105.504472 Y25.325141 Z-0.100000 I-0.000000 J-2.807785 F400.000000
G02 X106.062500 Y25.074140 Z-0.100000 I-0.528150 J-1.919991
G01 X106.064500 Y25.074140 Z-0.100000
G01 X106.066500 Y25.074140 Z-0.100000
G02 X106.509754 Y24.681258 Z-0.100000 I-0.999410 J-1.574027
G02 X106.910250 Y24.054610 Z-0.100000 I-2.456944 J-2.011560
G01 X106.894650 Y23.009690 Z-0.100000
G01 X106.884650 Y21.902260 Z-0.100000
G01 X106.910050 Y20.349530 Z-0.100000
G02 X106.811995 Y20.237602 Z-0.100000 I-3.054230 J2.576749
G02 X106.720590 Y20.148360 Z-0.100000 I-0.796941 J0.724827
G02 X105.966309 Y19.551559 Z-0.100000 I-9.839840 J11.661252
G02 X105.710830 Y19.390540 Z-0.100000 I-1.192558 J1.608976
G02 X105.206655 Y19.204439 Z-0.100000 I-0.925871 J1.732332
G02 X104.474500 Y19.124920 Z-0.100000 I-0.732155 J3.330810
G02 X103.496850 Y19.326975 Z-0.100000 I0.000000 J2.466225
G02 X102.605360 Y19.935470 Z-0.100000 I1.125095 J2.605644
G02 X102.015525 Y20.832688 Z-0.100000 I2.000831 J1.957843
G02 X101.810440 Y21.874920 Z-0.100000 I2.545739 J1.042232
G02 X102.055048 Y23.631630 Z-0.100000 I6.430414 J0.000000
G02 X102.550670 Y24.560470 Z-0.100000 I2.390408 J-0.678853
G01 X102.550670 Y24.562470 Z-0.100000
G02 X103.378701 Y25.160727 Z-0.100000 I1.603054 J-1.346587
G02 X104.759660 Y25.425750 Z-0.100000 I1.380959 J-3.465380
G01 X104.759770 Y25.425700 Z-0.100000
G00 Z0.100000

(End cutting path id: use14)


(Start cutting path id: use14)
(Change tool to Cylindrical cutter)

G00 Z0.100000
G00 X108.496090 Y32.431600

G01 Z-0.100000 F10000.0(Penetrate)
G02 X108.823578 Y32.374579 Z-0.100000 I0.000000 J-0.968946 F400.000000
G02 X108.968750 Y32.279260 Z-0.100000 I-0.125403 J-0.349197
G02 X109.060008 Y32.125128 Z-0.100000 I-0.301147 J-0.282385
G02 X109.119140 Y31.753870 Z-0.100000 I-1.135906 J-0.371258
G02 X109.077032 Y30.465390 Z-0.100000 I-19.734225 J-0.000000
G02 X108.738280 Y25.937460 Z-0.100000 I-242.646120 J15.876638
G01 X108.738280 Y25.935460 Z-0.100000
G03 X108.652886 Y24.527113 Z-0.100000 I33.642579 J-2.746655
G03 X108.625000 Y23.121000 Z-0.100000 I35.436792 J-1.406113
G03 X108.720617 Y19.958401 Z-0.100000 I52.350333 J0.000000
G03 X108.921880 Y18.294830 Z-0.100000 I13.959057 J0.844840
G02 X108.935007 Y18.177999 Z-0.100000 I-2.313275 J-0.319072
G02 X108.937480 Y18.121000 Z-0.100000 I-0.655668 J-0.056999
G02 X108.885998 Y17.866147 Z-0.100000 I-0.656538 J0.000000
G02 X108.749980 Y17.671790 Z-0.100000 I-0.519595 J0.218856
G02 X108.533371 Y17.534140 Z-0.100000 I-0.481626 J0.518642
G02 X108.296860 Y17.488190 Z-0.100000 I-0.236511 J0.585700
G02 X108.119004 Y17.524257 Z-0.100000 I0.000000 J0.456558
G02 X107.957010 Y17.632720 Z-0.100000 I0.201227 J0.475746
G02 X107.825818 Y17.804928 Z-0.100000 I0.545914 J0.551966
G02 X107.664040 Y18.175690 Z-0.100000 I1.772281 J0.993993
G01 X107.560530 Y18.497960 Z-0.100000
G01 X107.287090 Y18.296790 Z-0.100000
G02 X106.602512 Y17.865554 Z-0.100000 I-3.314572 J4.502822
G02 X105.925760 Y17.570220 Z-0.100000 I-2.222042 J4.168712
G02 X105.222835 Y17.389896 Z-0.100000 I-1.395683 J3.980342
G02 X104.474590 Y17.328030 Z-0.100000 I-0.748245 J4.493917
G02 X102.744619 Y17.663053 Z-0.100000 I0.000000 J4.634075
G02 X101.388650 Y18.566320 Z-0.100000 I1.493516 J3.711451
G01 X101.386650 Y18.566320 Z-0.100000
G01 X101.386650 Y18.568320 Z-0.100000
G02 X100.475283 Y19.972804 Z-0.100000 I2.900810 J2.880264
G02 X100.126880 Y21.837850 Z-0.100000 I4.817714 J1.865046
G02 X100.500367 Y24.160581 Z-0.100000 I7.409330 J0.000000
G02 X101.406180 Y25.746050 Z-0.100000 I4.359524 J-1.439202
G02 X102.855865 Y26.803157 Z-0.100000 I3.111243 J-2.744087
G02 X104.722590 Y27.193320 Z-0.100000 I1.866725 J-4.270561
G02 X105.760485 Y27.086897 Z-0.100000 I-0.000000 J-5.114296
G02 X106.300710 Y26.882770 Z-0.100000 I-0.374987 J-1.809324
G01 X106.302328 Y26.882942 Z-0.100000
G01 X106.302710 Y26.882770 Z-0.100000
G01 X107.544900 Y25.970660 Z-0.100000
G01 X107.560500 Y26.431600 Z-0.100000
G02 X107.744567 Y30.432033 Z-0.100000 I157.224134 J-5.229708
G02 X107.873000 Y31.794880 Z-0.100000 I19.385662 J-1.139406
G02 X107.972952 Y32.137590 Z-0.100000 I1.278313 J-0.186894
G02 X108.080030 Y32.290980 Z-0.100000 I0.458789 J-0.206199
G02 X108.229584 Y32.384880 Z-0.100000 I0.291325 J-0.297946
G02 X108.496040 Y32.431600 Z-0.100000 I0.266456 J-0.736468
G01 X108.496090 Y32.431600 Z-0.100000
G00 Z0.100000

(End cutting path id: use14)


(Start cutting path id: use14)
(Change tool to Cylindrical cutter)

G00 Z0.100000
G00 X108.496090 Y32.919900

G01 Z-0.100000 F10000.0(Penetrate)
G03 X108.073473 Y32.846827 Z-0.100000 I-0.000000 J-1.258641 F400.000000
G03 X107.740230 Y32.638650 Z-0.100000 I0.307845 J-0.863597
G03 X107.518083 Y32.315172 Z-0.100000 I0.708976 J-0.724903
G03 X107.390620 Y31.865210 Z-0.100000 I1.643863 J-0.708701
G01 X107.390620 Y31.863210 Z-0.100000
G01 X107.390620 Y31.861210 Z-0.100000
G03 X107.265321 Y30.503663 Z-0.100000 I18.095139 J-2.354698
G03 X107.101560 Y26.900270 Z-0.100000 I194.535870 J-10.646377
G01 X106.556640 Y27.298710 Z-0.100000
G01 X106.544940 Y27.306710 Z-0.100000
G03 X105.831389 Y27.572240 Z-0.100000 I-1.164580 J-2.038027
G03 X104.722680 Y27.679760 Z-0.100000 I-1.108709 J-5.662542
G03 X102.662629 Y27.249978 Z-0.100000 I-0.000000 J-5.152063
G03 X101.041040 Y26.068430 Z-0.100000 I1.851893 J-4.245117
G01 X101.041040 Y26.066430 Z-0.100000
G03 X100.034875 Y24.302079 Z-0.100000 I3.826709 J-3.351346
G03 X99.640645 Y21.837910 Z-0.100000 I7.504132 J-2.464169
G03 X100.019554 Y19.801335 Z-0.100000 I5.662594 J0.000000
G03 X101.041040 Y18.224630 Z-0.100000 I4.265156 J1.643987
G03 X102.565111 Y17.209524 Z-0.100000 I3.201582 J3.155158
G03 X104.474630 Y16.839860 Z-0.100000 I1.909519 J4.747034
G03 X105.301862 Y16.909221 Z-0.100000 I-0.000000 J4.967683
G03 X106.085960 Y17.111350 Z-0.100000 I-0.794210 J4.702790
G03 X106.716374 Y17.395451 Z-0.100000 I-1.256101 J3.628745
G03 X107.339860 Y17.779320 Z-0.100000 I-4.695683 J8.325080
G02 X107.465972 Y17.502107 Z-0.100000 I-34.921855 J-16.054225
G03 X107.615250 Y17.287130 Z-0.100000 I0.652310 J0.293640
G03 X107.930142 Y17.076319 Z-0.100000 I0.705750 J0.713605
G03 X108.296900 Y17.001970 Z-0.100000 I0.366758 J0.867419
G03 X108.714923 Y17.082834 Z-0.100000 I0.000000 J1.120903
G03 X109.080100 Y17.314470 Z-0.100000 I-0.442874 J1.101870
G03 X109.334131 Y17.677384 Z-0.100000 I-0.717284 J0.772446
G03 X109.423850 Y18.121110 Z-0.100000 I-1.052415 J0.443726
G03 X109.418801 Y18.231423 Z-0.100000 I-1.207585 J0.000000
G03 X109.402350 Y18.373070 Z-0.100000 I-2.940999 J-0.269789
G01 X109.402350 Y18.379070 Z-0.100000
G01 X109.402350 Y18.383070 Z-0.100000
G02 X109.209129 Y19.969513 Z-0.100000 I13.294366 J2.424180
G02 X109.111340 Y23.121350 Z-0.100000 I50.744691 J3.151837
G02 X109.139638 Y24.507856 Z-0.100000 I33.981380 J-0.000000
G02 X109.224620 Y25.896740 Z-0.100000 I34.250272 J-1.398642
G03 X109.561449 Y30.403635 Z-0.100000 I-239.153941 J20.139538
G03 X109.605480 Y31.754170 Z-0.100000 I-20.690083 J1.350535
G03 X109.531410 Y32.250472 Z-0.100000 I-1.699745 J-0.000000
G03 X109.322280 Y32.611590 Z-0.100000 I-0.880536 J-0.268819
G03 X108.971801 Y32.839517 Z-0.100000 I-0.639585 J-0.600051
G03 X108.496100 Y32.920180 Z-0.100000 I-0.475701 J-1.362371
G01 X108.496090 Y32.919900 Z-0.100000
G00 Z0.100000

(End cutting path id: use14)


(Start cutting path id: use14)
(Change tool to Cylindrical cutter)

G00 Z0.100000
G00 X28.808594 Y27.699220

G01 Z-0.100000 F10000.0(Penetrate)
G03 X26.763092 Y27.195002 Z-0.100000 I0.000000 J-4.401186 F400.000000
G03 X25.130859 Y25.771480 Z-0.100000 I2.172024 J-4.138010
G03 X24.231200 Y23.912667 Z-0.100000 I4.955594 J-3.545612
G03 X23.888672 Y21.486330 Z-0.100000 I8.422352 J-2.426337
G03 X24.314275 Y19.445232 Z-0.100000 I5.107128 J-0.000000
G03 X25.431641 Y17.970700 Z-0.100000 I3.606808 J1.572533
G01 X25.433641 Y17.968700 Z-0.100000
G03 X26.960309 Y17.156633 Z-0.100000 I2.872055 J3.558316
G03 X29.066453 Y16.839790 Z-0.100000 I2.106144 J6.841640
G03 X30.469883 Y16.998458 Z-0.100000 I0.000000 J6.286046
G03 X31.998094 Y17.507760 Z-0.100000 I-1.865697 J8.145638
G03 X32.832263 Y17.961788 Z-0.100000 I-2.482098 J5.553570
G03 X33.353563 Y18.398390 Z-0.100000 I-1.540449 J2.368804
G03 X33.721442 Y18.958159 Z-0.100000 I-1.431479 J1.341534
G03 X33.843797 Y19.546830 Z-0.100000 I-1.354921 J0.588671
G03 X33.754517 Y19.951682 Z-0.100000 I-0.962567 J0.000000
G03 X33.502000 Y20.300730 Z-0.100000 I-1.023151 J-0.474328
G03 X33.148589 Y20.541933 Z-0.100000 I-0.829294 J-0.835574
G03 X32.746141 Y20.626900 Z-0.100000 I-0.402448 J-0.910615
G03 X32.276947 Y20.469553 Z-0.100000 I0.000000 J-0.778221
G03 X31.845750 Y19.999950 Z-0.100000 I1.068392 J-1.413782
G01 X31.845750 Y20.001950 Z-0.100000
G02 X31.543323 Y19.711810 Z-0.100000 I-0.755141 J0.484434
G02 X30.541063 Y19.287110 Z-0.100000 I-2.149527 J3.677741
G02 X29.671031 Y19.096749 Z-0.100000 I-2.096795 J7.499865
G02 X29.066453 Y19.048830 Z-0.100000 I-0.604578 J3.789926
G02 X28.085103 Y19.153735 Z-0.100000 I-0.000000 J4.642555
G02 X27.322313 Y19.421880 Z-0.100000 I0.685154 J3.168075
G01 X27.320313 Y19.421880 Z-0.100000
G02 X26.786994 Y19.806814 Z-0.100000 I0.954823 J1.884807
G02 X26.318360 Y20.326170 Z-0.100000 I4.463591 J4.498778
G01 X29.625000 Y21.892580 Z-0.100000
G03 X31.134777 Y22.643289 Z-0.100000 I-15.719109 J33.506779
G03 X31.679688 Y22.980470 Z-0.100000 I-2.135365 J4.059820
G01 X31.681688 Y22.980470 Z-0.100000
G03 X32.579269 Y23.943267 Z-0.100000 I-2.018378 J2.781451
G03 X32.855516 Y24.908200 Z-0.100000 I-1.547136 J0.964933
G03 X32.493501 Y26.199050 Z-0.100000 I-2.482425 J-0.000000
G03 X31.500047 Y27.138670 Z-0.100000 I-2.218399 J-1.350503
G03 X30.388499 Y27.539249 Z-0.100000 I-1.936397 J-3.630733
G03 X28.808641 Y27.699220 Z-0.100000 I-1.579858 J-7.721295
G01 X28.808594 Y27.699220 Z-0.100000
G00 Z0.100000

(End cutting path id: use14)


(Start cutting path id: use14)
(Change tool to Cylindrical cutter)

G00 Z0.100000
G00 X28.808594 Y27.212900

G01 Z-0.100000 F10000.0(Penetrate)
G02 X30.307268 Y27.058432 Z-0.100000 I-0.000000 J-7.347434 F400.000000
G02 X31.271484 Y26.708990 Z-0.100000 I-0.737654 J-3.540411
G02 X32.078341 Y25.945654 Z-0.100000 I-0.994513 J-1.859311
G02 X32.369141 Y24.908210 Z-0.100000 I-1.705166 J-1.037444
G02 X32.171246 Y24.211581 Z-0.100000 I-1.325079 J-0.000000
G02 X31.394531 Y23.375010 Z-0.100000 I-2.509004 J1.550628
G02 X30.947963 Y23.097825 Z-0.100000 I-2.256041 J3.136351
G02 X29.417969 Y22.333990 Z-0.100000 I-16.422595 J30.980908
G01 X25.531250 Y20.492200 Z-0.100000
G01 X25.689453 Y20.255870 Z-0.100000
G03 X26.336491 Y19.511038 Z-0.100000 I3.368226 J2.272531
G03 X27.101562 Y18.986340 Z-0.100000 I2.348085 J2.603651
G01 X27.103562 Y18.986340 Z-0.100000
G03 X27.989547 Y18.675122 Z-0.100000 I1.673021 J3.346071
G03 X29.066452 Y18.560560 Z-0.100000 I1.076905 J5.004286
G03 X29.759510 Y18.616855 Z-0.100000 I-0.000000 J4.294297
G03 X30.671921 Y18.818370 Z-0.100000 I-1.364916 J8.346373
G03 X31.740367 Y19.255718 Z-0.100000 I-1.345167 J4.810050
G03 X32.255905 Y19.738290 Z-0.100000 I-0.695028 J1.259170
G01 X32.257905 Y19.740290 Z-0.100000
G02 X32.583094 Y20.087716 Z-0.100000 I1.063737 J-0.669754
G02 X32.746187 Y20.140680 Z-0.100000 I0.163093 J-0.224623
G02 X32.953394 Y20.097469 Z-0.100000 I-0.000000 J-0.518405
G02 X33.162202 Y19.955140 Z-0.100000 I-0.271509 J-0.622660
G01 X33.166102 Y19.951140 Z-0.100000
G01 X33.170002 Y19.947140 Z-0.100000
G02 X33.314039 Y19.747326 Z-0.100000 I-0.426446 J-0.459229
G02 X33.357502 Y19.546750 Z-0.100000 I-0.441089 J-0.200576
G02 X33.277918 Y19.158591 Z-0.100000 I-0.986386 J0.000000
G02 X32.998127 Y18.730340 Z-0.100000 I-1.356189 J0.580521
G02 X32.581543 Y18.380424 Z-0.100000 I-1.669345 J1.564466
G02 X31.798908 Y17.952990 Z-0.100000 I-3.071297 J4.693342
G02 X30.354816 Y17.472868 Z-0.100000 I-3.188896 J7.179629
G02 X29.066486 Y17.327990 Z-0.100000 I-1.288330 J5.655816
G02 X27.093257 Y17.626659 Z-0.100000 I-0.000000 J6.667647
G02 X25.740314 Y18.347530 Z-0.100000 I1.206659 J3.894727
G02 X24.762508 Y19.635711 Z-0.100000 I2.183485 J2.672592
G02 X24.375080 Y21.486200 Z-0.100000 I4.225575 J1.850489
G02 X24.701817 Y23.786630 Z-0.100000 I8.261596 J0.000000
G02 X25.527424 Y25.488150 Z-0.100000 I5.381685 J-1.560228
G01 X25.527424 Y25.490150 Z-0.100000
G02 X26.990180 Y26.765114 Z-0.100000 I3.404198 J-2.429022
G02 X28.808674 Y27.212810 Z-0.100000 I1.818494 J-3.469420
G01 X28.808594 Y27.212900 Z-0.100000
G00 Z0.100000

(End cutting path id: use14)


(Start cutting path id: use14)
(Change tool to Cylindrical cutter)

G00 Z0.100000
G00 X28.808594 Y25.988260

G01 Z-0.100000 F10000.0(Penetrate)
G03 X27.654135 Y25.730997 Z-0.100000 I0.000000 J-2.718927 F400.000000
G03 X26.695312 Y24.999980 Z-0.100000 I1.211578 J-2.583461
G03 X26.042835 Y23.950530 Z-0.100000 I3.031847 J-2.612556
G03 X25.490234 Y22.191390 Z-0.100000 I8.774971 J-3.722857
G01 X25.388672 Y21.710920 Z-0.100000
G01 X28.753906 Y23.310530 Z-0.100000
G03 X30.437486 Y24.215990 Z-0.100000 I-10.219239 J21.019207
G03 X31.257812 Y24.798810 Z-0.100000 I-3.077097 J5.199773
G01 X31.466797 Y24.976540 Z-0.100000
G01 X31.265625 Y25.162090 Z-0.100000
G03 X30.263856 Y25.754400 Z-0.100000 I-1.855138 J-1.994285
G03 X28.808594 Y25.988260 Z-0.100000 I-1.455262 J-4.410956
G01 X28.808594 Y25.988260 Z-0.100000
G00 Z0.100000

(End cutting path id: use14)


(Start cutting path id: use14)
(Change tool to Cylindrical cutter)

G00 Z0.100000
G00 X28.808594 Y25.501900

G01 Z-0.100000 F10000.0(Penetrate)
G02 X29.853891 Y25.298065 Z-0.100000 I-0.000000 J-2.782135 F400.000000
G02 X30.544922 Y24.933540 Z-0.100000 I-1.466642 J-3.617577
G02 X29.849971 Y24.467240 Z-0.100000 I-6.379039 J8.756002
G02 X28.541016 Y23.748000 Z-0.100000 I-7.854208 J12.743271
G01 X26.195312 Y22.632760 Z-0.100000
G02 X26.615003 Y23.919170 Z-0.100000 I17.832489 J-5.106184
G02 X27.064453 Y24.683540 Z-0.100000 I2.328524 J-0.854849
G02 X27.860521 Y25.290700 Z-0.100000 I1.800298 J-1.534974
G02 X28.808594 Y25.501900 Z-0.100000 I0.948073 J-2.022346
G01 X28.808594 Y25.501900 Z-0.100000
G00 Z0.100000

(End cutting path id: use14)


(Start cutting path id: use14)
(Change tool to Cylindrical cutter)

G00 Z0.100000
G00 X14.509766 Y32.507800

G01 Z-0.100000 F10000.0(Penetrate)
G02 X14.803534 Y32.459014 Z-0.100000 I-0.000000 J-0.908861 F400.000000
G02 X14.964844 Y32.363270 Z-0.100000 I-0.147845 J-0.432849
G02 X15.079830 Y32.208459 Z-0.100000 I-0.345124 J-0.376450
G02 X15.183594 Y31.876940 Z-0.100000 I-1.078749 J-0.519643
G01 X15.183594 Y31.874940 Z-0.100000
G02 X15.299696 Y30.965700 Z-0.100000 I-12.402865 J-2.045770
G02 X15.332031 Y30.251890 Z-0.100000 I-7.862673 J-0.713810
G02 X15.316082 Y29.261640 Z-0.100000 I-30.749393 J0.000000
G02 X15.265621 Y28.183530 Z-0.100000 I-37.042092 J1.193518
G03 X15.225467 Y27.139022 Z-0.100000 I31.489651 J-1.733591
G03 X15.218751 Y26.085880 Z-0.100000 I34.021646 J-0.743542
G01 X15.218751 Y26.083880 Z-0.100000
G01 X15.236331 Y24.527240 Z-0.100000
G01 X15.666019 Y25.105370 Z-0.100000
G02 X16.498797 Y26.035905 Z-0.100000 I5.605136 J-4.178377
G02 X17.257815 Y26.599510 Z-0.100000 I2.870743 J-3.073193
G02 X18.129906 Y26.967876 Z-0.100000 I1.847790 J-3.158061
G02 X19.027347 Y27.089740 Z-0.100000 I0.897441 J-3.243581
G02 X20.320094 Y26.798266 Z-0.100000 I0.000000 J-3.012536
G02 X20.982425 Y26.185450 Z-0.100000 I-0.648718 J-1.365464
G01 X20.982425 Y26.183450 Z-0.100000
G01 X20.984425 Y26.183450 Z-0.100000
G02 X21.233411 Y25.524111 Z-0.100000 I-1.870996 J-1.083227
G02 X21.425831 Y23.863140 Z-0.100000 I-10.007399 J-2.000965
G01 X21.502001 Y22.038920 Z-0.100000
G01 X21.693407 Y20.052590 Z-0.100000
G01 X21.693407 Y20.050590 Z-0.100000
G03 X21.852679 Y18.932574 Z-0.100000 I25.011935 J2.992844
G03 X22.021532 Y18.066220 Z-0.100000 I15.246407 J2.521897
G01 X22.021532 Y18.064220 Z-0.100000
G02 X22.048051 Y17.917806 Z-0.100000 I-1.393972 J-0.328088
G02 X22.052782 Y17.843520 Z-0.100000 I-0.580834 J-0.074286
G02 X21.998940 Y17.585660 Z-0.100000 I-0.644398 J0.000000
G02 X21.849657 Y17.378680 Z-0.100000 I-0.552781 J0.241366
G01 X21.847657 Y17.376680 Z-0.100000
G01 X21.845657 Y17.376680 Z-0.100000
G02 X21.611606 Y17.229149 Z-0.100000 I-0.503763 J0.539778
G02 X21.328079 Y17.175510 Z-0.100000 I-0.283527 J0.722513
G02 X21.079033 Y17.214819 Z-0.100000 I0.000000 J0.808589
G02 X20.921829 Y17.300510 Z-0.100000 I0.149113 J0.460597
G02 X20.801286 Y17.439227 Z-0.100000 I0.342750 J0.419578
G02 X20.677688 Y17.720430 Z-0.100000 I1.006427 J0.610123
G01 X20.677688 Y17.722430 Z-0.100000
G02 X20.503170 Y18.480079 Z-0.100000 I7.995540 J2.240629
G02 X20.285110 Y19.900160 Z-0.100000 I25.994176 J4.718308
G02 X20.147811 Y21.272937 Z-0.100000 I28.739891 J3.567689
G02 X20.115188 Y22.132580 Z-0.100000 I11.309829 J0.859643
G02 X20.118459 Y22.369995 Z-0.100000 I8.617176 J0.000000
G02 X20.134718 Y22.868910 Z-0.100000 I49.681183 J-1.369307
G01 X20.134718 Y22.874910 Z-0.100000
G03 X20.158850 Y23.375880 Z-0.100000 I-30.538407 J1.722108
G03 X20.164018 Y23.634680 Z-0.100000 I-6.477220 J0.258800
G03 X20.091556 Y24.533895 Z-0.100000 I-5.615599 J0.000000
G03 X19.914018 Y25.083890 Z-0.100000 I-1.891002 J-0.306761
G03 X19.539012 Y25.510088 Z-0.100000 I-0.995220 J-0.497602
G03 X19.027300 Y25.665930 Z-0.100000 I-0.511712 J-0.762187
G03 X17.824676 Y25.377558 Z-0.100000 I0.000000 J-2.651892
G03 X16.685503 Y24.488190 Z-0.100000 I1.715685 J-3.371842
G01 X16.683503 Y24.488190 Z-0.100000
G03 X16.212853 Y23.847794 Z-0.100000 I3.808603 J-3.292224
G03 X15.322175 Y22.304600 Z-0.100000 I24.186857 J-14.988451
G01 X15.294835 Y22.249900 Z-0.100000
G01 X15.294835 Y22.189400 Z-0.100000
G02 X15.270486 Y20.383111 Z-0.100000 I-67.010451 J0.000000
G02 X15.218665 Y19.324170 Z-0.100000 I-24.155759 J0.651363
G02 X15.084918 Y18.237605 Z-0.100000 I-10.578123 J0.750564
G02 X15.011634 Y18.001900 Z-0.100000 I-0.957250 J0.168377
G02 X14.731878 Y17.661022 Z-0.100000 I-0.772853 J0.349037
G02 X14.406165 Y17.556590 Z-0.100000 I-0.325713 J0.455721
G02 X14.131121 Y17.607953 Z-0.100000 I0.000000 J0.762107
G02 X13.884681 Y17.759720 Z-0.100000 I0.287373 J0.742604
G02 X13.723262 Y17.979740 Z-0.100000 I0.453061 J0.501614
G02 X13.669837 Y18.224560 Z-0.100000 I0.534233 J0.244820
G02 X13.675149 Y18.282075 Z-0.100000 I0.314010 J0.000000
G02 X13.744057 Y18.568310 Z-0.100000 I2.782040 J-0.518331
G01 X13.746057 Y18.574310 Z-0.100000
G03 X13.786626 Y18.759649 Z-0.100000 I-1.020539 J0.320493
G03 X13.820277 Y19.091890 Z-0.100000 I-6.433923 J0.819494
G03 X13.841507 Y19.448359 Z-0.100000 I-11.321793 J0.853165
G03 X13.861297 Y20.025480 Z-0.100000 I-30.415406 J1.331849
G01 X13.888637 Y21.435640 Z-0.100000
G01 X13.917937 Y28.412200 Z-0.100000
G01 X13.917937 Y28.425900 Z-0.100000
G03 X13.975357 Y29.589530 Z-0.100000 I-83.887219 J4.722708
G03 X13.984347 Y30.013790 Z-0.100000 I-10.006628 J0.424260
G03 X13.957758 Y30.519499 Z-0.100000 I-4.822377 J-0.000000
G03 X13.882784 Y30.978640 Z-0.100000 I-4.074729 J-0.429674
G01 X13.884784 Y30.972640 Z-0.100000
G02 X13.824117 Y31.388281 Z-0.100000 I4.269315 J0.835395
G02 X13.802754 Y31.830060 Z-0.100000 I4.557180 J0.441779
G02 X13.858712 Y32.102883 Z-0.100000 I0.693056 J-0.000000
G02 X14.001973 Y32.306620 Z-0.100000 I0.553709 J-0.237114
G01 X14.003973 Y32.308620 Z-0.100000
G01 X14.003973 Y32.310620 Z-0.100000
G02 X14.227685 Y32.454402 Z-0.100000 I0.472796 J-0.489697
G02 X14.509833 Y32.507880 Z-0.100000 I0.282148 J-0.717569
G01 X14.509766 Y32.507800 Z-0.100000
G00 Z0.100000

(End cutting path id: use14)


(Start cutting path id: use14)
(Change tool to Cylindrical cutter)

G00 Z0.100000
G00 X14.509766 Y32.994100

G01 Z-0.100000 F10000.0(Penetrate)
G03 X14.052014 Y32.907794 Z-0.100000 I-0.000000 J-1.257074 F400.000000
G03 X13.667969 Y32.662070 Z-0.100000 I0.425214 J-1.087549
G03 X13.408481 Y32.288762 Z-0.100000 I0.740627 J-0.791652
G03 X13.316406 Y31.830040 Z-0.100000 I1.096645 J-0.458722
G03 X13.339200 Y31.343221 Z-0.100000 I5.209981 J0.000000
G03 X13.406246 Y30.878870 Z-0.100000 I4.690014 J0.440159
G01 X13.408246 Y30.876870 Z-0.100000
G01 X13.408246 Y30.872870 Z-0.100000
G02 X13.473902 Y30.471401 Z-0.100000 I-3.511615 J-0.780388
G02 X13.498086 Y30.013490 Z-0.100000 I-4.323009 J-0.457911
G02 X13.489891 Y29.622560 Z-0.100000 I-9.328399 J-0.000000
G02 X13.431676 Y28.439270 Z-0.100000 I-81.768440 J3.429729
G01 X13.431676 Y28.433270 Z-0.100000
G01 X13.402376 Y21.441090 Z-0.100000
G01 X13.373076 Y20.036790 Z-0.100000
G02 X13.353892 Y19.464462 Z-0.100000 I-32.388925 J0.799139
G02 X13.334016 Y19.126630 Z-0.100000 I-10.293586 J0.436127
G02 X13.292606 Y18.764572 Z-0.100000 I-4.697923 J0.353929
G02 X13.281286 Y18.716480 Z-0.100000 I-0.310958 J0.047813
G01 X13.279286 Y18.714480 Z-0.100000
G01 X13.279286 Y18.712480 Z-0.100000
G03 X13.204839 Y18.423382 Z-0.100000 I3.626184 J-1.087928
G03 X13.183586 Y18.224200 Z-0.100000 I0.922725 J-0.199182
G03 X13.281376 Y17.775930 Z-0.100000 I1.076329 J-0.000000
G03 X13.558586 Y17.398030 Z-0.100000 I1.055081 J0.483334
G03 X13.953998 Y17.153398 Z-0.100000 I0.867752 J0.960712
G03 X14.406242 Y17.067950 Z-0.100000 I0.452244 J1.154063
G03 X15.012936 Y17.262154 Z-0.100000 I-0.000000 J1.044760
G03 X15.455070 Y17.800370 Z-0.100000 I-0.776456 J1.088554
G03 X15.588911 Y18.248569 Z-0.100000 I-1.539819 J0.703902
G03 X15.705070 Y19.288650 Z-0.100000 I-12.811385 J1.957340
G03 X15.756264 Y20.355296 Z-0.100000 I-23.288233 J1.652288
G03 X15.779290 Y22.118730 Z-0.100000 I-73.274118 J1.838622
G02 X16.654666 Y23.627201 Z-0.100000 I24.312549 J-13.100518
G02 X17.052727 Y24.167560 Z-0.100000 I3.677616 J-2.292352
G02 X18.051514 Y24.944893 Z-0.100000 I2.480808 J-2.157233
G02 X19.027337 Y25.177320 Z-0.100000 I0.975823 J-1.932237
G02 X19.269513 Y25.103125 Z-0.100000 I0.000000 J-0.432337
G02 X19.478509 Y24.864820 Z-0.100000 I-0.350255 J-0.517975
G02 X19.602976 Y24.488165 Z-0.100000 I-1.231977 J-0.616004
G02 X19.677727 Y23.634360 Z-0.100000 I-4.838697 J-0.853805
G02 X19.672951 Y23.399873 Z-0.100000 I-5.758888 J0.000000
G02 X19.648427 Y22.896070 Z-0.100000 I-31.853255 J1.298057
G01 X19.648427 Y22.894070 Z-0.100000
G01 X19.648427 Y22.892070 Z-0.100000
G03 X19.632266 Y22.387813 Z-0.100000 I44.443059 J-1.676773
G03 X19.628897 Y22.132300 Z-0.100000 I9.688472 J-0.255513
G03 X19.663473 Y21.227776 Z-0.100000 I11.848785 J0.000000
G03 X19.802725 Y19.839330 Z-0.100000 I29.547733 J2.262244
G03 X20.021594 Y18.404241 Z-0.100000 I27.516336 J3.462349
G03 X20.208975 Y17.587380 Z-0.100000 I8.601603 J1.543213
G01 X20.208975 Y17.585380 Z-0.100000
G03 X20.376136 Y17.200495 Z-0.100000 I1.579267 J0.457155
G03 X20.615225 Y16.923270 Z-0.100000 I0.908227 J0.541576
G03 X20.937939 Y16.748942 Z-0.100000 I0.614915 J0.752455
G03 X21.328116 Y16.688890 Z-0.100000 I0.390177 J1.237536
G03 X21.784737 Y16.774094 Z-0.100000 I-0.000000 J1.266156
G03 X22.173819 Y17.017020 Z-0.100000 I-0.439804 J1.137460
G03 X22.444588 Y17.389601 Z-0.100000 I-0.740595 J0.822899
G03 X22.541007 Y17.843190 Z-0.100000 I-1.018711 J0.453589
G03 X22.530008 Y17.994604 Z-0.100000 I-1.047687 J0.000000
G03 X22.496087 Y18.173270 Z-0.100000 I-2.113029 J-0.308619
G01 X22.496087 Y18.175270 Z-0.100000
G02 X22.333868 Y19.007179 Z-0.100000 I14.593950 J3.277528
G02 X22.177727 Y20.101050 Z-0.100000 I24.271323 J4.022616
G01 X22.177727 Y20.107050 Z-0.100000
G01 X21.988274 Y22.071900 Z-0.100000
G01 X21.912104 Y23.880490 Z-0.100000
G01 X21.912104 Y23.882490 Z-0.100000
G03 X21.724636 Y25.567172 Z-0.100000 I-10.963152 J-0.367183
G03 X21.404292 Y26.427410 Z-0.100000 I-2.691401 J-0.512486
G03 X20.523706 Y27.240282 Z-0.100000 I-1.734798 J-0.995903
G03 X19.027339 Y27.575850 Z-0.100000 I-1.496367 J-3.168526
G03 X17.998384 Y27.436057 Z-0.100000 I-0.000000 J-3.856731
G03 X17.011714 Y27.019210 Z-0.100000 I1.105017 J-3.991700
G03 X16.364303 Y26.511358 Z-0.100000 I1.489773 J-2.565752
G03 X15.708979 Y25.800460 Z-0.100000 I16.006696 J-15.412888
G01 X15.705079 Y26.089520 Z-0.100000
G02 X15.712076 Y27.126163 Z-0.100000 I32.679080 J0.297783
G02 X15.751949 Y28.153980 Z-0.100000 I31.810169 J-0.719369
G01 X15.751949 Y28.155980 Z-0.100000
G03 X15.802544 Y29.246404 Z-0.100000 I-36.553011 J2.242417
G03 X15.818359 Y30.251680 Z-0.100000 I-31.941791 J1.005276
G03 X15.783840 Y31.014106 Z-0.100000 I-8.437166 J-0.000000
G03 X15.664062 Y31.952850 Z-0.100000 I-12.942106 J-1.174320
G01 X15.664062 Y31.954850 Z-0.100000
G03 X15.528011 Y32.400841 Z-0.100000 I-1.681183 J-0.269103
G03 X15.292969 Y32.722430 Z-0.100000 I-0.920225 J-0.425884
G03 X14.948446 Y32.923917 Z-0.100000 I-0.638631 J-0.696705
G03 X14.509766 Y32.993910 Z-0.100000 I-0.438680 J-1.339707
G01 X14.509766 Y32.994100 Z-0.100000
G00 Z0.100000

(End cutting path id: use14)


(Footer)
M5
G00 X0.0000 Y0.0000
M2
(Using default footer. To add your own footer create file "footer" in the output dir.)
(end)
%
