%
(Header)
(Generated by gcodetools from Inkscape.)
(Using default header. To add your own header create file "header" in the output dir.)
M3
(Header end.)
G21 (All units in mm)

(Start cutting path id: path3782)
(Change tool to Cylindrical cutter)

G00 Z0.100000
G00 X126.176293 Y15.356019

G01 Z-0.100000 F10000.0(Penetrate)
G03 X125.433928 Y15.678670 Z-0.100000 I-2.436233 J-4.590001 F400.000000
G03 X119.958585 Y17.499863 Z-0.100000 I-86.074521 J-249.638211
G02 X114.510032 Y19.345551 Z-0.100000 I53.418876 J166.659937
G02 X114.159423 Y19.571178 Z-0.100000 I0.309213 J0.865721
G02 X113.930372 Y19.921997 Z-0.100000 I0.788655 J0.765099
G02 X113.146424 Y22.059677 Z-0.100000 I30.056029 J12.234996
G03 X112.272800 Y24.303140 Z-0.100000 I-20.836796 J-6.822194
G03 X111.979604 Y24.385815 Z-0.100000 I-0.181495 J-0.082420
G03 X111.711765 Y23.999172 Z-0.100000 I0.364320 J-0.538467
G03 X110.990543 Y20.601037 Z-0.100000 I63.578741 J-15.269579
G02 X110.339565 Y17.323659 Z-0.100000 I-121.648347 J22.459395
G02 X110.263720 Y17.183996 Z-0.100000 I-0.273723 J0.058222
G02 X110.047145 Y17.083285 Z-0.100000 I-0.246180 J0.246177
G02 X105.023198 Y16.697515 Z-0.100000 I-25.193391 J295.191250
G02 X99.998298 Y16.397389 Z-0.100000 I-20.218391 J296.294326
G02 X99.733195 Y16.465419 Z-0.100000 I-0.023510 J0.458938
G02 X99.604083 Y16.656181 Z-0.100000 I0.147756 J0.239078
G02 X99.509688 Y17.746167 Z-0.100000 I6.245874 J1.089986
G03 X99.384662 Y18.829638 Z-0.100000 I-4.757180 J0.000000
G03 X99.178959 Y19.160132 Z-0.100000 I-0.590109 J-0.138028
G03 X98.820550 Y19.224126 Z-0.100000 I-0.236352 J-0.288065
G03 X95.060685 Y17.732355 Z-0.100000 I15.066620 J-43.458057
G02 X91.281783 Y16.164116 Z-0.100000 I-29.562679 J65.898584
G02 X91.021545 Y16.188721 Z-0.100000 I-0.105245 J0.275389
G02 X90.808420 Y16.384259 Z-0.100000 I0.405101 J0.655451
G02 X89.443216 Y18.310353 Z-0.100000 I41.188325 J30.640921
G03 X87.953087 Y19.420518 Z-0.100000 I-2.329935 J-1.572226
G03 X87.338855 Y18.969190 Z-0.100000 I-0.141302 J-0.451328
G02 X87.228859 Y17.723215 Z-0.100000 I-7.111865 J0.000000
G02 X87.077475 Y17.500348 Z-0.100000 I-0.324848 J0.057806
G02 X86.795021 Y17.401671 Z-0.100000 I-0.364496 J0.589753
G02 X81.719663 Y16.861844 Z-0.100000 I-23.876411 J200.353141
G02 X76.389676 Y16.792798 Z-0.100000 I-3.093664 J33.056275
G02 X75.961771 Y17.250565 Z-0.100000 I0.030904 J0.457767
G03 X75.888341 Y17.558487 Z-0.100000 I-0.682332 J-0.000000
G03 X75.705144 Y17.758033 Z-0.100000 I-0.445882 J-0.225483
G03 X75.429820 Y17.815077 Z-0.100000 I-0.215975 J-0.349457
G03 X71.170522 Y17.095977 Z-0.100000 I14.007637 J-95.942220
G02 X66.937995 Y16.423359 Z-0.100000 I-12.644359 J65.912934
G02 X66.643742 Y16.524104 Z-0.100000 I-0.044304 J0.350695
G02 X66.473387 Y16.815637 Z-0.100000 I0.470434 J0.470434
G02 X65.782912 Y19.607434 Z-0.100000 I46.484962 J12.978068
G03 X65.091575 Y22.398758 Z-0.100000 I-46.653963 J-10.073673
G03 X64.919029 Y22.693817 Z-0.100000 I-0.649362 J-0.181757
G03 X63.136897 Y23.299374 Z-0.100000 I-1.505512 J-1.505512
G03 X60.802073 Y22.154363 Z-0.100000 I0.528028 J-4.029726
G03 X60.665138 Y21.907065 Z-0.100000 I0.355948 J-0.358658
G03 X60.132910 Y19.192625 Z-0.100000 I47.193515 J-10.662767
G02 X59.471502 Y16.647402 Z-0.100000 I-14.558050 J2.424543
G02 X59.119825 Y16.359803 Z-0.100000 I-0.414730 J0.148317
G02 X58.566937 Y16.359826 Z-0.100000 I-0.276365 J1.910593
G02 X55.026488 Y16.952245 Z-0.100000 I11.656682 J80.538879
G01 X51.487813 Y17.624916 Z-0.100000
G01 X46.460730 Y16.541400 Z-0.100000
G02 X40.084420 Y15.446599 Z-0.100000 I-16.137144 J74.869805
G02 X39.822562 Y15.688449 Z-0.100000 I-0.029631 J0.230603
G03 X39.808912 Y19.616274 Z-0.100000 I-37.837272 J1.832446
G03 X39.271575 Y25.634303 Z-0.100000 I-89.497677 J-4.958053
G03 X38.986916 Y26.744502 Z-0.100000 I-4.447265 J-0.548701
G03 X38.770722 Y26.891074 Z-0.100000 I-0.216195 J-0.086159
G03 X38.481823 Y26.771114 Z-0.100000 I-0.000000 J-0.407855
G03 X36.849878 Y24.963534 Z-0.100000 I17.509355 J-17.448522
G02 X35.149373 Y22.950599 Z-0.100000 I-62.355237 J50.952254
G02 X34.669036 Y22.699102 Z-0.100000 I-0.563767 J0.492295
G02 X34.239888 Y22.905331 Z-0.100000 I-0.049984 J0.445614
G02 X33.266407 Y24.561582 Z-0.100000 I25.563648 J16.139563
G03 X31.352337 Y27.510184 Z-0.100000 I-20.272592 J-11.064293
G03 X30.996515 Y27.535403 Z-0.100000 I-0.189032 J-0.144286
G03 X30.789339 Y27.205713 Z-0.100000 I0.592838 J-0.602476
G03 X29.057929 Y21.849994 Z-0.100000 I167.161415 J-56.998082
G02 X27.259141 Y16.609287 Z-0.100000 I-78.184829 J23.906617
G02 X26.963503 Y16.361152 Z-0.100000 I-0.370663 J0.141437
G02 X26.534462 Y16.399096 Z-0.100000 I-0.148160 J0.769326
G02 X20.351465 Y18.900451 Z-0.100000 I67.355284 J175.385210
G03 X14.176043 Y21.510610 Z-0.100000 I-574.507849 J-1350.628143
G03 X13.718544 Y21.686140 Z-0.100000 I-3.035659 J-7.228111
G02 X12.912120 Y22.861914 Z-0.100000 I0.395493 J1.135692
G02 X13.894870 Y26.973605 Z-0.100000 I10.567115 J-0.352394
G03 X14.514080 Y28.355268 Z-0.100000 I-47.123037 J21.948385
G03 X19.729237 Y40.517115 Z-0.100000 I-3647.344011 J1571.227133
G02 X24.998223 Y52.638260 Z-0.100000 I917.660869 J-391.695744
G02 X25.271395 Y53.039175 Z-0.100000 I1.229268 J-0.544063
G02 X25.681137 Y53.205567 Z-0.100000 I0.398674 J-0.394044
G02 X28.620673 Y52.973029 Z-0.100000 I-0.492053 J-24.915825
G03 X31.623741 Y52.569126 Z-0.100000 I46.932464 J337.582468
G03 X31.831873 Y52.555657 Z-0.100000 I0.208132 J1.601338
G03 X32.020902 Y52.864949 Z-0.100000 I-0.000000 J0.212410
G03 X30.982605 Y54.212684 Z-0.100000 I-4.164080 J-2.134191
G01 X29.924272 Y55.162771 Z-0.100000
G01 X29.924272 Y57.332582 Z-0.100000
G01 X29.924272 Y59.502390 Z-0.100000
G01 X31.300277 Y61.358522 Z-0.100000
G01 X32.676285 Y63.214653 Z-0.100000
G01 X31.697142 Y64.036716 Z-0.100000
G02 X31.032440 Y65.005355 Z-0.100000 I1.411070 J1.680694
G02 X30.718009 Y66.891065 Z-0.100000 I5.497101 J1.885680
G01 X30.718022 Y68.923345 Z-0.100000
G01 X33.319008 Y72.844190 Z-0.100000
G02 X35.970392 Y76.718687 Z-0.100000 I135.827728 J-90.104748
G02 X36.295571 Y77.062225 Z-0.100000 I1.351975 J-0.954056
G02 X36.714853 Y77.252122 Z-0.100000 I0.590795 J-0.746618
G02 X39.581564 Y77.664020 Z-0.100000 I6.790278 J-37.076976
G03 X42.490586 Y77.980768 Z-0.100000 I-36.439461 J348.177037
G03 X44.537376 Y78.224598 Z-0.100000 I-19.528591 J172.642517
G01 X46.582775 Y78.480577 Z-0.100000
G01 X48.900522 Y76.630615 Z-0.100000
G03 X51.245489 Y74.858384 Z-0.100000 I34.670401 J43.437399
G03 X51.487835 Y74.780657 Z-0.100000 I0.242346 J0.338939
G03 X51.712074 Y74.862405 Z-0.100000 I0.000000 J0.348422
G03 X52.055501 Y75.257994 Z-0.100000 I-1.080267 J1.284691
G02 X52.475367 Y75.490464 Z-0.100000 I0.419261 J-0.261833
G02 X57.741542 Y75.251036 Z-0.100000 I-0.072968 J-59.638727
G02 X63.120697 Y74.726500 Z-0.100000 I-31.994908 J-355.954787
G02 X63.460209 Y74.649709 Z-0.100000 I-0.155030 J-1.474347
G02 X63.667781 Y74.445619 Z-0.100000 I-0.114759 J-0.324317
G02 X63.790938 Y73.763024 Z-0.100000 I-1.830042 J-0.682595
G03 X63.910144 Y73.049345 Z-0.100000 I2.195977 J-0.000000
G03 X64.160961 Y72.686276 Z-0.100000 I0.772436 J0.265446
G03 X64.578412 Y72.488338 Z-0.100000 I0.596371 J0.718575
G03 X68.012127 Y71.934460 Z-0.100000 I10.140369 J51.943828
G03 X71.264496 Y72.245139 Z-0.100000 I0.938948 J7.349713
G03 X71.988971 Y73.241472 Z-0.100000 I-0.328891 J1.000714
G02 X72.161804 Y74.088925 Z-0.100000 I2.209277 J-0.009218
G02 X72.456042 Y74.351749 Z-0.100000 I0.423714 J-0.178244
G02 X72.924461 Y74.464961 Z-0.100000 I1.402998 J-4.779281
G02 X78.929743 Y75.588377 Z-0.100000 I150.215236 J-786.371539
G01 X84.940425 Y76.689083 Z-0.100000
G01 X86.999534 Y75.622955 Z-0.100000
G02 X89.053342 Y74.546915 Z-0.100000 I-109.976472 J-212.407168
G02 X90.154000 Y73.950714 Z-0.100000 I-32.642370 J-61.575754
G03 X91.437352 Y73.902505 Z-0.100000 I0.689382 J1.245840
G03 X92.212972 Y74.895788 Z-0.100000 I-0.571957 J1.246089
G02 X92.466581 Y75.734395 Z-0.100000 I3.985809 J-0.747724
G02 X92.703668 Y76.050270 Z-0.100000 I0.758489 J-0.322388
G02 X93.068897 Y76.155525 Z-0.100000 I0.305588 J-0.374084
G02 X98.848230 Y75.285744 Z-0.100000 I-14.100786 J-113.329272
G03 X105.522993 Y74.461798 Z-0.100000 I11.230460 J63.529666
G03 X105.991784 Y74.780040 Z-0.100000 I0.032335 J0.456768
G02 X106.262917 Y75.195400 Z-0.100000 I0.883097 J-0.280284
G02 X106.737218 Y75.435805 Z-0.100000 I0.703292 J-0.799461
G02 X114.961695 Y76.915753 Z-0.100000 I23.214731 J-105.417829
G02 X118.892055 Y77.140280 Z-0.100000 I3.326891 J-23.724561
G02 X119.697268 Y76.937184 Z-0.100000 I-0.047515 J-1.886146
G02 X123.983646 Y74.560592 Z-0.100000 I-29.703103 J-58.625689
G01 X128.216979 Y72.002532 Z-0.100000
G01 X128.295513 Y70.797371 Z-0.100000
G02 X128.264123 Y69.597483 Z-0.100000 I-6.573558 J-0.428385
G02 X127.567909 Y64.627451 Z-0.100000 I-114.367176 J13.487055
G03 X126.800644 Y59.659554 Z-0.100000 I320.812764 J-52.090945
G03 X126.761771 Y59.126153 Z-0.100000 I3.640069 J-0.533401
G03 X126.919848 Y58.660065 Z-0.100000 I0.766163 J0.000000
G03 X128.084687 Y57.400199 Z-0.100000 I7.390816 J5.664932
G01 X129.407604 Y56.210783 Z-0.100000
G01 X129.407604 Y54.012479 Z-0.100000
G01 X129.407604 Y51.814173 Z-0.100000
G01 X128.425413 Y51.234667 Z-0.100000
G03 X128.436635 Y50.691948 Z-0.100000 I0.158244 J-0.268203
G03 X130.862812 Y49.929281 Z-0.100000 I3.227103 J6.025603
G02 X133.506163 Y49.599950 Z-0.100000 I-23.989024 J-203.318742
G02 X134.370539 Y49.469062 Z-0.100000 I-2.868171 J-21.860923
G02 X135.070810 Y49.065272 Z-0.100000 I-0.197954 J-1.152417
G02 X139.265331 Y43.596146 Z-0.100000 I-65.302846 J-54.426757
G01 X143.298229 Y37.871280 Z-0.100000
G01 X143.269961 Y36.019196 Z-0.100000
G02 X141.853314 Y24.770044 Z-0.100000 I-51.628360 J0.787969
G02 X139.644770 Y20.897058 Z-0.100000 I-7.764214 J1.861295
G02 X139.290094 Y20.649410 Z-0.100000 I-0.944464 J0.974836
G02 X133.905521 Y18.128156 Z-0.100000 I-111.413492 J230.932318
G03 X128.517648 Y15.620606 Z-0.100000 I132.553147 J-291.853822
G03 X128.346620 Y15.478042 Z-0.100000 I0.193629 J-0.406158
G02 X127.566242 Y15.051177 Z-0.100000 I-0.838454 J0.606069
G02 X126.176293 Y15.356016 Z-0.100000 I-0.148633 J2.643533
G01 X126.176293 Y15.356019 Z-0.100000
G00 Z0.100000

(End cutting path id: path3782)


(Start cutting path id: path3782)
(Change tool to Cylindrical cutter)

G00 Z0.100000
G00 X132.437366 Y23.087792

G01 Z-0.100000 F10000.0(Penetrate)
G03 X137.437456 Y25.429850 Z-0.100000 I-88.476592 J195.398209 F400.000000
G03 X137.830136 Y25.698941 Z-0.100000 I-0.694813 J1.434989
G03 X138.073578 Y26.092433 Z-0.100000 I-0.599951 J0.643224
G03 X139.598134 Y31.669806 Z-0.100000 I-131.695598 J38.995607
G03 X140.813140 Y37.287414 Z-0.100000 I-85.063655 J21.338207
G03 X140.725315 Y37.856053 Z-0.100000 I-0.864687 J0.157552
G03 X136.096111 Y45.356310 Z-0.100000 I-58.822409 J-31.126831
G03 X133.940985 Y47.374364 Z-0.100000 I-6.081211 J-4.334482
G03 X133.518132 Y47.525229 Z-0.100000 I-0.563824 J-0.912290
G03 X127.110245 Y48.324861 Z-0.100000 I-55.262059 J-416.770185
G03 X120.665586 Y49.028219 Z-0.100000 I-48.546408 J-414.939277
G03 X120.375653 Y48.961459 Z-0.100000 I-0.046637 J-0.460420
G03 X118.834470 Y47.595709 Z-0.100000 I3.170989 J-5.130756
G03 X114.791346 Y41.972324 Z-0.100000 I53.306408 J-42.591615
G03 X113.603819 Y39.021959 Z-0.100000 I7.080197 J-4.563967
G03 X113.003438 Y32.811488 Z-0.100000 I31.821029 J-6.210470
G03 X113.504990 Y29.681216 Z-0.100000 I10.019056 J0.000000
G03 X115.638865 Y24.798527 Z-0.100000 I26.889549 J8.843876
G03 X115.926325 Y24.549689 Z-0.100000 I0.483515 J0.268104
G03 X121.009597 Y22.699324 Z-0.100000 I71.589911 J188.762355
G03 X126.053788 Y21.010996 Z-0.100000 I68.901493 J197.476538
G03 X127.013408 Y20.829838 Z-0.100000 I1.208408 J3.768911
G03 X127.381626 Y20.891441 Z-0.100000 I0.051789 J0.821710
G03 X132.437366 Y23.087792 Z-0.100000 I-68.991895 J165.728249
G01 X132.437366 Y23.087792 Z-0.100000
G00 Z0.100000

(End cutting path id: path3782)


(Start cutting path id: path3782)
(Change tool to Cylindrical cutter)

G00 Z0.100000
G00 X123.570906 Y32.248886

G01 Z-0.100000 F10000.0(Penetrate)
G02 X121.555562 Y34.460819 Z-0.100000 I46.259800 J44.172477 F400.000000
G02 X121.478343 Y34.656362 Z-0.100000 I0.238284 J0.207115
G02 X121.527127 Y34.866606 Z-0.100000 I0.412363 J0.015099
G02 X122.933967 Y37.368341 Z-0.100000 I64.284434 J-34.503634
G02 X124.497571 Y39.679755 Z-0.100000 I19.156263 J-11.274079
G02 X124.852196 Y39.852371 Z-0.100000 I0.351415 J-0.271371
G02 X128.917941 Y39.244498 Z-0.100000 I-0.105580 J-14.606918
G02 X130.208670 Y38.256322 Z-0.100000 I-0.652267 J-2.189020
G02 X131.353556 Y34.954903 Z-0.100000 I-6.817583 J-4.213468
G02 X130.846723 Y32.685875 Z-0.100000 I-3.524924 J-0.403757
G02 X128.817974 Y30.800789 Z-0.100000 I-4.439792 J2.743927
G02 X125.816912 Y30.066074 Z-0.100000 I-3.001062 J5.761803
G02 X125.679152 Y30.121988 Z-0.100000 I0.000000 J0.197662
G02 X123.570906 Y32.248886 Z-0.100000 I55.893135 J57.511282
G01 X123.570906 Y32.248886 Z-0.100000
G00 Z0.100000

(End cutting path id: path3782)


(Start cutting path id: path3782)
(Change tool to Cylindrical cutter)

G00 Z0.100000
G00 X106.734757 Y22.277921

G01 Z-0.100000 F10000.0(Penetrate)
G03 X108.377090 Y22.644425 Z-0.100000 I-0.573689 J6.433699 F400.000000
G03 X108.742265 Y23.011155 Z-0.100000 I-0.209618 J0.573908
G03 X109.031999 Y24.091581 Z-0.100000 I-6.275386 J2.261911
G03 X111.045013 Y35.559701 Z-0.100000 I-1333.432470 J239.969850
G03 X112.982618 Y47.191357 Z-0.100000 I-1320.956919 J226.022660
G03 X112.943861 Y47.566777 Z-0.100000 I-0.715084 J0.115888
G03 X112.609516 Y47.873643 Z-0.100000 I-0.475444 J-0.182443
G03 X107.990081 Y49.092624 Z-0.100000 I-29.100785 J-100.917643
G03 X103.320333 Y50.099817 Z-0.100000 I-24.395941 J-101.780296
G03 X102.906313 Y49.972699 Z-0.100000 I-0.087130 J-0.454008
G03 X102.767106 Y49.665757 Z-0.100000 I0.338606 J-0.338606
G03 X102.277708 Y40.486776 Z-0.100000 I355.415624 J-23.552313
G03 X102.158494 Y28.211796 Z-0.100000 I200.112910 J-8.081555
G03 X102.552396 Y27.370777 Z-0.100000 I1.146025 J0.024001
G02 X103.246200 Y25.759848 Z-0.100000 I-1.327291 J-1.526515
G02 X102.420104 Y24.203405 Z-0.100000 I-2.039808 J0.085195
G03 X101.800021 Y23.528981 Z-0.100000 I1.436615 J-1.943134
G03 X101.626354 Y22.916665 Z-0.100000 I0.992622 J-0.612316
G03 X102.030336 Y22.258338 Z-0.100000 I0.738395 J-0.000000
G03 X103.463711 Y21.983334 Z-0.100000 I1.194052 J2.350612
G02 X104.933717 Y22.116522 Z-0.100000 I124.299936 J-1363.724060
G02 X106.734757 Y22.277921 Z-0.100000 I183.296072 J-2035.266623
G01 X106.734757 Y22.277921 Z-0.100000
G00 Z0.100000

(End cutting path id: path3782)


(Start cutting path id: path3782)
(Change tool to Cylindrical cutter)

G00 Z0.100000
G00 X95.981853 Y23.617710

G01 Z-0.100000 F10000.0(Penetrate)
G03 X100.331437 Y25.818821 Z-0.100000 I-20.615390 J46.135918 F400.000000
G03 X100.412309 Y26.135218 Z-0.100000 I-0.112038 J0.197171
G03 X100.230076 Y26.349713 Z-0.100000 I-0.797439 J-0.492836
G03 X96.909493 Y29.181821 Z-0.100000 I-147.921013 J-170.071402
G02 X93.645420 Y32.040854 Z-0.100000 I60.910410 J72.832360
G02 X93.474188 Y32.332437 Z-0.100000 I0.389715 J0.424930
G02 X93.569694 Y32.602262 Z-0.100000 I0.256592 J0.060993
G02 X95.499430 Y33.894637 Z-0.100000 I10.605982 J-13.749643
G03 X97.564076 Y35.161255 Z-0.100000 I-22.342576 J38.735467
G03 X97.891102 Y35.452575 Z-0.100000 I-0.797928 J1.224942
G03 X98.131195 Y35.940279 Z-0.100000 I-0.897279 J0.744673
G03 X99.015501 Y40.173130 Z-0.100000 I-129.792518 J29.324418
G03 X99.762609 Y44.439393 Z-0.100000 I-130.150236 J24.990455
G03 X99.710996 Y44.930585 Z-0.100000 I-0.942697 J0.149252
G03 X98.965601 Y45.822572 Z-0.100000 I-1.676047 J-0.643159
G03 X89.801774 Y50.937854 Z-0.100000 I-75.858519 J-125.131603
G03 X89.192989 Y51.050511 Z-0.100000 I-0.492968 J-0.962711
G03 X82.658024 Y50.168472 Z-0.100000 I13.138459 J-121.991536
G03 X75.116920 Y48.763433 Z-0.100000 I26.545635 J-163.415094
G03 X74.837507 Y48.523045 Z-0.100000 I0.078702 J-0.374059
G03 X74.792940 Y48.180414 Z-0.100000 I0.716372 J-0.267394
G03 X75.694476 Y39.855657 Z-0.100000 I446.928597 J44.189298
G01 X76.675750 Y31.521282 Z-0.100000
G01 X78.208502 Y27.155657 Z-0.100000
G03 X79.800924 Y22.822814 Z-0.100000 I149.694279 J52.557125
G03 X80.022776 Y22.432556 Z-0.100000 I1.400532 J0.537982
G03 X80.378307 Y22.244682 Z-0.100000 I0.389492 J0.306732
G03 X82.564803 Y22.258011 Z-0.100000 I1.004143 J14.624071
G03 X84.782656 Y22.535842 Z-0.100000 I-2.055466 J25.399465
G03 X85.081078 Y22.686043 Z-0.100000 I-0.095468 J0.561231
G03 X85.214507 Y22.981950 Z-0.100000 I-0.300442 J0.313510
G03 X85.257232 Y27.027776 Z-0.100000 I-67.410578 J2.735010
G02 X85.287191 Y31.015476 Z-0.100000 I73.998508 J1.438029
G02 X85.398342 Y31.121417 Z-0.100000 I0.109667 J-0.003780
G02 X85.570329 Y31.030326 Z-0.100000 I-0.002788 J-0.213171
G02 X88.368028 Y26.869997 Z-0.100000 I-116.055784 J-81.064954
G03 X91.685419 Y22.007792 Z-0.100000 I101.139410 J65.442700
G03 X91.965856 Y21.863991 Z-0.100000 I0.280437 J0.201551
G03 X92.053250 Y21.882240 Z-0.100000 I-0.000000 J0.218382
G03 X95.981853 Y23.617710 Z-0.100000 I-202.220486 J463.083212
G01 X95.981853 Y23.617710 Z-0.100000
G00 Z0.100000

(End cutting path id: path3782)


(Start cutting path id: path3782)
(Change tool to Cylindrical cutter)

G00 Z0.100000
G00 X84.864138 Y38.175786

G01 Z-0.100000 F10000.0(Penetrate)
G02 X84.668954 Y43.240821 Z-0.100000 I55.141982 J4.661209 F400.000000
G02 X84.904154 Y43.659080 Z-0.100000 I0.495933 J-0.003619
G02 X87.125393 Y43.965584 Z-0.100000 I1.457086 J-2.357588
G02 X90.156627 Y42.152502 Z-0.100000 I-1.896128 J-6.610531
G02 X90.303512 Y41.788323 Z-0.100000 I-0.371227 J-0.361437
G02 X90.142763 Y39.533122 Z-0.100000 I-17.174981 J0.090884
G02 X89.778789 Y37.251334 Z-0.100000 I-54.092342 J7.458500
G02 X89.706240 Y37.125231 Z-0.100000 I-0.212984 J0.038611
G02 X88.440946 Y36.486083 Z-0.100000 I-1.948265 J2.284897
G02 X85.537365 Y36.151491 Z-0.100000 I-2.903581 J12.431292
G02 X85.235412 Y36.369283 Z-0.100000 I0.000000 J0.318214
G02 X84.864138 Y38.175786 Z-0.100000 I7.409564 J2.464222
G01 X84.864138 Y38.175786 Z-0.100000
G00 Z0.100000

(End cutting path id: path3782)


(Start cutting path id: path3782)
(Change tool to Cylindrical cutter)

G00 Z0.100000
G00 X79.658308 Y54.051815

G01 Z-0.100000 F10000.0(Penetrate)
G01 X81.315800 Y54.225059 Z-0.100000 F400.000000
G01 X81.132920 Y56.804574 Z-0.100000
G01 X80.950043 Y59.384087 Z-0.100000
G01 X83.284552 Y59.554770 Z-0.100000
G03 X85.615099 Y59.753907 Z-0.100000 I-6.958754 J95.176917
G03 X86.148230 Y59.834852 Z-0.100000 I-0.493701 J5.047813
G03 X86.614388 Y60.060495 Z-0.100000 I-0.214474 J1.037429
G03 X88.644740 Y61.928016 Z-0.100000 I-19.311503 J23.032741
G01 X90.612084 Y63.911783 Z-0.100000
G01 X91.083402 Y67.026619 Z-0.100000
G03 X91.447419 Y70.104661 Z-0.100000 I-47.215542 J7.144379
G03 X91.365017 Y70.321708 Z-0.100000 I-0.266956 J0.022815
G03 X87.203670 Y73.255617 Z-0.100000 I-12.073977 J-12.707171
G03 X84.124053 Y73.984832 Z-0.100000 I-3.057025 J-6.042892
G03 X83.507006 Y73.933883 Z-0.100000 I0.012098 J-3.908499
G03 X79.269063 Y73.193157 Z-0.100000 I30.467316 J-186.807498
G02 X75.034126 Y72.419961 Z-0.100000 I-103.454902 J554.657139
G02 X74.837292 Y72.401481 Z-0.100000 I-0.209267 J1.171472
G03 X74.727296 Y72.148591 Z-0.100000 I0.001583 J-0.151056
G03 X75.366459 Y71.821668 Z-0.100000 I0.756190 J0.690148
G02 X75.890139 Y71.537930 Z-0.100000 I-0.091322 J-0.793681
G02 X76.179748 Y70.840826 Z-0.100000 I-0.987876 J-0.819120
G02 X76.178388 Y69.946911 Z-0.100000 I-4.606170 J-0.439948
G02 X75.852451 Y67.520898 Z-0.100000 I-34.527579 J3.403910
G03 X75.684989 Y65.092194 Z-0.100000 I12.020399 J-2.048944
G03 X76.096553 Y59.686768 Z-0.100000 I60.435117 J1.883086
G02 X76.742550 Y54.274752 Z-0.100000 I-1329.967619 J-161.494177
G02 X76.754580 Y54.077011 Z-0.100000 I-1.757430 J-0.206148
G03 X76.910365 Y53.920548 Z-0.100000 I0.157149 J0.000682
G03 X79.658308 Y54.051823 Z-0.100000 I0.211630 J24.396720
G01 X79.658308 Y54.051815 Z-0.100000
G00 Z0.100000

(End cutting path id: path3782)


(Start cutting path id: path3782)
(Change tool to Cylindrical cutter)

G00 Z0.100000
G00 X69.483412 Y55.267636

G01 Z-0.100000 F10000.0(Penetrate)
G03 X71.186251 Y57.227928 Z-0.100000 I-32.893696 J30.293382 F400.000000
G03 X71.487726 Y57.715032 Z-0.100000 I-1.683851 J1.379002
G03 X71.662091 Y58.263509 Z-0.100000 I-2.299085 J1.032853
G03 X72.651890 Y63.659804 Z-0.100000 I-224.760163 J44.014850
G03 X73.387486 Y69.013145 Z-0.100000 I-81.023482 J13.860559
G03 X73.248697 Y69.395436 Z-0.100000 I-0.463154 J0.048192
G03 X72.761641 Y69.645345 Z-0.100000 I-0.652479 J-0.672063
G03 X69.277294 Y70.180036 Z-0.100000 I-12.320867 J-68.669369
G03 X65.760027 Y70.536599 Z-0.100000 I-8.621804 J-67.522490
G03 X65.393559 Y70.398442 Z-0.100000 I-0.034803 J-0.462800
G03 X65.273573 Y70.104038 Z-0.100000 I0.300465 J-0.294108
G03 X65.397078 Y65.401339 Z-0.100000 I92.065574 J0.064904
G02 X65.508239 Y60.704135 Z-0.100000 I-83.360982 J-4.322675
G02 X65.374562 Y60.383445 Z-0.100000 I-0.456419 J0.002048
G02 X65.094353 Y60.248669 Z-0.100000 I-0.332392 J0.332392
G02 X62.505164 Y60.014539 Z-0.100000 I-6.852635 J61.348077
G02 X59.929647 Y59.894103 Z-0.100000 I-3.976385 J57.435829
G02 X59.826792 Y59.999362 Z-0.100000 I-0.002446 J0.100492
G02 X59.836985 Y60.095707 Z-0.100000 I0.867286 J-0.043048
G02 X60.875489 Y66.446282 Z-0.100000 I3643.195221 J-592.508288
G03 X61.707786 Y72.711923 Z-0.100000 I-100.923433 J16.594274
G03 X61.548650 Y73.078113 Z-0.100000 I-0.406049 J0.041216
G03 X61.029386 Y73.293542 Z-0.100000 I-0.670375 J-0.882329
G03 X57.554723 Y73.691486 Z-0.100000 I-10.476212 J-76.105041
G03 X54.048115 Y73.929455 Z-0.100000 I-6.814183 J-74.455715
G03 X53.704614 Y73.795997 Z-0.100000 I-0.020225 J-0.456732
G03 X53.651479 Y73.548741 Z-0.100000 I0.164740 J-0.164740
G03 X54.133006 Y72.664861 Z-0.100000 I3.451176 J1.307055
G02 X54.751315 Y71.753029 Z-0.100000 I-11.151489 J-8.227326
G02 X54.795108 Y71.599614 Z-0.100000 I-0.246829 J-0.153416
G02 X54.753310 Y71.444383 Z-0.100000 I-0.309147 J0.000000
G02 X54.005570 Y70.239811 Z-0.100000 I-20.795680 J12.074581
G03 X53.446977 Y68.969949 Z-0.100000 I3.405985 J-2.256030
G03 X53.039671 Y66.356718 Z-0.100000 I14.409269 J-3.584227
G03 X53.072339 Y63.738392 Z-0.100000 I16.784529 J-1.099953
G03 X53.330369 Y63.149521 Z-0.100000 I1.009868 J0.091533
G02 X53.639607 Y62.236065 Z-0.100000 I-0.898700 J-0.813315
G02 X53.038798 Y59.632523 Z-0.100000 I-9.272715 J0.768732
G03 X53.120152 Y58.249804 Z-0.100000 I1.549566 J-0.602583
G03 X55.176552 Y55.609282 Z-0.100000 I8.572001 J4.554742
G01 X57.233889 Y53.746282 Z-0.100000
G01 X59.123352 Y53.590625 Z-0.100000
G03 X61.014810 Y53.476966 Z-0.100000 I3.507799 J42.579909
G03 X64.364822 Y53.392187 Z-0.100000 I5.055286 J133.528885
G01 X67.716823 Y53.349407 Z-0.100000
G01 X69.483412 Y55.267636 Z-0.100000
G00 Z0.100000

(End cutting path id: path3782)


(Start cutting path id: path3782)
(Change tool to Cylindrical cutter)

G00 Z0.100000
G00 X80.632781 Y64.792636

G01 Z-0.100000 F10000.0(Penetrate)
G02 X80.500606 Y66.976932 Z-0.100000 I63.240491 J4.922933 F400.000000
G02 X80.461273 Y68.761386 Z-0.100000 I42.160681 J1.821965
G02 X80.726862 Y70.280374 Z-0.100000 I4.453051 J0.004113
G02 X81.107317 Y70.547323 Z-0.100000 I0.380454 J-0.137635
G02 X84.359578 Y70.015070 Z-0.100000 I-0.000000 J-10.202369
G02 X86.635161 Y68.688194 Z-0.100000 I-2.077901 J-6.178331
G02 X86.975190 Y67.771815 Z-0.100000 I-0.701260 J-0.781483
G02 X85.998904 Y63.776829 Z-0.100000 I-18.434090 J2.388100
G02 X85.645198 Y63.406982 Z-0.100000 I-0.599358 J0.219142
G02 X83.937168 Y62.916933 Z-0.100000 I-2.961690 J7.101130
G02 X81.555060 Y63.341325 Z-0.100000 I-0.591143 J3.579496
G02 X80.632781 Y64.792636 Z-0.100000 I0.904548 J1.593522
G01 X80.632781 Y64.792636 Z-0.100000
G00 Z0.100000

(End cutting path id: path3782)


(Start cutting path id: path3782)
(Change tool to Cylindrical cutter)

G00 Z0.100000
G00 X107.038822 Y53.595398

G01 Z-0.100000 F10000.0(Penetrate)
G03 X107.584741 Y56.230756 Z-0.100000 I-3.344553 J2.067053 F400.000000
G03 X106.271816 Y58.846308 Z-0.100000 I-4.600544 J-0.672030
G03 X106.116056 Y58.901993 Z-0.100000 I-0.136709 J-0.136714
G03 X102.743214 Y58.496921 Z-0.100000 I8.034527 J-81.144250
G02 X99.356478 Y58.115256 Z-0.100000 I-8.473744 J59.975454
G02 X98.931441 Y58.175656 Z-0.100000 I-0.080717 J0.957699
G02 X97.721638 Y59.618235 Z-0.100000 I0.695168 J1.811578
G02 X98.291432 Y61.479762 Z-0.100000 I2.036778 J0.394531
G02 X98.467503 Y61.543079 Z-0.100000 I0.155248 J-0.155243
G02 X101.157523 Y61.206704 Z-0.100000 I-4.371324 J-45.882170
G03 X103.818265 Y60.961903 Z-0.100000 I3.299908 J21.284491
G03 X104.210392 Y61.116068 Z-0.100000 I0.015894 J0.535352
G03 X104.415413 Y61.503752 Z-0.100000 I-0.512182 J0.518914
G03 X104.607267 Y63.285080 Z-0.100000 I-11.969903 J2.190185
G01 X104.669063 Y65.123365 Z-0.100000
G01 X101.692500 Y65.198176 Z-0.100000
G02 X98.903655 Y65.456047 Z-0.100000 I0.524974 J20.886989
G02 X98.715938 Y65.676326 Z-0.100000 I0.035385 J0.220279
G02 X99.024602 Y67.900291 Z-0.100000 I8.166314 J-0.000000
G02 X99.537874 Y68.580369 Z-0.100000 I1.131515 J-0.320255
G02 X99.779033 Y68.619246 Z-0.100000 I0.167370 J-0.270806
G02 X102.976706 Y67.760996 Z-0.100000 I-13.555769 J-56.892269
G03 X106.143922 Y66.974805 Z-0.100000 I9.902774 J33.121151
G03 X106.456667 Y67.069720 Z-0.100000 I0.067560 J0.340100
G03 X107.899368 Y69.885869 Z-0.100000 I-3.644871 J3.644871
G03 X107.245612 Y71.913066 Z-0.100000 I-2.305419 J0.375533
G03 X106.918710 Y72.087407 Z-0.100000 I-0.449852 J-0.449852
G03 X100.967682 Y73.200329 Z-0.100000 I-60.902128 J-309.189358
G03 X95.050827 Y74.190957 Z-0.100000 I-55.730911 J-314.705770
G03 X94.357774 Y74.195359 Z-0.100000 I-0.361074 J-2.288303
G03 X93.485653 Y73.437326 Z-0.100000 I0.153013 J-1.056749
G03 X93.772889 Y72.188148 Z-0.100000 I1.261408 J-0.367564
G02 X94.085256 Y71.359296 Z-0.100000 I-0.896172 J-0.811024
G02 X93.691657 Y66.681536 Z-0.100000 I-33.944403 J0.500733
G03 X93.187765 Y63.269464 Z-0.100000 I261.436038 J-40.351849
G03 X93.162490 Y62.929218 Z-0.100000 I2.563179 J-0.361469
G02 X93.061103 Y62.626529 Z-0.100000 I-0.515520 J0.004350
G02 X91.949889 Y61.293778 Z-0.100000 I-12.228841 J9.066482
G01 X90.740087 Y60.000405 Z-0.100000
G01 X91.182316 Y57.137928 Z-0.100000
G03 X91.698088 Y54.311354 Z-0.100000 I52.191286 J8.063123
G03 X91.831974 Y54.055072 Z-0.100000 I0.523327 J0.110282
G03 X92.296029 Y53.838416 Z-0.100000 I0.504145 J0.474518
G03 X99.490162 Y53.521104 Z-0.100000 I15.043662 J259.359914
G03 X106.695274 Y53.404349 Z-0.100000 I7.767363 J256.959023
G03 X107.038822 Y53.595398 Z-0.100000 I0.000881 J0.402828
G01 X107.038822 Y53.595398 Z-0.100000
G00 Z0.100000

(End cutting path id: path3782)


(Start cutting path id: path3782)
(Change tool to Cylindrical cutter)

G00 Z0.100000
G00 X115.186250 Y53.255678

G01 Z-0.100000 F10000.0(Penetrate)
G03 X115.439144 Y53.544523 Z-0.100000 I-0.094388 J0.337771 F400.000000
G03 X115.649271 Y56.542237 Z-0.100000 I-21.277972 J2.997714
G02 X115.745425 Y59.601572 Z-0.100000 I48.717626 J-0.000000
G02 X115.847708 Y59.695967 Z-0.100000 I0.100538 J-0.006326
G02 X116.002979 Y59.614392 Z-0.100000 I-0.003307 J-0.194853
G02 X118.162813 Y56.455115 Z-0.100000 I-75.534652 J-53.957040
G03 X120.370536 Y53.354455 Z-0.100000 I40.141112 J26.244871
G03 X120.732163 Y53.133854 Z-0.100000 I0.469815 J0.363452
G03 X121.346709 Y53.185175 Z-0.100000 I0.213265 J1.151361
G03 X124.134129 Y54.299646 Z-0.100000 I-16.831402 J46.140301
G03 X126.852460 Y55.591057 Z-0.100000 I-18.446291 J42.334833
G03 X127.026354 Y55.876382 Z-0.100000 I-0.147132 J0.285324
G03 X126.901195 Y56.179729 Z-0.100000 I-0.430189 J-0.000000
G03 X124.512813 Y58.403861 Z-0.100000 I-30.171078 J-30.004727
G02 X122.103673 Y60.618481 Z-0.100000 I33.485163 J38.844000
G02 X121.999271 Y60.866960 Z-0.100000 I0.243493 J0.248479
G02 X122.111226 Y61.099785 Z-0.100000 I0.298072 J0.000000
G02 X123.471566 Y62.043896 Z-0.100000 I7.646019 J-9.564824
G03 X124.833043 Y63.019815 Z-0.100000 I-5.193510 J8.682953
G03 X125.177435 Y63.494773 Z-0.100000 I-0.804036 J0.945347
G03 X125.353734 Y64.081181 Z-0.100000 I-2.934610 J1.201972
G03 X125.963309 Y67.466407 Z-0.100000 I-98.155468 J19.422263
G03 X126.349801 Y70.822625 Z-0.100000 I-36.009751 J5.847140
G03 X126.220439 Y71.223442 Z-0.100000 I-0.565675 J0.038714
G03 X122.162790 Y74.623243 Z-0.100000 I-11.335694 J-9.407812
G03 X118.563773 Y75.574407 Z-0.100000 I-3.599017 J-6.333406
G03 X110.817127 Y74.982868 Z-0.100000 I0.000000 J-51.019865
G03 X109.079397 Y74.117442 Z-0.100000 I0.483667 J-3.148525
G03 X109.055254 Y74.022389 Z-0.100000 I0.065383 J-0.067199
G03 X109.264338 Y73.523015 Z-0.100000 I2.728063 J0.848761
G02 X109.376969 Y72.988491 Z-0.100000 I-0.860269 J-0.460398
G02 X108.995506 Y69.994625 Z-0.100000 I-29.698028 J2.262737
G01 X108.454150 Y66.975448 Z-0.100000
G01 X109.165723 Y60.097634 Z-0.100000
G03 X109.930359 Y53.237893 Z-0.100000 I433.640751 J44.864251
G03 X110.013971 Y52.998678 Z-0.100000 I0.583466 J0.069718
G03 X110.862013 Y52.553083 Z-0.100000 I0.801297 J0.495222
G03 X115.186250 Y53.255678 Z-0.100000 I-0.977556 J19.674945
G01 X115.186250 Y53.255678 Z-0.100000
G00 Z0.100000

(End cutting path id: path3782)


(Start cutting path id: path3782)
(Change tool to Cylindrical cutter)

G00 Z0.100000
G00 X115.577572 Y63.828050

G01 Z-0.100000 F10000.0(Penetrate)
G02 X115.410395 Y64.209874 Z-0.100000 I0.404705 J0.404705 F400.000000
G02 X115.379008 Y67.048931 Z-0.100000 I49.032655 J1.961775
G02 X115.515967 Y69.859055 Z-0.100000 I45.642291 J-0.816100
G02 X115.688252 Y70.018157 Z-0.100000 I0.172285 J-0.013729
G02 X117.607771 Y69.679465 Z-0.100000 I-0.000000 J-5.608727
G02 X119.567472 Y68.605213 Z-0.100000 I-2.523329 J-6.927796
G02 X119.739506 Y68.238713 Z-0.100000 I-0.267390 J-0.349138
G02 X119.437459 Y65.314632 Z-0.100000 I-23.165870 J0.915314
G02 X119.173246 Y64.533474 Z-0.100000 I-2.555757 J0.429178
G02 X118.859627 Y64.220617 Z-0.100000 I-0.661283 J0.349273
G02 X116.532599 Y63.497537 Z-0.100000 I-3.125464 J5.952435
G02 X115.577572 Y63.828050 Z-0.100000 I-0.137334 J1.148216
G01 X115.577572 Y63.828050 Z-0.100000
G00 Z0.100000

(End cutting path id: path3782)


(Start cutting path id: path3782)
(Change tool to Cylindrical cutter)

G00 Z0.100000
G00 X60.411490 Y34.630136

G01 Z-0.100000 F10000.0(Penetrate)
G02 X59.637492 Y37.467613 Z-0.100000 I2.815948 J2.292428 F400.000000
G02 X61.476784 Y41.646709 Z-0.100000 I8.652026 J-1.313606
G02 X62.450045 Y42.069162 Z-0.100000 I0.889654 J-0.717273
G02 X63.848326 Y41.472740 Z-0.100000 I-0.171633 J-2.339697
G02 X64.805111 Y39.839557 Z-0.100000 I-2.090959 J-2.321821
G02 X65.378438 Y34.700775 Z-0.100000 I-22.743004 J-5.138782
G02 X65.194777 Y34.483068 Z-0.100000 I-0.220863 J0.000000
G02 X63.029584 Y34.299407 Z-0.100000 I-2.165193 J12.671019
G02 X60.748940 Y34.442888 Z-0.100000 I0.000000 J18.197295
G02 X60.411490 Y34.630136 Z-0.100000 I0.065047 J0.514919
G01 X60.411490 Y34.630136 Z-0.100000
G00 Z0.100000

(End cutting path id: path3782)


(Start cutting path id: path3782)
(Change tool to Cylindrical cutter)

G00 Z0.100000
G00 X58.067564 Y22.591595

G01 Z-0.100000 F10000.0(Penetrate)
G03 X58.176605 Y23.059921 Z-0.100000 I-4.515396 J1.298182 F400.000000
G03 X58.518147 Y25.102514 Z-0.100000 I-85.770135 J15.391466
G02 X58.937965 Y27.090500 Z-0.100000 I18.488780 J-2.866090
G02 X59.130462 Y27.381823 Z-0.100000 I0.533651 J-0.143361
G02 X59.460073 Y27.531423 Z-0.100000 I0.471316 J-0.600531
G02 X62.946473 Y28.102696 Z-0.100000 I13.499054 J-71.458686
G02 X66.385013 Y28.416450 Z-0.100000 I5.045641 J-36.297984
G02 X66.669145 Y28.266108 Z-0.100000 I0.013930 J-0.317336
G02 X66.813723 Y27.917988 Z-0.100000 I-1.006753 J-0.622200
G02 X67.340080 Y25.447698 Z-0.100000 I-51.690716 J-12.305218
G03 X67.877377 Y23.041738 Z-0.100000 I36.112065 J6.801541
G03 X68.379199 Y22.408937 Z-0.100000 I0.964772 J0.249703
G03 X69.231921 Y22.262873 Z-0.100000 I0.651653 J1.242222
G03 X72.412317 Y22.786873 Z-0.100000 I-11.871934 J81.969839
G03 X76.308723 Y23.615502 Z-0.100000 I-13.512475 J73.113977
G03 X76.679570 Y23.814578 Z-0.100000 I-0.194357 J0.807010
G03 X76.773566 Y24.169305 Z-0.100000 I-0.234165 J0.251866
G03 X72.834957 Y36.080270 Z-0.100000 I-383.516911 J-120.211191
G03 X68.595597 Y48.001293 Z-0.100000 I-889.941033 J-309.767017
G03 X68.385174 Y48.331838 Z-0.100000 I-0.849511 J-0.308544
G03 X67.881910 Y48.579597 Z-0.100000 I-0.615758 J-0.615758
G03 X62.347819 Y49.202252 Z-0.100000 I-20.552016 J-157.759440
G03 X56.785898 Y49.630365 Z-0.100000 I-14.861346 J-156.730788
G03 X56.367481 Y49.471367 Z-0.100000 I-0.032258 J-0.545157
G03 X56.158350 Y49.128325 Z-0.100000 I0.602695 J-0.602695
G03 X54.220446 Y42.758483 Z-0.100000 I222.959820 J-71.311005
G01 X52.366749 Y36.338935 Z-0.100000
G01 X53.737333 Y29.564482 Z-0.100000
G03 X55.256098 Y22.881619 Z-0.100000 I140.867482 J28.499898
G03 X55.531247 Y22.459303 Z-0.100000 I0.753775 J0.190313
G03 X57.227713 Y21.924195 Z-0.100000 I1.564129 J2.002067
G03 X58.067564 Y22.591595 Z-0.100000 I-0.048127 J0.922693
G01 X58.067564 Y22.591595 Z-0.100000
G00 Z0.100000

(End cutting path id: path3782)


(Start cutting path id: path3782)
(Change tool to Cylindrical cutter)

G00 Z0.100000
G00 X51.664142 Y24.532837

G01 Z-0.100000 F10000.0(Penetrate)
G03 X50.244700 Y32.897978 Z-0.100000 I-136.826947 J-18.914533 F400.000000
G03 X46.999038 Y47.688813 Z-0.100000 I-431.266955 J-86.884563
G03 X46.680241 Y48.039204 Z-0.100000 I-0.476315 J-0.113146
G03 X44.414755 Y48.567002 Z-0.100000 I-3.798202 J-11.177135
G02 X41.968439 Y48.915426 Z-0.100000 I14.234099 J108.701277
G02 X41.525230 Y49.011831 Z-0.100000 I0.562039 J3.650899
G03 X41.195267 Y48.886678 Z-0.100000 I-0.080609 J-0.285023
G03 X38.884151 Y44.892496 Z-0.100000 I42.637170 J-27.336457
G02 X36.729308 Y41.008879 Z-0.100000 I-71.454655 J37.107329
G02 X36.100875 Y40.672495 Z-0.100000 I-0.591535 J0.349894
G02 X35.529076 Y41.079978 Z-0.100000 I0.035179 J0.654294
G02 X34.007370 Y45.154703 Z-0.100000 I69.982950 J28.456639
G03 X32.303216 Y49.468540 Z-0.100000 I-46.124814 J-15.727788
G03 X31.925310 Y49.769420 Z-0.100000 I-0.481800 J-0.217378
G03 X27.464349 Y50.431281 Z-0.100000 I-8.770712 J-43.750423
G03 X27.014089 Y50.246006 Z-0.100000 I-0.050235 J-0.517673
G03 X26.857926 Y49.991352 Z-0.100000 I0.804783 J-0.668729
G03 X22.071625 Y38.828185 Z-0.100000 I3080.433627 J-1327.369611
G03 X17.346041 Y27.695843 Z-0.100000 I3090.857943 J-1318.611716
G03 X17.178444 Y27.191016 Z-0.100000 I3.100597 J-1.309597
G03 X17.329883 Y26.862716 Z-0.100000 I0.281371 J-0.069287
G03 X21.269633 Y25.018574 Z-0.100000 I35.901079 J71.567152
G03 X25.282161 Y23.401910 Z-0.100000 I31.268337 J71.819575
G03 X25.575904 Y23.534985 Z-0.100000 I0.079714 J0.214777
G03 X25.685423 Y23.851845 Z-0.100000 I-4.913156 J1.875543
G03 X27.766910 Y30.595241 Z-0.100000 I-2226.243578 J690.868583
G02 X30.083065 Y37.010910 Z-0.100000 I67.143049 J-20.613747
G02 X30.580002 Y37.342116 Z-0.100000 I0.496937 J-0.207197
G02 X31.158790 Y37.064465 Z-0.100000 I-0.000000 J-0.742092
G02 X33.021588 Y34.299407 Z-0.100000 I-15.612117 J-12.527767
G03 X34.750452 Y31.278397 Z-0.100000 I147.334172 J82.311234
G03 X34.928548 Y31.045493 Z-0.100000 I1.033150 J0.605479
G03 X35.125264 Y31.047638 Z-0.100000 I0.097329 J0.095433
G03 X37.598273 Y33.889763 Z-0.100000 I-36.448767 J34.212028
G02 X40.181620 Y36.692912 Z-0.100000 I22.419128 J-18.069223
G02 X40.813424 Y36.945241 Z-0.100000 I0.631804 J-0.664821
G02 X41.333469 Y36.710785 Z-0.100000 I0.000000 J-0.693983
G02 X41.573254 Y36.085345 Z-0.100000 I-0.717021 J-0.633581
G03 X41.601453 Y35.226208 Z-0.100000 I17.683232 J0.150369
G03 X41.962814 Y29.272324 Z-0.100000 I850.351220 J48.622677
G02 X42.328516 Y23.318581 Z-0.100000 I-1073.111034 J-68.902833
G02 X42.352373 Y22.629113 Z-0.100000 I-14.357981 J-0.841958
G01 X42.359675 Y21.939027 Z-0.100000
G01 X47.056029 Y22.916710 Z-0.100000
G03 X51.418216 Y24.129991 Z-0.100000 I-6.992622 J33.589473
G03 X51.664129 Y24.532837 Z-0.100000 I-0.123380 J0.351797
G01 X51.664142 Y24.532837 Z-0.100000
G00 Z0.100000

(End cutting path id: path3782)


(Start cutting path id: path3782)
(Change tool to Cylindrical cutter)

G00 Z0.100000
G00 X48.243932 Y53.944719

G01 Z-0.100000 F10000.0(Penetrate)
G03 X48.578772 Y54.349025 Z-0.100000 I-0.726137 J0.942182 F400.000000
G03 X50.276924 Y57.954856 Z-0.100000 I-61.159062 J31.005420
G03 X51.636858 Y61.599868 Z-0.100000 I-33.056857 J14.409525
G03 X51.552007 Y62.031616 Z-0.100000 I-0.440237 J0.137693
G03 X51.176270 Y62.376472 Z-0.100000 I-1.438687 J-1.190397
G03 X46.653389 Y65.423233 Z-0.100000 I-121.534801 J-175.536517
G02 X42.174408 Y68.490764 Z-0.100000 I72.702897 J110.959084
G02 X41.938173 Y68.796335 Z-0.100000 I0.390692 J0.546143
G02 X42.086454 Y70.567932 Z-0.100000 I1.908298 J0.732281
G02 X43.440885 Y71.341073 Z-0.100000 I1.354431 J-0.799811
G02 X43.699127 Y71.267815 Z-0.100000 I-0.000000 J-0.491795
G02 X46.442582 Y69.488990 Z-0.100000 I-38.314830 J-62.097393
G03 X49.185280 Y67.707689 Z-0.100000 I42.512853 J62.455578
G03 X49.434073 Y67.636907 Z-0.100000 I0.248792 J0.401850
G03 X51.434954 Y68.615803 Z-0.100000 I0.000000 J2.534366
G03 X52.413855 Y71.469963 Z-0.100000 I-3.671452 J2.854160
G03 X52.293569 Y71.734114 Z-0.100000 I-0.350185 J-0.000000
G03 X49.413906 Y74.080911 Z-0.100000 I-37.659362 J-43.270181
G03 X46.319697 Y76.089059 Z-0.100000 I-14.779642 J-19.384970
G03 X45.226526 Y76.368157 Z-0.100000 I-1.093172 J-2.001325
G03 X40.822946 Y76.175294 Z-0.100000 I0.000000 J-50.369202
G03 X37.726689 Y75.709961 Z-0.100000 I2.222019 J-25.318671
G03 X37.321875 Y75.456613 Z-0.100000 I0.146356 J-0.683947
G03 X35.081177 Y72.440238 Z-0.100000 I60.946392 J-47.614137
G03 X32.993441 Y69.326595 Z-0.100000 I63.943956 J-45.131961
G03 X32.834205 Y68.778182 Z-0.100000 I0.859375 J-0.546851
G03 X32.963463 Y68.536858 Z-0.100000 I0.290734 J0.000446
G03 X37.984102 Y65.338598 Z-0.100000 I76.349625 J114.314055
G02 X42.966675 Y62.116446 Z-0.100000 I-54.028382 J-89.010204
G02 X43.143477 Y61.789626 Z-0.100000 I-0.231415 J-0.336424
G02 X42.522659 Y59.811291 Z-0.100000 I-3.221184 J-0.075741
G02 X41.233550 Y59.179281 Z-0.100000 I-1.246681 J0.912152
G02 X40.940512 Y59.282357 Z-0.100000 I0.013955 J0.507755
G02 X38.265815 Y61.430631 Z-0.100000 I37.442300 J49.356538
G03 X35.601285 Y63.547081 Z-0.100000 I-33.278924 J-39.161390
G03 X35.355398 Y63.589189 Z-0.100000 I-0.164542 J-0.221854
G03 X34.985062 Y63.339395 Z-0.100000 I0.226647 J-0.735438
G03 X33.400371 Y61.277304 Z-0.100000 I36.435896 J-29.640467
G03 X31.933449 Y59.125706 Z-0.100000 I36.167746 J-26.234411
G03 X31.931436 Y58.868785 Z-0.100000 I0.203249 J-0.130061
G03 X32.129360 Y58.632404 Z-0.100000 I0.916809 J0.566602
G03 X35.014429 Y56.108675 Z-0.100000 I111.136109 J124.137342
G01 X37.933381 Y53.613990 Z-0.100000
G01 X42.874091 Y53.613990 Z-0.100000
G03 X47.763557 Y53.764419 Z-0.100000 I0.000000 J79.537664
G03 X48.243932 Y53.944719 Z-0.100000 I-0.053793 J0.873402
G01 X48.243932 Y53.944719 Z-0.100000
G00 Z0.100000

(End cutting path id: path3782)


(Footer)
M5
G00 X0.0000 Y0.0000
M2
(Using default footer. To add your own footer create file "footer" in the output dir.)
(end)
%
