%
(Header)
(Generated by gcodetools from Inkscape.)
(Using default header. To add your own header create file "header" in the output dir.)
M3
(Header end.)
G21 (All units in mm)

(Start cutting path id: path3782)
(Change tool to Cylindrical cutter)

G00 Z0.100000
G00 X475.231370 Y40.926097

G01 Z-0.100000 F10000.0(Penetrate)
G03 X472.425581 Y42.145566 Z-0.100000 I-9.207810 J-17.348037 F400.000000
G03 X451.731370 Y49.028817 Z-0.100000 I-325.321028 J-943.514509
G02 X431.138414 Y56.004645 Z-0.100000 I201.898117 J629.895834
G02 X429.813280 Y56.857407 Z-0.100000 I1.168680 J3.272016
G02 X428.947575 Y58.183337 Z-0.100000 I2.980743 J2.891715
G02 X425.984620 Y66.262757 Z-0.100000 I113.597590 J46.242506
G03 X422.682735 Y74.741989 Z-0.100000 I-78.753246 J-25.784669
G03 X421.574593 Y75.054461 Z-0.100000 I-0.685965 J-0.311510
G03 X420.562286 Y73.593133 Z-0.100000 I1.376956 J-2.035153
G03 X417.836410 Y60.749787 Z-0.100000 I240.297605 J-57.711797
G02 X415.376020 Y48.362847 Z-0.100000 I-459.773285 J84.885904
G02 X415.089360 Y47.834987 Z-0.100000 I-1.034542 J0.220053
G02 X414.270810 Y47.454347 Z-0.100000 I-0.930445 J0.930431
G02 X395.282665 Y45.996320 Z-0.100000 I-95.219116 J1115.683479
G02 X376.290917 Y44.861986 Z-0.100000 I-76.415968 J1119.852583
G02 X375.288950 Y45.119107 Z-0.100000 I-0.088856 J1.734569
G02 X374.800968 Y45.840095 Z-0.100000 I0.558448 J0.903603
G02 X374.444200 Y49.959727 Z-0.100000 I23.606453 J4.119632
G03 X373.971661 Y54.054736 Z-0.100000 I-17.979893 J0.000000
G03 X373.194200 Y55.303847 Z-0.100000 I-2.230334 J-0.521680
G03 X371.839586 Y55.545715 Z-0.100000 I-0.893298 J-1.088750
G03 X357.629070 Y49.907527 Z-0.100000 I56.944706 J-164.250925
G02 X343.346606 Y43.980324 Z-0.100000 I-111.732963 J249.065518
G02 X342.363030 Y44.073317 Z-0.100000 I-0.397777 J1.040840
G02 X341.557518 Y44.812361 Z-0.100000 I1.531091 J2.477295
G02 X336.397690 Y52.092087 Z-0.100000 I155.672410 J115.808206
G03 X331.672315 Y58.322364 Z-0.100000 I-58.655966 J-39.580689
G03 X330.163190 Y59.321960 Z-0.100000 I-2.482212 J-2.108498
G03 X329.143835 Y58.804809 Z-0.100000 I-0.244562 J-0.781144
G03 X328.444200 Y54.582177 Z-0.100000 I12.392983 J-4.222632
G02 X328.028467 Y49.872981 Z-0.100000 I-26.879489 J-0.000000
G02 X327.456310 Y49.030647 Z-0.100000 I-1.227771 J0.218481
G02 X326.388765 Y48.657697 Z-0.100000 I-1.377622 J2.228989
G02 X307.206310 Y46.617407 Z-0.100000 I-90.241553 J757.240227
G02 X287.061478 Y46.356443 Z-0.100000 I-11.692587 J124.937103
G02 X285.444200 Y48.086587 Z-0.100000 I0.116804 J1.730144
G03 X285.166667 Y49.250386 Z-0.100000 I-2.578892 J0.000000
G03 X284.474270 Y50.004577 Z-0.100000 I-1.685224 J-0.852219
G03 X283.433674 Y50.220176 Z-0.100000 I-0.816283 J-1.320784
G03 X267.335540 Y47.502317 Z-0.100000 I52.942250 J-362.616268
G02 X251.338588 Y44.960138 Z-0.100000 I-47.789704 J249.119755
G02 X250.226450 Y45.340907 Z-0.100000 I-0.167447 J1.325460
G02 X249.582587 Y46.442764 Z-0.100000 I1.778019 J1.778019
G02 X246.972920 Y56.994437 Z-0.100000 I175.691197 J49.050967
G03 X244.359992 Y67.544326 Z-0.100000 I-176.329941 J-38.073727
G03 X243.707850 Y68.659507 Z-0.100000 I-2.454280 J-0.686956
G03 X242.568129 Y69.103938 Z-0.100000 I-1.076157 J-1.076157
G03 X236.050336 Y68.541800 Z-0.100000 I3.087913 J-73.870068
G03 X229.618459 Y67.420711 Z-0.100000 I10.034623 J-76.581294
G03 X228.147700 Y66.620627 Z-0.100000 I0.638340 J-2.925290
G03 X227.630151 Y65.685958 Z-0.100000 I1.345317 J-1.355559
G03 X225.618580 Y55.426657 Z-0.100000 I178.369193 J-40.300222
G02 X223.118769 Y45.806917 Z-0.100000 I-55.022553 J9.163629
G02 X221.789600 Y44.719927 Z-0.100000 I-1.567485 J0.560570
G02 X219.699942 Y44.720014 Z-0.100000 I-1.044529 J7.221141
G02 X206.318720 Y46.959077 Z-0.100000 I44.056750 J304.398917
G01 X192.944200 Y49.501457 Z-0.100000
G01 X173.944200 Y45.406277 Z-0.100000
G02 X149.844757 Y41.268449 Z-0.100000 I-60.990782 J282.972493
G02 X148.855060 Y42.182527 Z-0.100000 I-0.111990 J0.871571
G03 X148.803470 Y57.027848 Z-0.100000 I-143.007016 J6.925779
G03 X146.772590 Y79.773157 Z-0.100000 I-338.258939 J-18.739100
G03 X145.696714 Y83.969185 Z-0.100000 I-16.808561 J-2.073829
G03 X144.879600 Y84.523157 Z-0.100000 I-0.817114 J-0.325640
G03 X143.787699 Y84.069764 Z-0.100000 I0.000000 J-1.541500
G03 X137.619720 Y77.237967 Z-0.100000 I66.177090 J-65.947171
G02 X131.192613 Y69.630023 Z-0.100000 I-235.673342 J192.575450
G02 X129.377167 Y68.679482 Z-0.100000 I-2.130772 J1.860642
G02 X127.755190 Y69.458933 Z-0.100000 I-0.188915 J1.684212
G02 X124.075890 Y75.718777 Z-0.100000 I96.618515 J60.999923
G03 X116.841611 Y86.863099 Z-0.100000 I-76.620821 J-41.817802
G03 X115.496770 Y86.958417 Z-0.100000 I-0.714450 J-0.545333
G03 X114.713744 Y85.712345 Z-0.100000 I2.240648 J-2.277074
G03 X108.169832 Y65.470257 Z-0.100000 I631.791183 J-215.425826
G02 X101.371265 Y45.662861 Z-0.100000 I-295.501720 J90.355719
G02 X100.253892 Y44.725027 Z-0.100000 I-1.400930 J0.534566
G02 X98.632319 Y44.868438 Z-0.100000 I-0.559974 J2.907689
G02 X75.263512 Y54.322377 Z-0.100000 I254.571157 J662.873241
G03 X51.923333 Y64.187545 Z-0.100000 I-2171.368277 J-5104.736351
G03 X50.194202 Y64.850967 Z-0.100000 I-11.473357 J-27.318847
G02 X48.829463 Y66.408748 Z-0.100000 I0.689900 J1.981106
G02 X48.292717 Y72.713605 Z-0.100000 I26.263292 J5.411128
G02 X49.029406 Y79.202347 Z-0.100000 I40.982376 J-1.366681
G02 X50.860632 Y84.835087 Z-0.100000 I23.969430 J-4.678515
G03 X53.200953 Y90.057119 Z-0.100000 I-178.102818 J82.954529
G03 X72.911782 Y136.023157 Z-0.100000 I-13785.237384 J5938.496321
G02 X92.826063 Y181.835358 Z-0.100000 I3468.324588 J-1480.424876
G02 X93.858522 Y183.350627 Z-0.100000 I4.646051 J-2.056303
G02 X95.407152 Y183.979512 Z-0.100000 I1.506799 J-1.489302
G02 X106.517212 Y183.100627 Z-0.100000 I-1.859727 J-94.170049
G03 X117.867389 Y181.574064 Z-0.100000 I177.382543 J1275.902258
G03 X118.654030 Y181.523157 Z-0.100000 I0.786641 J6.052301
G03 X119.368470 Y182.692134 Z-0.100000 I0.000000 J0.802810
G03 X115.444200 Y187.785937 Z-0.100000 I-15.738257 J-8.066235
G01 X111.444200 Y191.376817 Z-0.100000
G01 X111.444200 Y199.577677 Z-0.100000
G01 X111.444200 Y207.778527 Z-0.100000
G01 X116.644850 Y214.793827 Z-0.100000
G01 X121.845510 Y221.809127 Z-0.100000
G01 X118.144810 Y224.916137 Z-0.100000
G02 X115.632551 Y228.577133 Z-0.100000 I5.333177 J6.352229
G02 X114.444150 Y235.704227 Z-0.100000 I20.776446 J7.126979
G01 X114.444200 Y243.385287 Z-0.100000
G01 X124.274700 Y258.204227 Z-0.100000
G02 X134.295676 Y272.847996 Z-0.100000 I513.364647 J-340.553384
G02 X135.524700 Y274.146407 Z-0.100000 I5.109829 J-3.605879
G02 X137.109388 Y274.864129 Z-0.100000 I2.232928 J-2.821864
G02 X147.944200 Y276.420907 Z-0.100000 I25.664042 J-140.133456
G03 X158.938931 Y277.618067 Z-0.100000 I-137.723946 J1315.944724
G03 X166.674830 Y278.539627 Z-0.100000 I-73.808848 J652.507160
G01 X174.405470 Y279.507107 Z-0.100000
G01 X183.165460 Y272.515127 Z-0.100000
G03 X192.028327 Y265.816931 Z-0.100000 I131.037739 J164.172849
G03 X192.944280 Y265.523157 Z-0.100000 I0.915953 J1.281031
G03 X193.791798 Y265.832129 Z-0.100000 I0.000000 J1.316869
G03 X195.089790 Y267.327267 Z-0.100000 I-4.082899 J4.855525
G02 X196.676684 Y268.205895 Z-0.100000 I1.584608 J-0.989607
G02 X216.580340 Y267.300967 Z-0.100000 I-0.275785 J-225.406214
G02 X236.911006 Y265.318472 Z-0.100000 I-120.925636 J-1345.340946
G02 X238.194200 Y265.028237 Z-0.100000 I-0.585940 J-5.572337
G02 X238.978722 Y264.256872 Z-0.100000 I-0.433734 J-1.225767
G02 X239.444200 Y261.676987 Z-0.100000 I-6.916696 J-2.579885
G03 X239.894742 Y258.979618 Z-0.100000 I8.299757 J-0.000000
G03 X240.842710 Y257.607387 Z-0.100000 I2.919443 J1.003261
G03 X242.420478 Y256.859275 Z-0.100000 I2.254001 J2.715874
G03 X255.398300 Y254.765877 Z-0.100000 I38.325804 J196.323132
G03 X265.745891 Y253.668048 Z-0.100000 I30.862125 J241.576418
G03 X268.460325 Y253.985993 Z-0.100000 I0.576728 J6.822331
G03 X269.927589 Y255.575781 Z-0.100000 I-0.694411 J2.112879
G03 X270.428890 Y259.705767 Z-0.100000 I-17.374402 J4.204335
G02 X271.082117 Y262.908738 Z-0.100000 I8.350022 J-0.034841
G02 X272.194200 Y263.902087 Z-0.100000 I1.601438 J-0.673677
G02 X273.964600 Y264.329976 Z-0.100000 I5.302670 J-18.063424
G02 X296.661730 Y268.575957 Z-0.100000 I567.742631 J-2972.112939
G01 X319.379270 Y272.736107 Z-0.100000
G01 X327.161730 Y268.706647 Z-0.100000
G02 X334.924153 Y264.639726 Z-0.100000 I-415.659110 J-802.798755
G02 X339.084120 Y262.386367 Z-0.100000 I-123.372739 J-232.727261
G03 X342.681509 Y260.968209 Z-0.100000 I7.226756 J13.060080
G03 X344.426111 Y261.129781 Z-0.100000 I0.642435 J2.562798
G03 X345.673136 Y262.348884 Z-0.100000 I-1.079262 J2.351326
G03 X346.866060 Y265.958297 Z-0.100000 I-12.815516 J6.237413
G02 X347.824583 Y269.127839 Z-0.100000 I15.064474 J-2.826044
G02 X348.720660 Y270.321697 Z-0.100000 I2.866730 J-1.218473
G02 X350.101052 Y270.719511 Z-0.100000 I1.154978 J-1.413860
G02 X371.944200 Y267.432147 Z-0.100000 I-53.294310 J-428.331113
G03 X397.171652 Y264.318022 Z-0.100000 I42.445833 J240.112128
G03 X398.943460 Y265.520827 Z-0.100000 I0.122212 J1.726368
G02 X399.968217 Y267.090691 Z-0.100000 I3.337689 J-1.059341
G02 X401.760850 Y267.999307 Z-0.100000 I2.658113 J-3.021586
G02 X432.845487 Y273.592811 Z-0.100000 I87.740717 J-398.429593
G02 X447.700390 Y274.441417 Z-0.100000 I12.574075 J-89.667633
G02 X450.743717 Y273.673811 Z-0.100000 I-0.179585 J-7.128741
G02 X466.944200 Y264.691417 Z-0.100000 I-112.263698 J-221.577411
G01 X482.944200 Y255.023157 Z-0.100000
G01 X483.241020 Y250.468217 Z-0.100000
G02 X483.122380 Y245.933208 Z-0.100000 I-24.844945 J-1.619094
G02 X480.491020 Y227.148837 Z-0.100000 I-432.253899 J50.974696
G03 X477.591124 Y208.372531 Z-0.100000 I1212.520696 J-196.879163
G03 X477.444200 Y206.356527 Z-0.100000 I13.757740 J-2.016004
G03 X478.041657 Y204.594937 Z-0.100000 I2.895736 J-0.000000
G03 X482.444200 Y199.833237 Z-0.100000 I27.933795 J21.410768
G01 X487.444200 Y195.337807 Z-0.100000
G01 X487.444200 Y187.029257 Z-0.100000
G01 X487.444200 Y178.720697 Z-0.100000
G01 X483.731980 Y176.530437 Z-0.100000
G03 X481.490672 Y174.573839 Z-0.100000 I4.117559 J-6.978736
G03 X481.698692 Y173.574920 Z-0.100000 I0.522148 J-0.412384
G03 X483.665732 Y172.906863 Z-0.100000 I2.998343 J5.598465
G03 X492.944200 Y171.596697 Z-0.100000 I33.323358 J202.483017
G02 X502.934814 Y170.351979 Z-0.100000 I-90.667178 J-768.448799
G02 X506.201750 Y169.857287 Z-0.100000 I-10.840330 J-82.623960
G02 X508.848442 Y168.331152 Z-0.100000 I-0.748174 J-4.355592
G02 X524.701750 Y147.660437 Z-0.100000 I-246.813909 J-205.707432
G01 X539.944200 Y126.023147 Z-0.100000
G01 X539.837360 Y119.023147 Z-0.100000
G02 X539.085017 Y112.179810 Z-0.100000 I-36.577746 J0.558262
G02 X533.778860 Y88.396731 Z-0.100000 I-756.370736 J156.267686
G02 X527.553307 Y64.258280 Z-0.100000 I-707.924431 J169.708889
G02 X526.135850 Y61.868607 Z-0.100000 I-5.096873 J1.408033
G02 X524.795344 Y60.932615 Z-0.100000 I-3.569626 J3.684418
G02 X504.444200 Y51.403467 Z-0.100000 I-421.090368 J872.815071
G03 X484.080586 Y41.926114 Z-0.100000 I500.988277 J-1103.069578
G03 X483.434180 Y41.387287 Z-0.100000 I0.731826 J-1.535085
G02 X480.484722 Y39.773940 Z-0.100000 I-3.168959 J2.290653
G02 X475.231370 Y40.926087 Z-0.100000 I-0.561761 J9.991307
G01 X475.231370 Y40.926097 Z-0.100000
G00 Z0.100000

(End cutting path id: path3782)


(Start cutting path id: path3782)
(Change tool to Cylindrical cutter)

G00 Z0.100000
G00 X498.895270 Y70.148547

G01 Z-0.100000 F10000.0(Penetrate)
G03 X517.793247 Y79.000420 Z-0.100000 I-334.399720 J738.512924 F400.000000
G03 X519.277390 Y80.017457 Z-0.100000 I-2.626066 J5.423579
G03 X520.197487 Y81.504671 Z-0.100000 I-2.267533 J2.431084
G03 X525.959590 Y102.584507 Z-0.100000 I-497.747150 J147.384971
G03 X530.551736 Y123.816413 Z-0.100000 I-321.500432 J80.648343
G03 X530.219800 Y125.965597 Z-0.100000 I-3.268109 J0.595473
G03 X528.501628 Y128.784952 Z-0.100000 I-24.088870 J-12.747016
G03 X517.164637 Y144.882503 Z-0.100000 I-1428.246205 J-993.827285
G03 X505.407229 Y161.173207 Z-0.100000 I-1382.773948 J-985.594376
G03 X504.578240 Y161.940317 Z-0.100000 I-2.376320 J-1.736521
G03 X502.980052 Y162.510514 Z-0.100000 I-2.130988 J-3.448025
G03 X478.761266 Y165.532746 Z-0.100000 I-208.864477 J-1575.194419
G03 X454.403502 Y168.191107 Z-0.100000 I-183.482490 J-1568.274453
G03 X453.307690 Y167.938787 Z-0.100000 I-0.176267 J-1.740170
G03 X452.377659 Y167.127849 Z-0.100000 I1.992423 J-3.223801
G03 X443.228827 Y155.863963 Z-0.100000 I697.435695 J-575.823497
G03 X434.524843 Y144.804910 Z-0.100000 I749.227917 J-598.631594
G03 X432.201650 Y141.523157 Z-0.100000 I36.589795 J-28.365555
G03 X431.178515 Y139.118497 Z-0.100000 I6.480122 J-4.177152
G03 X428.224938 Y125.419945 Z-0.100000 I347.654070 J-82.126203
G03 X425.836961 Y111.897654 Z-0.100000 I375.381465 J-73.262725
G03 X425.444200 Y106.899527 Z-0.100000 I31.605724 J-4.998127
G03 X425.784645 Y104.531254 Z-0.100000 I8.407553 J-0.000000
G03 X429.616976 Y92.214392 Z-0.100000 I384.363598 J112.838211
G03 X433.766594 Y80.213372 Z-0.100000 I398.063360 J130.921302
G03 X435.404870 Y76.614317 Z-0.100000 I23.518540 J8.533148
G03 X436.491333 Y75.673826 Z-0.100000 I1.827459 J1.013305
G03 X455.703700 Y68.680321 Z-0.100000 I270.576046 J713.432531
G03 X474.768360 Y62.299239 Z-0.100000 I260.415093 J746.368026
G03 X478.395270 Y61.614547 Z-0.100000 I4.567213 J14.244704
G03 X479.786958 Y61.847378 Z-0.100000 I0.195737 J3.105675
G03 X498.895270 Y70.148547 Z-0.100000 I-260.756772 J626.374491
G01 X498.895270 Y70.148547 Z-0.100000
G00 Z0.100000

(End cutting path id: path3782)


(Start cutting path id: path3782)
(Change tool to Cylindrical cutter)

G00 Z0.100000
G00 X465.384240 Y104.773157

G01 Z-0.100000 F10000.0(Penetrate)
G02 X457.767190 Y113.133218 Z-0.100000 I174.840193 J166.951095 F400.000000
G02 X457.475340 Y113.872277 Z-0.100000 I0.900599 J0.782797
G02 X457.659720 Y114.666900 Z-0.100000 I1.558537 J0.057067
G02 X462.976910 Y124.122277 Z-0.100000 I242.964793 J-130.407438
G02 X468.886595 Y132.858331 Z-0.100000 I72.401623 J-42.610692
G02 X470.226910 Y133.510737 Z-0.100000 I1.328182 J-1.025655
G02 X472.967212 Y133.164913 Z-0.100000 I-0.084569 J-11.700085
G02 X481.255563 Y130.900313 Z-0.100000 I-45.349530 J-182.277440
G02 X489.598191 Y128.183029 Z-0.100000 I-49.552208 J-166.301008
G02 X490.471850 Y127.478427 Z-0.100000 I-0.563787 J-1.592997
G02 X491.070413 Y125.863429 Z-0.100000 I-3.712271 J-2.294293
G02 X492.308126 Y116.762522 Z-0.100000 I-214.766110 J-33.842553
G02 X493.160361 Y107.548909 Z-0.100000 I-210.758907 J-24.140880
G02 X492.883390 Y106.424767 Z-0.100000 I-1.881169 J-0.132700
G02 X492.153845 Y105.727058 Z-0.100000 I-1.707842 J1.055499
G02 X483.617777 Y101.123682 Z-0.100000 I-164.230655 J294.317947
G02 X474.968310 Y96.774737 Z-0.100000 I-156.296270 J300.076506
G02 X473.873080 Y96.523157 Z-0.100000 I-1.095230 J2.258200
G02 X473.352412 Y96.734486 Z-0.100000 I0.000000 J0.747069
G02 X465.384240 Y104.773157 Z-0.100000 I211.249645 J217.365478
G01 X465.384240 Y104.773157 Z-0.100000
G00 Z0.100000

(End cutting path id: path3782)


(Start cutting path id: path3782)
(Change tool to Cylindrical cutter)

G00 Z0.100000
G00 X401.751550 Y67.087617

G01 Z-0.100000 F10000.0(Penetrate)
G03 X407.958790 Y68.472831 Z-0.100000 I-2.168275 J24.316341 F400.000000
G03 X409.338980 Y69.858897 Z-0.100000 I-0.792256 J2.169099
G03 X410.434038 Y73.942395 Z-0.100000 I-23.717995 J8.548955
G03 X418.042280 Y117.286473 Z-0.100000 I-5039.744834 J906.972674
G03 X425.365512 Y161.248638 Z-0.100000 I-4992.593142 J854.258884
G03 X425.219030 Y162.667547 Z-0.100000 I-2.702682 J0.438002
G03 X423.955361 Y163.827357 Z-0.100000 I-1.796953 J-0.689548
G03 X406.496078 Y168.434527 Z-0.100000 I-109.987219 J-381.421016
G03 X388.846639 Y172.241240 Z-0.100000 I-92.205131 J-384.681437
G03 X387.281840 Y171.760797 Z-0.100000 I-0.329309 J-1.715934
G03 X386.755702 Y170.600699 Z-0.100000 I1.279770 J-1.279770
G03 X384.906010 Y135.908487 Z-0.100000 I1343.303163 J-89.016619
G03 X384.455437 Y89.514862 Z-0.100000 I756.332270 J-30.544461
G03 X385.944200 Y86.336207 Z-0.100000 I4.331433 J0.090712
G02 X388.566450 Y80.247659 Z-0.100000 I-5.016531 J-5.769505
G02 X385.444200 Y74.365037 Z-0.100000 I-7.709512 J0.321997
G03 X383.100578 Y71.816032 Z-0.100000 I5.429726 J-7.344129
G03 X382.444200 Y69.501767 Z-0.100000 I3.751642 J-2.314265
G03 X383.971057 Y67.013603 Z-0.100000 I2.790783 J0.000000
G03 X389.388540 Y65.974217 Z-0.100000 I4.512951 J8.884201
G02 X394.944469 Y66.477605 Z-0.100000 I469.793412 J-5154.232880
G02 X401.751550 Y67.087617 Z-0.100000 I692.775525 J-7692.346121
G01 X401.751550 Y67.087617 Z-0.100000
G00 Z0.100000

(End cutting path id: path3782)


(Start cutting path id: path3782)
(Change tool to Cylindrical cutter)

G00 Z0.100000
G00 X361.110650 Y72.151387

G01 Z-0.100000 F10000.0(Penetrate)
G03 X377.550024 Y80.470545 Z-0.100000 I-77.916434 J174.371977 F400.000000
G03 X377.855680 Y81.666377 Z-0.100000 I-0.423451 J0.745213
G03 X377.166927 Y82.477067 Z-0.100000 I-3.013943 J-1.862686
G03 X364.616690 Y93.181097 Z-0.100000 I-559.071554 J-642.789560
G02 X352.280036 Y103.986892 Z-0.100000 I230.212578 J275.271916
G02 X351.632860 Y105.088937 Z-0.100000 I1.472939 J1.606034
G02 X351.993827 Y106.108750 Z-0.100000 I0.969795 J0.230527
G02 X359.287320 Y110.993317 Z-0.100000 I40.085602 J-51.967155
G03 X367.090705 Y115.780535 Z-0.100000 I-84.444384 J146.401766
G03 X368.326710 Y116.881587 Z-0.100000 I-3.015790 J4.629703
G03 X369.234147 Y118.724876 Z-0.100000 I-3.391292 J2.814514
G03 X372.576408 Y134.723056 Z-0.100000 I-490.554406 J110.832447
G03 X375.400123 Y150.847513 Z-0.100000 I-491.906408 J94.452113
G03 X375.205050 Y152.703987 Z-0.100000 I-3.562951 J0.564101
G03 X374.511661 Y153.555364 Z-0.100000 I-1.643959 J-0.630846
G03 X359.942737 Y162.641042 Z-0.100000 I-366.989905 J-572.246367
G03 X345.959913 Y170.932061 Z-0.100000 I-431.139173 J-711.180749
G03 X337.752870 Y175.408627 Z-0.100000 I-89.859865 J-154.981785
G03 X335.451952 Y175.834417 Z-0.100000 I-1.863185 J-3.638593
G03 X310.752870 Y172.500727 Z-0.100000 I49.657168 J-461.070377
G03 X282.251060 Y167.190343 Z-0.100000 I100.329961 J-617.631861
G03 X281.195010 Y166.281787 Z-0.100000 I0.297455 J-1.413766
G03 X281.026568 Y164.986806 Z-0.100000 I2.707548 J-1.010622
G03 X284.433950 Y133.523157 Z-0.100000 I1689.178972 J167.014671
G01 X288.142700 Y102.023157 Z-0.100000
G01 X293.935780 Y85.523157 Z-0.100000
G03 X299.954383 Y69.147055 Z-0.100000 I565.773659 J198.641105
G03 X300.792880 Y67.672067 Z-0.100000 I5.293348 J2.033319
G03 X302.136618 Y66.961992 Z-0.100000 I1.472097 J1.159304
G03 X310.400540 Y67.012367 Z-0.100000 I3.795186 J55.272082
G03 X318.782977 Y68.062436 Z-0.100000 I-7.768690 J95.997981
G03 X319.910870 Y68.630127 Z-0.100000 I-0.360825 J2.121187
G03 X320.415170 Y69.748517 Z-0.100000 I-1.135528 J1.184921
G03 X320.576650 Y85.039827 Z-0.100000 I-254.780140 J10.337048
G02 X320.689879 Y100.111448 Z-0.100000 I279.679403 J5.435071
G02 X321.109980 Y100.511857 Z-0.100000 I0.414488 J-0.014287
G02 X321.760009 Y100.167576 Z-0.100000 I-0.010536 J-0.805685
G02 X332.333990 Y84.443497 Z-0.100000 I-438.636041 J-306.387233
G03 X344.872159 Y66.066656 Z-0.100000 I382.259194 J247.342492
G03 X345.932080 Y65.523157 Z-0.100000 I1.059921 J0.761767
G03 X346.262388 Y65.592132 Z-0.100000 I-0.000000 J0.825379
G03 X361.110650 Y72.151387 Z-0.100000 I-764.297911 J1750.235782
G01 X361.110650 Y72.151387 Z-0.100000
G00 Z0.100000

(End cutting path id: path3782)


(Start cutting path id: path3782)
(Change tool to Cylindrical cutter)

G00 Z0.100000
G00 X319.090940 Y127.174037

G01 Z-0.100000 F10000.0(Penetrate)
G02 X318.353235 Y146.317477 Z-0.100000 I208.410643 J17.617167 F400.000000
G02 X319.242180 Y147.898297 Z-0.100000 I1.874392 J-0.013678
G02 X320.371978 Y148.085993 Z-0.100000 I0.793892 J-1.284529
G02 X329.073641 Y145.847145 Z-0.100000 I-36.337620 J-159.261988
G02 X337.588081 Y143.159768 Z-0.100000 I-46.633861 J-162.582411
G02 X339.094050 Y142.204147 Z-0.100000 I-1.257644 J-3.646369
G02 X339.649202 Y140.827722 Z-0.100000 I-1.403061 J-1.366063
G02 X339.041650 Y132.304127 Z-0.100000 I-64.913316 J0.343500
G02 X337.665998 Y123.680047 Z-0.100000 I-204.443498 J28.189606
G02 X337.391800 Y123.203437 Z-0.100000 I-0.804977 J0.145932
G02 X332.609584 Y120.787758 Z-0.100000 I-7.363521 J8.635832
G02 X321.635420 Y119.523157 Z-0.100000 I-10.974164 J46.984413
G02 X320.494178 Y120.346311 Z-0.100000 I0.000000 J1.202700
G02 X319.090940 Y127.174037 Z-0.100000 I28.004653 J9.313595
G01 X319.090940 Y127.174037 Z-0.100000
G00 Z0.100000

(End cutting path id: path3782)


(Start cutting path id: path3782)
(Change tool to Cylindrical cutter)

G00 Z0.100000
G00 X299.415360 Y187.177927

G01 Z-0.100000 F10000.0(Penetrate)
G01 X305.679900 Y187.832707 Z-0.100000 F400.000000
G01 X304.988700 Y197.582057 Z-0.100000
G01 X304.297510 Y207.331397 Z-0.100000
G01 X313.120850 Y207.976497 Z-0.100000
G03 X321.929217 Y208.729141 Z-0.100000 I-26.300804 J359.723784
G03 X323.944200 Y209.035077 Z-0.100000 I-1.865958 J19.078347
G03 X325.706056 Y209.887898 Z-0.100000 I-0.810612 J3.920992
G03 X333.379830 Y216.946247 Z-0.100000 I-72.988358 J87.052881
G01 X340.815460 Y224.443947 Z-0.100000
G01 X342.596820 Y236.216557 Z-0.100000
G03 X343.972633 Y247.850100 Z-0.100000 I-178.452445 J27.002379
G03 X343.661190 Y248.670437 Z-0.100000 I-1.008969 J0.086230
G03 X341.373154 Y250.340348 Z-0.100000 I-7.561694 J-7.958251
G03 X329.869682 Y256.398426 Z-0.100000 I-190.697236 J-348.157501
G03 X318.036332 Y262.133906 Z-0.100000 I-174.345978 J-344.632871
G03 X316.293770 Y262.515317 Z-0.100000 I-1.728855 J-3.727318
G03 X313.961621 Y262.322751 Z-0.100000 I0.045725 J-14.772281
G03 X297.944200 Y259.523157 Z-0.100000 I115.152063 J-706.044095
G02 X281.938139 Y256.600841 Z-0.100000 I-391.010657 J2096.341968
G02 X281.194200 Y256.530997 Z-0.100000 I-0.790931 J4.427609
G03 X280.778464 Y255.575190 Z-0.100000 I0.005983 J-0.570919
G03 X283.194200 Y254.339577 Z-0.100000 I2.858042 J2.608432
G02 X285.173463 Y253.267182 Z-0.100000 I-0.345152 J-2.999738
G02 X286.268050 Y250.632457 Z-0.100000 I-3.733704 J-3.095886
G02 X286.262908 Y247.253881 Z-0.100000 I-17.409148 J-1.662797
G02 X285.031020 Y238.084697 Z-0.100000 I-130.497936 J12.865171
G03 X284.398094 Y228.905346 Z-0.100000 I45.431428 J-7.744041
G03 X285.953610 Y208.475387 Z-0.100000 I228.416192 J7.117176
G02 X288.395174 Y188.020523 Z-0.100000 I-5026.649331 J-610.371698
G02 X288.440640 Y187.273157 Z-0.100000 I-6.642257 J-0.779143
G03 X289.029436 Y186.681802 Z-0.100000 I0.593948 J0.002577
G03 X299.415360 Y187.177957 Z-0.100000 I0.799862 J92.208075
G01 X299.415360 Y187.177927 Z-0.100000
G00 Z0.100000

(End cutting path id: path3782)


(Start cutting path id: path3782)
(Change tool to Cylindrical cutter)

G00 Z0.100000
G00 X260.959060 Y191.773157

G01 Z-0.100000 F10000.0(Penetrate)
G03 X267.394987 Y199.182135 Z-0.100000 I-124.322633 J114.494675 F400.000000
G03 X268.534420 Y201.023157 Z-0.100000 I-6.364161 J5.211977
G03 X269.193439 Y203.096140 Z-0.100000 I-8.689454 J3.903698
G03 X272.934410 Y223.491587 Z-0.100000 I-849.487242 J166.355342
G03 X275.714618 Y243.724688 Z-0.100000 I-306.230489 J52.386366
G03 X275.190060 Y245.169567 Z-0.100000 I-1.750504 J0.182144
G03 X273.349219 Y246.114105 Z-0.100000 I-2.466061 J-2.540080
G03 X260.180033 Y248.134985 Z-0.100000 I-46.567057 J-259.537776
G03 X246.886426 Y249.482625 Z-0.100000 I-32.586346 J-255.203114
G03 X245.501350 Y248.960457 Z-0.100000 I-0.131538 J-1.749164
G03 X245.047860 Y247.847746 Z-0.100000 I1.135614 J-1.111590
G03 X245.514650 Y230.073767 Z-0.100000 I347.964379 J0.245308
G02 X245.934784 Y212.320554 Z-0.100000 I-315.065134 J-16.337668
G02 X245.429550 Y211.108497 Z-0.100000 I-1.725049 J0.007740
G02 X244.370492 Y210.599108 Z-0.100000 I-1.256284 J1.256284
G02 X234.584581 Y209.714208 Z-0.100000 I-25.899723 J231.866752
G02 X224.850341 Y209.259016 Z-0.100000 I-15.028855 J217.080300
G02 X224.461600 Y209.656847 Z-0.100000 I-0.009244 J0.379812
G02 X224.500126 Y210.020985 Z-0.100000 I3.277931 J-0.162701
G02 X228.425180 Y234.023157 Z-0.100000 I13769.556917 J-2239.401411
G03 X231.570869 Y257.704319 Z-0.100000 I-381.442901 J62.718516
G03 X230.969410 Y259.088347 Z-0.100000 I-1.534675 J0.155776
G03 X229.006837 Y259.902567 Z-0.100000 I-2.533702 J-3.334788
G03 X215.874253 Y261.406605 Z-0.100000 I-39.595132 J-287.641104
G03 X202.620932 Y262.306018 Z-0.100000 I-25.754393 J-281.407431
G03 X201.322660 Y261.801607 Z-0.100000 I-0.076441 J-1.726231
G03 X201.121832 Y260.867098 Z-0.100000 I0.622640 J-0.622640
G03 X202.941780 Y257.526447 Z-0.100000 I13.043817 J4.940050
G02 X205.278694 Y254.080156 Z-0.100000 I-42.147361 J-31.095404
G02 X205.444210 Y253.500317 Z-0.100000 I-0.932895 J-0.579839
G02 X205.286232 Y252.913620 Z-0.100000 I-1.168428 J0.000000
G02 X202.460130 Y248.360907 Z-0.100000 I-78.597848 J45.636211
G03 X200.348913 Y243.561427 Z-0.100000 I12.873016 J-8.526726
G03 X198.809490 Y233.684647 Z-0.100000 I54.460229 J-13.546685
G03 X198.932958 Y223.788614 Z-0.100000 I63.437591 J-4.157305
G03 X199.908190 Y221.562957 Z-0.100000 I3.816822 J0.345953
G02 X201.076963 Y218.110526 Z-0.100000 I-3.396662 J-3.073945
G02 X198.806190 Y208.270367 Z-0.100000 I-35.046482 J2.905445
G03 X197.746519 Y204.524166 Z-0.100000 I19.083478 J-7.421025
G03 X198.140431 Y201.986233 Z-0.100000 I3.848823 J-0.702162
G03 X199.909268 Y199.624743 Z-0.100000 I8.467363 J4.499143
G03 X206.885890 Y193.064417 Z-0.100000 I178.057557 J182.366621
G01 X214.661650 Y186.023157 Z-0.100000
G01 X221.802930 Y185.434847 Z-0.100000
G03 X228.951747 Y185.005270 Z-0.100000 I13.257822 J160.931941
G03 X241.613210 Y184.684847 Z-0.100000 I19.106592 J504.676108
G01 X254.282190 Y184.523157 Z-0.100000
G01 X260.959060 Y191.773157 Z-0.100000
G00 Z0.100000

(End cutting path id: path3782)


(Start cutting path id: path3782)
(Change tool to Cylindrical cutter)

G00 Z0.100000
G00 X303.098410 Y227.773157

G01 Z-0.100000 F10000.0(Penetrate)
G02 X302.598849 Y236.028765 Z-0.100000 I239.019182 J18.606359 F400.000000
G02 X302.450190 Y242.773157 Z-0.100000 I159.347458 J6.886167
G02 X303.453992 Y248.514213 Z-0.100000 I16.830430 J0.015544
G02 X304.891930 Y249.523157 Z-0.100000 I1.437937 J-0.520195
G02 X307.120089 Y249.206743 Z-0.100000 I0.000000 J-8.003466
G02 X315.715758 Y246.516850 Z-0.100000 I-59.268794 J-204.474793
G02 X324.239728 Y243.442781 Z-0.100000 I-66.611924 J-198.060659
G02 X325.784570 Y242.496527 Z-0.100000 I-1.801674 J-4.675559
G02 X326.127596 Y241.660754 Z-0.100000 I-0.693612 J-0.772960
G02 X325.439970 Y234.419422 Z-0.100000 I-106.307351 J6.441479
G02 X324.340130 Y227.442027 Z-0.100000 I-127.323551 J16.494496
G02 X323.379820 Y223.933887 Z-0.100000 I-21.479142 J3.994147
G02 X322.042977 Y222.536039 Z-0.100000 I-2.265289 J0.828252
G02 X315.587430 Y220.683887 Z-0.100000 I-11.193788 J26.838917
G02 X307.129976 Y219.467188 Z-0.100000 I-33.487881 J202.776333
G02 X304.972812 Y219.897951 Z-0.100000 I-0.426878 J3.478970
G02 X303.826339 Y221.556023 Z-0.100000 I1.144989 J2.017103
G02 X303.098410 Y227.773157 Z-0.100000 I79.580311 J12.468791
G01 X303.098410 Y227.773157 Z-0.100000
G00 Z0.100000

(End cutting path id: path3782)


(Start cutting path id: path3782)
(Change tool to Cylindrical cutter)

G00 Z0.100000
G00 X402.900770 Y185.452887

G01 Z-0.100000 F10000.0(Penetrate)
G03 X403.127197 Y186.445219 Z-0.100000 I-1.338944 J0.827515 F400.000000
G03 X402.000452 Y195.414050 Z-0.100000 I-223.957496 J-23.580359
G03 X400.517152 Y204.321446 Z-0.100000 I-223.789630 J-32.689254
G03 X400.001850 Y205.298847 Z-0.100000 I-1.836320 J-0.343601
G03 X399.413152 Y205.509308 Z-0.100000 I-0.516696 J-0.516715
G03 X386.665400 Y203.978327 Z-0.100000 I30.366715 J-306.686933
G02 X373.865138 Y202.535815 Z-0.100000 I-32.026749 J226.678885
G02 X372.258700 Y202.764097 Z-0.100000 I-0.305071 J3.619650
G02 X371.335194 Y203.730403 Z-0.100000 I0.560189 J1.459830
G02 X370.012457 Y208.779331 Z-0.100000 I38.185653 J12.701754
G02 X369.351453 Y213.960513 Z-0.100000 I39.815757 J7.712364
G02 X369.839770 Y215.252057 Z-0.100000 I1.675100 J0.104751
G02 X370.505232 Y215.491367 Z-0.100000 I0.586762 J-0.586743
G02 X380.672240 Y214.220027 Z-0.100000 I-16.521540 J-173.412928
G03 X390.728587 Y213.294795 Z-0.100000 I12.472094 J80.445323
G03 X392.210640 Y213.877467 Z-0.100000 I0.060070 J2.023378
G03 X392.985524 Y215.342729 Z-0.100000 I-1.935805 J1.961249
G03 X393.710640 Y222.075307 Z-0.100000 I-45.240578 J8.277864
G01 X393.944200 Y229.023157 Z-0.100000
G01 X382.694200 Y229.305907 Z-0.100000
G02 X372.153684 Y230.280537 Z-0.100000 I1.984154 J78.942950
G02 X371.444200 Y231.113087 Z-0.100000 I0.133739 J0.832550
G02 X372.610804 Y239.518625 Z-0.100000 I30.864809 J0.000000
G02 X374.550730 Y242.088997 Z-0.100000 I4.276591 J-1.210412
G02 X375.462196 Y242.235935 Z-0.100000 I0.632580 J-1.023520
G02 X387.547890 Y238.992157 Z-0.100000 I-51.234405 J-215.025901
G03 X399.518470 Y236.020727 Z-0.100000 I37.427809 J125.182304
G03 X400.700500 Y236.379457 Z-0.100000 I0.255343 J1.285417
G03 X401.582833 Y237.958198 Z-0.100000 I-2.348436 J2.348436
G03 X403.130495 Y245.685207 Z-0.100000 I-105.898931 J25.229248
G03 X404.104197 Y253.529092 Z-0.100000 I-102.751926 J16.737514
G03 X403.682340 Y254.685017 Z-0.100000 I-1.453184 J0.124599
G03 X402.446802 Y255.343945 Z-0.100000 I-1.700230 J-1.700230
G03 X379.954730 Y259.550263 Z-0.100000 I-230.181276 J-1168.589713
G03 X357.591811 Y263.294371 Z-0.100000 I-210.636515 J-1189.439145
G03 X354.972400 Y263.311007 Z-0.100000 I-1.364688 J-8.648705
G03 X351.676192 Y260.446001 Z-0.100000 I0.578316 J-3.994012
G03 X352.761810 Y255.724697 Z-0.100000 I4.767525 J-1.389220
G02 X353.942408 Y252.592029 Z-0.100000 I-3.387108 J-3.065287
G02 X352.454790 Y234.912307 Z-0.100000 I-128.293808 J1.892535
G03 X350.550319 Y222.016288 Z-0.100000 I988.104724 J-152.510928
G03 X350.454790 Y220.730317 Z-0.100000 I9.687604 J-1.366183
G02 X350.071597 Y219.586294 Z-0.100000 I-1.948422 J0.016441
G02 X345.871730 Y214.549127 Z-0.100000 I-46.219241 J34.267019
G01 X341.299250 Y209.660787 Z-0.100000
G01 X342.970670 Y198.841977 Z-0.100000
G03 X344.920043 Y188.158862 Z-0.100000 I197.258408 J30.474797
G03 X345.426070 Y187.190237 Z-0.100000 I1.977929 J0.416813
G03 X347.179976 Y186.371379 Z-0.100000 I1.905428 J1.793454
G03 X374.370401 Y185.172090 Z-0.100000 I56.857935 J980.257956
G03 X401.602320 Y184.730813 Z-0.100000 I29.356962 J971.183721
G03 X402.900770 Y185.452887 Z-0.100000 I0.003330 J1.522499
G01 X402.900770 Y185.452887 Z-0.100000
G00 Z0.100000

(End cutting path id: path3782)


(Start cutting path id: path3782)
(Change tool to Cylindrical cutter)

G00 Z0.100000
G00 X433.694200 Y184.168907

G01 Z-0.100000 F10000.0(Penetrate)
G03 X434.650020 Y185.260605 Z-0.100000 I-0.356741 J1.276616 F400.000000
G03 X435.444200 Y196.590547 Z-0.100000 I-80.420683 J11.329942
G02 X435.807616 Y208.153387 Z-0.100000 I184.129611 J-0.000000
G02 X436.194200 Y208.510157 Z-0.100000 I0.379985 J-0.023909
G02 X436.781050 Y208.201840 Z-0.100000 I-0.012497 J-0.736451
G02 X444.944200 Y196.261267 Z-0.100000 I-285.485304 J-203.932121
G03 X453.288353 Y184.542237 Z-0.100000 I151.714442 J99.193213
G03 X454.655130 Y183.708467 Z-0.100000 I1.775678 J1.373676
G03 X456.977822 Y183.902436 Z-0.100000 I0.806041 J4.351600
G03 X467.512953 Y188.114613 Z-0.100000 I-63.614748 J174.388543
G03 X477.786961 Y192.995536 Z-0.100000 I-69.718265 J160.005670
G03 X478.444200 Y194.073927 Z-0.100000 I-0.556088 J1.078391
G03 X477.971155 Y195.220436 Z-0.100000 I-1.625910 J0.000000
G03 X468.944200 Y203.626607 Z-0.100000 I-114.032421 J-113.403694
G02 X459.838789 Y211.996824 Z-0.100000 I126.558099 J146.811969
G02 X459.444200 Y212.935957 Z-0.100000 I0.920287 J0.939133
G02 X459.867335 Y213.815924 Z-0.100000 I1.126572 J-0.000000
G02 X465.008780 Y217.384217 Z-0.100000 I28.898341 J-36.150516
G03 X470.154518 Y221.072730 Z-0.100000 I-19.629013 J32.817461
G03 X471.456160 Y222.867847 Z-0.100000 I-3.038877 J3.572964
G03 X472.122486 Y225.084194 Z-0.100000 I-11.091441 J4.542885
G03 X474.426390 Y237.878747 Z-0.100000 I-370.981302 J73.406979
G03 X475.887148 Y250.563669 Z-0.100000 I-136.099847 J22.099428
G03 X475.398220 Y252.078567 Z-0.100000 I-2.137985 J0.146322
G03 X473.244134 Y253.953245 Z-0.100000 I-6.815442 J-5.656327
G03 X461.019410 Y261.206480 Z-0.100000 I-199.572471 J-322.434339
G03 X448.429274 Y268.043064 Z-0.100000 I-183.465871 J-322.856394
G03 X446.459640 Y268.523157 Z-0.100000 I-1.969634 J-3.800274
G03 X444.026805 Y268.351379 Z-0.100000 I0.000000 J-17.313612
G03 X427.750455 Y265.946293 Z-0.100000 I202.029520 J-1423.506470
G03 X411.169060 Y263.297518 Z-0.100000 I213.190461 J-1387.801710
G03 X410.613180 Y263.016517 Z-0.100000 I0.170444 J-1.027500
G03 X410.521932 Y262.657263 Z-0.100000 I0.247117 J-0.253981
G03 X411.312170 Y260.769867 Z-0.100000 I10.310790 J3.207914
G02 X411.737861 Y258.749618 Z-0.100000 I-3.251409 J-1.740085
G02 X410.296110 Y247.434217 Z-0.100000 I-112.244518 J8.552077
G01 X408.250040 Y236.023157 Z-0.100000
G01 X410.939450 Y210.028267 Z-0.100000
G03 X413.829414 Y184.101688 Z-0.100000 I1638.957190 J169.565677
G03 X414.145430 Y183.197567 Z-0.100000 I2.205227 J0.263501
G03 X414.799985 Y182.830115 Z-0.100000 I0.659083 J0.407330
G03 X422.754611 Y183.004360 Z-0.100000 I0.838064 J143.400142
G03 X430.461303 Y183.566467 Z-0.100000 I-8.278857 J166.617913
G03 X433.694200 Y184.168907 Z-0.100000 I-1.787426 J18.567551
G01 X433.694200 Y184.168907 Z-0.100000
G00 Z0.100000

(End cutting path id: path3782)


(Start cutting path id: path3782)
(Change tool to Cylindrical cutter)

G00 Z0.100000
G00 X435.173210 Y224.127477

G01 Z-0.100000 F10000.0(Penetrate)
G02 X434.541360 Y225.570592 Z-0.100000 I1.529594 J1.529594 F400.000000
G02 X434.422733 Y236.300885 Z-0.100000 I185.320273 J7.414581
G02 X434.940373 Y246.921826 Z-0.100000 I172.506301 J-3.084472
G02 X435.591530 Y247.523157 Z-0.100000 I0.651156 J-0.051889
G02 X442.846403 Y246.243061 Z-0.100000 I0.000000 J-21.198339
G02 X450.253150 Y242.182897 Z-0.100000 I-9.536991 J-26.183795
G02 X450.903356 Y240.797700 Z-0.100000 I-1.010607 J-1.319576
G02 X449.761760 Y229.746057 Z-0.100000 I-87.556046 J3.459454
G02 X448.763159 Y226.793649 Z-0.100000 I-9.659555 J1.622091
G02 X447.577830 Y225.611197 Z-0.100000 I-2.499337 J1.320088
G02 X445.429293 Y224.839576 Z-0.100000 I-3.837778 J7.309034
G02 X440.809375 Y224.081867 Z-0.100000 I-11.010186 J52.668321
G02 X436.077290 Y223.761519 Z-0.100000 I-5.476482 J45.786300
G02 X435.173210 Y224.127477 Z-0.100000 I-0.020179 J1.249870
G01 X435.173210 Y224.127477 Z-0.100000
G00 Z0.100000

(End cutting path id: path3782)


(Start cutting path id: path3782)
(Change tool to Cylindrical cutter)

G00 Z0.100000
G00 X226.671480 Y113.773157

G01 Z-0.100000 F10000.0(Penetrate)
G02 X226.209158 Y115.289416 Z-0.100000 I1.627352 J1.324807 F400.000000
G02 X227.606161 Y126.776675 Z-0.100000 I194.317423 J-17.802993
G02 X229.654940 Y138.094542 Z-0.100000 I200.176228 J-30.391869
G02 X230.697790 Y140.292487 Z-0.100000 I5.100933 J-1.073847
G02 X234.376256 Y141.889159 Z-0.100000 I3.362473 J-2.710954
G02 X239.661100 Y139.634967 Z-0.100000 I-0.648690 J-8.842949
G02 X240.132075 Y138.854230 Z-0.100000 I-1.049808 J-1.165716
G02 X242.833547 Y127.574825 Z-0.100000 I-437.170625 J-110.667681
G02 X245.203634 Y116.461789 Z-0.100000 I-458.243379 J-103.539233
G02 X245.444200 Y114.040137 Z-0.100000 I-12.068501 J-2.421652
G02 X244.750046 Y113.217307 Z-0.100000 I-0.834757 J0.000000
G02 X236.566640 Y112.523157 Z-0.100000 I-8.183406 J47.890467
G02 X227.946885 Y113.065446 Z-0.100000 I-0.000000 J68.777179
G02 X226.671480 Y113.773157 Z-0.100000 I0.245847 J1.946149
G01 X226.671480 Y113.773157 Z-0.100000
G00 Z0.100000

(End cutting path id: path3782)


(Start cutting path id: path3782)
(Change tool to Cylindrical cutter)

G00 Z0.100000
G00 X217.812550 Y68.273157

G01 Z-0.100000 F10000.0(Penetrate)
G03 X218.224673 Y70.043209 Z-0.100000 I-17.066064 J4.906516 F400.000000
G03 X219.515540 Y77.763247 Z-0.100000 I-324.170591 J58.172470
G02 X221.102251 Y85.276895 Z-0.100000 I69.878856 J-10.832465
G02 X221.829800 Y86.377957 Z-0.100000 I2.016950 J-0.541837
G02 X223.075575 Y86.943374 Z-0.100000 I1.781354 J-2.269722
G02 X236.252520 Y89.102517 Z-0.100000 I51.020047 J-270.080075
G02 X249.248575 Y90.288359 Z-0.100000 I19.070140 J-137.189231
G02 X250.322460 Y89.720137 Z-0.100000 I0.052648 J-1.199381
G02 X250.868899 Y88.404407 Z-0.100000 I-3.805049 J-2.351622
G02 X252.858280 Y79.067877 Z-0.100000 I-195.366487 J-46.507910
G03 X254.889008 Y69.974487 Z-0.100000 I136.486545 J25.706610
G03 X256.785658 Y67.582797 Z-0.100000 I3.646383 J0.943761
G03 X260.008545 Y67.030744 Z-0.100000 I2.462939 J4.695011
G03 X272.028940 Y69.011217 Z-0.100000 I-44.870302 J309.807268
G03 X286.755511 Y72.143044 Z-0.100000 I-51.070772 J276.336296
G03 X288.157140 Y72.895457 Z-0.100000 I-0.734577 J3.050118
G03 X288.512401 Y74.236156 Z-0.100000 I-0.885033 J0.951936
G03 X273.626320 Y119.253977 Z-0.100000 I-1449.512752 J-454.341514
G03 X257.603538 Y164.309813 Z-0.100000 I-3363.556701 J-1170.772993
G03 X256.808240 Y165.559117 Z-0.100000 I-3.210752 J-1.166149
G03 X254.906141 Y166.495527 Z-0.100000 I-2.327273 J-2.327273
G03 X233.989891 Y168.848871 Z-0.100000 I-77.676910 J-596.256160
G03 X212.968456 Y170.466936 Z-0.100000 I-56.168868 J-592.368341
G03 X211.387040 Y169.865997 Z-0.100000 I-0.121920 J-2.060436
G03 X210.596620 Y168.569460 Z-0.100000 I2.277903 J-2.277903
G03 X203.272260 Y144.494467 Z-0.100000 I842.682796 J-269.521911
G01 X196.266160 Y120.231607 Z-0.100000
G01 X201.446320 Y94.627377 Z-0.100000
G03 X207.186533 Y69.369310 Z-0.100000 I532.412535 J107.716152
G03 X208.226470 Y67.773157 Z-0.100000 I2.848914 J0.719294
G03 X214.638310 Y65.750700 Z-0.100000 I5.911670 J7.566868
G03 X217.812550 Y68.273157 Z-0.100000 I-0.181897 J3.487345
G01 X217.812550 Y68.273157 Z-0.100000
G00 Z0.100000

(End cutting path id: path3782)


(Start cutting path id: path3782)
(Change tool to Cylindrical cutter)

G00 Z0.100000
G00 X193.610640 Y75.610137

G01 Z-0.100000 F10000.0(Penetrate)
G03 X188.245819 Y107.226418 Z-0.100000 I-517.141223 J-71.487999 F400.000000
G03 X175.978750 Y163.128787 Z-0.100000 I-1629.985363 J-328.382605
G03 X174.773849 Y164.453098 Z-0.100000 I-1.800246 J-0.427638
G03 X166.211380 Y166.447927 Z-0.100000 I-14.355409 J-42.244292
G02 X156.965461 Y167.764802 Z-0.100000 I53.798172 J410.839477
G02 X155.290340 Y168.129167 Z-0.100000 I2.124242 J13.798675
G03 X154.043235 Y167.656151 Z-0.100000 I-0.304665 J-1.077253
G03 X145.308310 Y152.560027 Z-0.100000 I161.148362 J-103.318895
G02 X137.164022 Y137.881792 Z-0.100000 I-270.064841 J140.248175
G02 X134.788841 Y136.610418 Z-0.100000 I-2.235721 J1.322433
G02 X132.627710 Y138.150512 Z-0.100000 I0.132960 J2.472922
G02 X126.876380 Y153.551047 Z-0.100000 I264.502492 J107.552652
G03 X120.435482 Y169.855315 Z-0.100000 I-174.330007 J-59.443608
G03 X119.007180 Y170.992497 Z-0.100000 I-1.820978 J-0.821585
G03 X102.146852 Y173.494018 Z-0.100000 I-33.149147 J-165.355933
G03 X100.445082 Y172.793767 Z-0.100000 I-0.189864 J-1.956560
G03 X99.854862 Y171.831295 Z-0.100000 I3.041701 J-2.527480
G03 X81.764902 Y129.639800 Z-0.100000 I11642.583932 J-5016.830090
G03 X63.904428 Y87.564803 Z-0.100000 I11681.982923 J-4983.729383
G03 X63.270992 Y85.656797 Z-0.100000 I11.718790 J-4.949657
G03 X63.843359 Y84.415978 Z-0.100000 I1.063449 J-0.261871
G03 X78.733752 Y77.445991 Z-0.100000 I135.689119 J270.490028
G03 X93.899212 Y71.335766 Z-0.100000 I118.179543 J271.444068
G03 X95.009422 Y71.838727 Z-0.100000 I0.301282 J0.811755
G03 X95.423354 Y73.036306 Z-0.100000 I-18.569408 J7.088666
G03 X103.290392 Y98.523157 Z-0.100000 I-8414.149062 J2611.156884
G02 X112.044362 Y122.771356 Z-0.100000 I253.769007 J-77.910228
G02 X113.922550 Y124.023157 Z-0.100000 I1.878188 J-0.783106
G02 X116.110094 Y122.973768 Z-0.100000 I0.000000 J-2.804759
G02 X123.150590 Y112.523157 Z-0.100000 I-59.006426 J-47.349043
G03 X129.684882 Y101.105164 Z-0.100000 I556.853570 J311.097582
G03 X130.358000 Y100.224897 Z-0.100000 I3.904820 J2.288426
G03 X131.101492 Y100.233006 Z-0.100000 I0.367857 J0.360693
G03 X140.448300 Y110.974897 Z-0.100000 I-137.759121 J129.305304
G02 X150.212131 Y121.569475 Z-0.100000 I84.733711 J-68.293128
G02 X152.600050 Y122.523157 Z-0.100000 I2.387919 J-2.512708
G02 X154.565576 Y121.637025 Z-0.100000 I0.000000 J-2.622929
G02 X155.471850 Y119.273157 Z-0.100000 I-2.709999 J-2.394636
G03 X155.578427 Y116.026025 Z-0.100000 I66.834263 J0.568325
G03 X156.944200 Y93.523157 Z-0.100000 I3213.925910 J183.770751
G02 X158.326382 Y71.020820 Z-0.100000 I-4055.852779 J-260.420162
G02 X158.416550 Y68.414957 Z-0.100000 I-54.266384 J-3.182202
G01 X158.444150 Y65.806757 Z-0.100000
G01 X176.194150 Y69.501937 Z-0.100000
G03 X192.681153 Y74.087567 Z-0.100000 I-26.428809 J126.952340
G03 X193.610590 Y75.610137 Z-0.100000 I-0.466320 J1.329627
G01 X193.610640 Y75.610137 Z-0.100000
G00 Z0.100000

(End cutting path id: path3782)


(Start cutting path id: path3782)
(Change tool to Cylindrical cutter)

G00 Z0.100000
G00 X180.683860 Y186.773157

G01 Z-0.100000 F10000.0(Penetrate)
G03 X181.949396 Y188.301242 Z-0.100000 I-2.744454 J3.561005 F400.000000
G03 X188.367610 Y201.929577 Z-0.100000 I-231.152364 J117.185840
G03 X193.507516 Y215.706003 Z-0.100000 I-124.939303 J54.461198
G03 X193.186820 Y217.337807 Z-0.100000 I-1.663889 J0.520413
G03 X191.766714 Y218.641199 Z-0.100000 I-5.437557 J-4.499140
G03 X174.672360 Y230.156517 Z-0.100000 I-459.344135 J-663.445113
G02 X157.743926 Y241.750335 Z-0.100000 I274.782608 J419.372923
G02 X156.851070 Y242.905247 Z-0.100000 I1.476631 J2.064164
G02 X156.867860 Y244.335857 Z-0.100000 I1.808987 J0.694172
G02 X158.854860 Y248.329802 Z-0.100000 I28.770622 J-11.822230
G02 X161.392883 Y251.981036 Z-0.100000 I25.887148 J-15.286792
G02 X162.530610 Y252.523157 Z-0.100000 I1.137727 J-0.922788
G02 X163.506644 Y252.246276 Z-0.100000 I-0.000000 J-1.858754
G02 X173.875610 Y245.523157 Z-0.100000 I-144.811959 J-234.698811
G03 X184.241712 Y238.790680 Z-0.100000 I160.678503 J236.052581
G03 X185.182030 Y238.523157 Z-0.100000 I0.940318 J1.518804
G03 X186.174082 Y238.970316 Z-0.100000 I0.000000 J1.324048
G03 X191.295500 Y245.146207 Z-0.100000 I-95.352276 J84.283236
G03 X196.012043 Y251.612283 Z-0.100000 I-103.274093 J80.284350
G03 X196.444200 Y253.010297 Z-0.100000 I-2.045190 J1.398014
G03 X195.989576 Y254.008664 Z-0.100000 I-1.323534 J0.000000
G03 X185.105810 Y262.878447 Z-0.100000 I-142.334597 J-163.540844
G03 X173.411162 Y270.468301 Z-0.100000 I-55.860066 J-73.266028
G03 X169.279490 Y271.523157 Z-0.100000 I-4.131672 J-7.564063
G03 X152.636038 Y270.794226 Z-0.100000 I0.000000 J-190.371791
G03 X140.933650 Y269.035487 Z-0.100000 I8.398182 J-95.692614
G03 X139.403644 Y268.077951 Z-0.100000 I0.553156 J-2.584998
G03 X130.934863 Y256.677478 Z-0.100000 I230.348572 J-179.958945
G03 X123.044207 Y244.909379 Z-0.100000 I241.677946 J-170.577493
G03 X122.442370 Y242.836637 Z-0.100000 I3.248031 J-2.066838
G03 X122.930905 Y241.924549 Z-0.100000 I1.098838 J0.001684
G03 X141.906550 Y229.836637 Z-0.100000 I288.565516 J432.053125
G02 X160.738320 Y217.658421 Z-0.100000 I-204.201763 J-336.416524
G02 X161.406550 Y216.423197 Z-0.100000 I-0.874641 J-1.271523
G02 X160.975880 Y214.681718 Z-0.100000 I-3.411896 J-0.080226
G02 X158.407552 Y210.675001 Z-0.100000 I-33.742488 J18.802603
G02 X155.351556 Y207.034504 Z-0.100000 I-28.791758 J21.066179
G02 X154.187930 Y206.557327 Z-0.100000 I-1.120948 J1.076125
G02 X153.080383 Y206.946906 Z-0.100000 I0.052743 J1.919075
G02 X142.971290 Y215.066367 Z-0.100000 I141.514206 J186.544397
G03 X132.900628 Y223.065548 Z-0.100000 I-125.778613 J-148.011554
G03 X131.971290 Y223.224697 Z-0.100000 I-0.621889 J-0.838503
G03 X130.571594 Y222.280591 Z-0.100000 I0.856617 J-2.779608
G03 X124.582213 Y214.486861 Z-0.100000 I137.710475 J-112.026962
G03 X119.037939 Y206.354838 Z-0.100000 I136.696996 J-99.153681
G03 X119.030330 Y205.383797 Z-0.100000 I0.768186 J-0.491570
G03 X119.778391 Y204.490389 Z-0.100000 I3.465104 J2.141488
G03 X130.682590 Y194.951887 Z-0.100000 I420.041994 J469.180513
G01 X141.714850 Y185.523157 Z-0.100000
G01 X160.388400 Y185.523157 Z-0.100000
G03 X178.868270 Y186.091707 Z-0.100000 I-0.000000 J300.614796
G03 X180.683860 Y186.773157 Z-0.100000 I-0.203312 J3.301048
G01 X180.683860 Y186.773157 Z-0.100000
G00 Z0.100000

(End cutting path id: path3782)


(Footer)
M5
G00 X0.0000 Y0.0000
M2
(Using default footer. To add your own footer create file "footer" in the output dir.)
(end)
%
